stasshy/Variational-Autoencoder-/generated_samples_final (1).csv
id,joint_1,joint_2,joint_3,joint_4,joint_5,joint_6,joint_7
1,-0.17878829,-0.32743254,-0.35516611,-2.02027965,0.19551621,1.40072370,0.40464872
2,-0.06680596,-0.31864884,-0.17429376,-1.85032094,0.29079214,1.27969766,0.64133924
3,-0.24063227,-0.04269895,-0.28129733,-1.70916784,0.21635942,1.32675791,0.30397385
4,-0.06107536,-0.23706998,-0.15691969,-1.78859413,0.28801590,1.28631079,0.63765907
5,-0.12416235,-0.34549990,-0.26975703,-1.90629268,0.20325552,1.26295471,0.48119128
6,-0.12922214,-0.26607794,-0.25446656,-1.85565543,0.21901147,1.28559852,0.47650713
7,-0.19796214,-0.14379251,-0.30383715,-1.79929495,0.18676893,1.32210279,0.31978232
8,-0.01441677,-0.41900355,-0.12561893,-1.88589001,0.31469283,1.22622406,0.75935107
9,-0.14720140,-0.27466905,-0.27365637,-1.86364353,0.20805775,1.29148078,0.43769234
10,-0.09986982,-0.52753222,-0.27366969,-2.04059982,0.18240352,1.19865465,0.54120487
11,0.00444609,-0.33223587,-0.07589040,-1.78822148,0.35419819,1.26339245,0.83184808
12,-0.10809235,-0.39627832,-0.25480342,-1.95483875,0.21348806,1.26175356,0.50526565
13,-0.16752419,-0.02531914,-0.17682415,-1.64363229,0.28661606,1.32346451,0.48721319
14,-0.05300982,0.02444023,-0.05558335,-1.53220892,0.35776293,1.34286439,0.73895437
15,0.00096531,0.11946034,0.03987990,-1.36860096,0.39976570,1.31226528,0.90332657
16,-0.08719984,-0.44276196,-0.23220518,-1.97004545,0.22586164,1.23853409,0.56081945
17,-0.28270543,0.17938077,-0.18744600,-1.48209631,0.26923841,1.35458314,0.34868938
18,-0.01257625,-0.20409563,-0.07712930,-1.69419324,0.35185185,1.28290260,0.80543059
19,0.00635329,-0.31180888,-0.06616970,-1.77202821,0.35706189,1.25695789,0.83902323
20,-0.18965624,-0.41236073,-0.39195311,-1.99265873,0.09960169,1.24923313,0.29731876
21,0.01059496,-0.00742130,-0.01465339,-1.49452245,0.35870591,1.30913198,0.87078339
22,-0.07407139,-0.33191693,-0.17050627,-1.87280595,0.27952275,1.27995539,0.63684839
23,-0.06892405,-0.55547804,-0.25090277,-2.03882933,0.21877949,1.20457232,0.59264135
24,-0.10099906,-0.46447664,-0.26225930,-1.98369062,0.20029692,1.22888207,0.52812964
25,0.08217511,-0.25522968,0.03088755,-1.65469587,0.40129012,1.25109136,1.01697397
26,-0.08600391,-0.08503814,-0.11981294,-1.65367174,0.32151303,1.32253730,0.64276004
27,0.02481845,-0.16641548,0.00158148,-1.61201560,0.37207982,1.26991320,0.91612864
28,-0.06350870,-0.44600469,-0.19706583,-1.94992912,0.26121676,1.23754656,0.63029212
29,-0.09204265,-0.38020524,-0.23859990,-1.92927921,0.23099598,1.24872899,0.54240054
30,-0.15929455,0.05225629,-0.15900481,-1.56126714,0.29052624,1.33182263,0.49373674
31,-0.16840799,-0.12998338,-0.24250150,-1.76208317,0.23454644,1.32115614,0.41754419
32,-0.05378774,-0.31093171,-0.15805423,-1.83456337,0.29512796,1.27327931,0.67446452
33,-0.18150842,0.08443916,-0.14349934,-1.55893171,0.31101024,1.34427738,0.49408567
34,-0.02523169,-0.44760609,-0.14688319,-1.92308176,0.29727679,1.21941876,0.72896379
35,-0.14474165,-0.04010965,-0.16401145,-1.66279018,0.30411986,1.32774818,0.52426755
36,0.04065397,-0.10519375,0.01625363,-1.54869545,0.39424312,1.27813804,0.95894426
37,-0.20124774,-0.19794732,-0.29905343,-1.82510078,0.19017540,1.30974627,0.33871120
38,-0.08361691,-0.19768012,-0.13960579,-1.75201356,0.30722100,1.30770695,0.64985418
39,-0.14135569,-0.01715916,-0.15755144,-1.62726200,0.30533072,1.33182633,0.54365712
40,-0.10345830,-0.30582753,-0.21269786,-1.86665976,0.24984433,1.27928376,0.54493529
41,-0.32157999,0.20022728,-0.20504260,-1.47694707,0.27586615,1.32562435,0.30792671
42,-0.00920802,-0.37212688,-0.09753082,-1.82501471,0.32726702,1.23774254,0.79765213
43,0.07695258,-0.44334662,-0.01348061,-1.82446194,0.39164552,1.21768320,0.98949510
44,-0.15796252,-0.22114398,-0.26410231,-1.82961833,0.21601838,1.29970992,0.42049903
45,0.00400144,-0.01531549,0.00817221,-1.49102843,0.38808295,1.29978347,0.87819195
46,-0.15806182,-0.33890077,-0.33859646,-1.93282449,0.15266323,1.26211584,0.36745715
47,0.19744578,-0.11878790,0.20705874,-1.39091361,0.48092136,1.26134789,1.33798671
48,0.10813549,-0.01050860,0.10170193,-1.38860500,0.41243413,1.28453863,1.10852551
49,-0.30278060,0.27589315,-0.15602475,-1.38785040,0.28840280,1.35945499,0.35005200
50,-0.06412101,0.13713221,-0.03933046,-1.39395964,0.34194598,1.32499456,0.73583150
51,-0.25213730,-0.31892663,-0.44699174,-1.98142922,0.05352197,1.30894458,0.16993067
52,-0.23033851,-0.26581913,-0.38604262,-1.90886486,0.12015563,1.27761495,0.22627394
53,0.01635456,-0.53505683,-0.09737492,-1.94909060,0.31928927,1.18920517,0.82744843
54,-0.26458669,-0.26379162,-0.44254690,-1.94689476,0.07696074,1.32458544,0.14917716
55,0.02370532,-0.13115975,-0.01802132,-1.58385932,0.37011036,1.28623807,0.88887703
56,0.09212452,-0.31870589,0.03699621,-1.71574843,0.39743477,1.25863075,1.05033612
57,-0.09133083,-0.21051010,-0.16906178,-1.77749491,0.28876984,1.30408275,0.60481232
58,0.07000890,-0.07569569,0.04088363,-1.49870801,0.40606514,1.29272997,0.98128444
59,-0.11437833,-0.36529732,-0.25710106,-1.91727614,0.20924161,1.25508070,0.51463753
60,-0.26422822,0.11925493,-0.22014424,-1.54584241,0.25157419,1.34701812,0.33050174
61,-0.23532613,-0.49222162,-0.51787281,-2.10542297,0.05327941,1.25149953,0.18327250
62,0.10114118,-0.11386402,0.13632739,-1.46574199,0.44469288,1.27344954,1.16893935
63,-0.16506420,-0.16076675,-0.20342666,-1.76636875,0.25729340,1.30840099,0.48137915
64,-0.11959721,-0.25519589,-0.25056326,-1.83917058,0.23028041,1.28873789,0.49254149
65,-0.08587132,0.03331869,-0.08832867,-1.54085779,0.33651412,1.32557547,0.65002799
66,0.24443728,0.26140669,0.28834680,-1.04454029,0.50974190,1.34336257,1.46302414
67,-0.02582957,-0.33798501,-0.10657325,-1.84546828,0.32368979,1.25971270,0.76374471
68,0.11192235,-0.60178697,0.02042211,-1.90645349,0.39535299,1.15874517,1.07552207
69,-0.02282266,-0.36371869,-0.13447464,-1.85441506,0.31258032,1.24165738,0.73615438
70,-0.16371445,-0.08896351,-0.23669985,-1.71546900,0.23788862,1.32627940,0.42968476
71,-0.11517154,-0.33961558,-0.25364941,-1.90726173,0.23329490,1.29730940,0.52734894
72,-0.19858687,-0.33676177,-0.35932958,-1.93400872,0.12897517,1.26424038,0.30769473
73,-0.02448207,-0.15359218,-0.07392495,-1.66748679,0.35529318,1.30053067,0.77297300
74,-0.14334106,-0.51772517,-0.33326077,-2.05088115,0.14450946,1.21087551,0.44520581
75,-0.08350742,-0.40067494,-0.22480550,-1.94058931,0.23226736,1.24955130,0.56073296
76,0.09064923,-0.33062840,0.01263188,-1.72475135,0.39488471,1.24555230,1.01885700
77,0.16905966,0.07783312,0.19407055,-1.24409473,0.46373430,1.28625405,1.24613535
78,-0.07946320,-0.47532248,-0.20972231,-1.98025453,0.23762096,1.22139883,0.61278075
79,0.13537017,-0.22541265,0.10424893,-1.55984890,0.43783098,1.24182475,1.17863607
80,-0.01144199,0.07458614,0.01167528,-1.41168749,0.36685365,1.31383121,0.83066171
81,0.06038982,-0.25540930,0.00635859,-1.69225681,0.38911209,1.26158893,0.95510584
82,-0.23218453,-0.20645201,-0.35477448,-1.86834192,0.14623201,1.31098902,0.24613984
83,-0.08145455,-0.26247236,-0.19602150,-1.82592583,0.27485567,1.27445734,0.57931238
84,0.01247594,-0.35809433,-0.08738974,-1.81875885,0.34450033,1.24561059,0.82017225
85,-0.09197721,-0.30313608,-0.21526343,-1.85861075,0.25657851,1.28582132,0.55954856
86,-0.10375363,-0.36549348,-0.22490048,-1.90957618,0.23628016,1.25649607,0.54866773
87,-0.12052996,-0.24930155,-0.23182946,-1.84542155,0.23897187,1.29854858,0.49899268
88,-0.18916756,-0.12147889,-0.28501153,-1.77139962,0.20494083,1.32693577,0.34928626
89,-0.15354188,-0.14198333,-0.22523305,-1.75525582,0.25525638,1.31093967,0.46143609
90,0.16722843,0.12073284,0.20064268,-1.21121979,0.46367860,1.30580509,1.23738170
91,-0.04574305,-0.62548321,-0.21228778,-2.08149052,0.22237632,1.15771616,0.67194670
92,-0.01272181,-0.29361415,-0.12628525,-1.80843484,0.32383344,1.26940572,0.74642295
93,-0.00316878,-0.10753587,-0.04451735,-1.60912216,0.36607838,1.30354011,0.83188385
94,-0.12841511,-0.21796855,-0.23040965,-1.81383026,0.25107628,1.29362833,0.49559122
95,0.06948963,-0.23010188,0.01941745,-1.64091778,0.39553544,1.26495707,0.96859413
96,-0.19088086,-0.26201960,-0.29971039,-1.86305654,0.18670730,1.30217278,0.36122179
97,-0.07712498,-0.06452273,-0.08787481,-1.61245108,0.34148648,1.31985700,0.69588512
98,-0.07258855,-0.37941283,-0.19008759,-1.90666354,0.26030445,1.25873625,0.61456233
99,-0.21403062,-0.01204052,-0.22621450,-1.66031349,0.25720298,1.32941449,0.38614237
100,-0.14781526,-0.11826898,-0.21158725,-1.73216617,0.25997496,1.32136095,0.47861248
101,-0.18279049,-0.12262377,-0.24424142,-1.75650144,0.23938754,1.32608855,0.41673577
102,0.01972353,-0.51483506,-0.09711599,-1.93592489,0.32937226,1.21476758,0.83592147
103,0.09823684,-0.32223108,0.03071661,-1.70407391,0.40307611,1.23500657,1.03818452
104,0.00514732,-0.57640642,-0.12117701,-1.98563850,0.29604468,1.17625463,0.80864626
105,0.00944839,0.04228881,0.01832230,-1.43789303,0.38897976,1.30376852,0.90330827
106,-0.08015355,-0.20981175,-0.17647740,-1.77151716,0.29200625,1.29457831,0.60955274
107,0.01322514,-0.56200540,-0.12435036,-1.98321879,0.30236509,1.20524490,0.80512595
108,0.00919822,-0.50495917,-0.11262938,-1.94381082,0.32139370,1.21357787,0.81136394
109,0.12608172,-0.23526238,0.08004466,-1.58726716,0.43356100,1.25824010,1.12960529
110,-0.07862964,-0.39725775,-0.21026665,-1.91295516,0.25225240,1.25316751,0.57434249
111,-0.18410039,0.12371929,-0.11065029,-1.50381279,0.33875909,1.36888206,0.55322307
112,0.08087540,-0.44689348,-0.01742685,-1.83178246,0.38129053,1.22104335,0.98375100
113,-0.29165789,-0.15658885,-0.42416644,-1.86632383,0.09424558,1.30805898,0.08658178
114,-0.12077713,-0.28966072,-0.23033178,-1.86330020,0.24236982,1.28680301,0.51515788
115,-0.02138919,-0.00254302,-0.02297390,-1.50482643,0.36576208,1.30454326,0.83363569
116,-0.12070546,-0.37893069,-0.28046283,-1.94256938,0.18738346,1.24623835,0.47430998
117,0.03106809,-0.04658796,0.01248666,-1.50408411,0.38585648,1.28830433,0.94124633
118,-0.16965006,-0.42740604,-0.38175005,-2.00196028,0.11414920,1.23582923,0.35538459
119,-0.06476098,-0.29034737,-0.14948875,-1.82619846,0.29787445,1.28494287,0.66356081
120,-0.23909014,-0.17675395,-0.37805647,-1.85908794,0.12522051,1.32359636,0.20033418
121,-0.24617308,-0.08228272,-0.32781643,-1.74808192,0.18540928,1.32815421,0.22027098
122,-0.35339004,0.04255923,-0.33634970,-1.69984293,0.17997409,1.35004485,0.14117742
123,-0.01751675,-0.17395064,-0.05362260,-1.66527343,0.33684173,1.29059863,0.81837571
124,-0.01399039,0.10972668,0.01085899,-1.38871276,0.38153490,1.31156373,0.84386450
125,-0.23746626,-0.27863044,-0.38739771,-1.93462169,0.11962892,1.29939318,0.22279094
126,-0.01344667,-0.20389955,-0.07607103,-1.72008765,0.34237835,1.28859997,0.77605498
127,-0.31270254,-0.04547213,-0.34580833,-1.73860884,0.16378637,1.33370388,0.15470204
128,-0.06280385,-0.19445848,-0.13688424,-1.73397148,0.31278941,1.29247141,0.65675414
129,-0.06605957,-0.19366163,-0.14248705,-1.74057186,0.31131613,1.29645956,0.65377212
130,-0.26521504,-0.17960517,-0.38990724,-1.86107016,0.11173128,1.31291389,0.15584472
131,-0.04745829,-0.55601269,-0.20587468,-2.02803588,0.23136723,1.18447554,0.65775061
132,-0.15107846,-0.35663438,-0.33034131,-1.95767200,0.15600221,1.27231884,0.37264293
133,-0.11355086,-0.25952727,-0.23141700,-1.84034383,0.23895471,1.29441679,0.50609684
134,-0.19341895,-0.16166602,-0.29458964,-1.79903710,0.19055413,1.31004524,0.34577501
135,-0.13519610,-0.06063940,-0.15983552,-1.65901244,0.28273013,1.33450270,0.56252760
136,0.00819266,-0.26173311,-0.05252793,-1.72225559,0.34115711,1.26057088,0.85050625
137,0.12410638,0.03922641,0.11321387,-1.33476925,0.42458078,1.29407287,1.12796175
138,-0.03448159,-0.09149744,-0.04701634,-1.60472178,0.35464817,1.30844569,0.77097464
139,-0.14945434,0.11759321,-0.10600699,-1.48938620,0.33645344,1.34424293,0.56366396
140,0.00961988,-0.27611113,-0.06117117,-1.74230134,0.35652846,1.27208507,0.84541601
141,-0.21486196,-0.00759965,-0.22505629,-1.64934790,0.23410566,1.34690988,0.40656430
142,0.11626860,-0.37430501,0.02845616,-1.74527490,0.40423951,1.25538301,1.05720627
143,-0.04072491,0.05355065,-0.02388109,-1.46983278,0.36392462,1.32096446,0.79762417
144,-0.09713027,-0.19003093,-0.16092381,-1.75034261,0.29671127,1.29654562,0.60847527
145,-0.13863170,-0.33349597,-0.29096681,-1.90670300,0.18776117,1.27110243,0.43767768
146,-0.17449725,-0.33418429,-0.34881416,-1.94735253,0.14276411,1.28764904,0.33194774
147,0.04459827,-0.18686599,-0.00401701,-1.63560045,0.38953850,1.28177321,0.92325461
148,-0.07392406,0.16256401,-0.01611082,-1.34980428,0.37002215,1.32543230,0.76922184
149,-0.11290789,-0.65083069,-0.34458342,-2.14039516,0.13877957,1.15706801,0.47788167
150,0.10955173,-0.43676320,0.02064704,-1.78035080,0.41012469,1.21885669,1.06399584
151,-0.20756240,0.26755384,-0.08504412,-1.34702790,0.32993537,1.32815886,0.54153615
152,-0.13769011,-0.17057401,-0.20795757,-1.76033890,0.25345391,1.31203640,0.50935030
153,0.15062341,0.12610504,0.18987331,-1.21594250,0.45890349,1.30120075,1.19997644
154,-0.11506449,-0.25066736,-0.22683224,-1.83080029,0.24363439,1.29840386,0.51075953
155,-0.21652631,-0.35027871,-0.42053843,-1.96654809,0.07993953,1.26351762,0.23686381
156,0.19025528,-0.34497339,0.13685703,-1.62140012,0.45937356,1.20606387,1.27337551
157,-0.18832101,-0.06183721,-0.22746611,-1.69845545,0.25705081,1.31422698,0.41419649
158,-0.01899016,0.19672894,0.03794418,-1.30741870,0.39553621,1.31219029,0.84947902
159,-0.26940846,-0.36421841,-0.49716967,-2.02008867,0.01952893,1.28104699,0.13331835
160,-0.09124982,-0.13136339,-0.14706886,-1.70246613,0.30037165,1.31632519,0.63410872
161,-0.08621925,-0.11714756,-0.12161122,-1.68509400,0.31071475,1.32486641,0.64195800
162,-0.09652360,-0.04742509,-0.11545179,-1.62162840,0.33369076,1.32108986,0.63154370
163,-0.32459664,0.21979228,-0.20724076,-1.49376237,0.28175691,1.36351812,0.31903958
164,-0.15744810,-0.20990837,-0.25488943,-1.82516491,0.21915703,1.29916656,0.43574113
165,-0.12279278,-0.23571667,-0.21150804,-1.82267678,0.25799081,1.31042206,0.52023083
166,-0.06322590,-0.14659955,-0.11439135,-1.70033681,0.32545111,1.30228853,0.67946953
167,0.06394543,-0.43529546,-0.03557091,-1.82407796,0.35716936,1.21358168,0.94300014
168,-0.19843662,-0.07338800,-0.25003532,-1.72539389,0.23836713,1.33170533,0.37707514
169,-0.05025634,-0.36062878,-0.15469652,-1.86594796,0.29508728,1.26931286,0.67792559
170,-0.04511453,-0.28941596,-0.13467795,-1.80334318,0.31054881,1.27178085,0.69809985
171,-0.10146052,-0.12502523,-0.14932880,-1.70164311,0.30083850,1.31685293,0.58657449
172,-0.14231008,-0.34350282,-0.28093874,-1.91068506,0.19853076,1.27518499,0.44998580
173,-0.29771802,-0.13904853,-0.40315163,-1.84613311,0.11563875,1.33550501,0.12856810
174,-0.18892723,-0.08388972,-0.24490717,-1.73019564,0.24145906,1.33149493,0.38591295
175,0.00426565,-0.40004849,-0.10189866,-1.86979759,0.32251486,1.24097741,0.79369742
176,0.01286553,-0.22977887,-0.05431680,-1.70964003,0.35584798,1.27425897,0.84313887
177,-0.00144222,-0.21385458,-0.05734833,-1.70901084,0.36026609,1.28336895,0.82278460
178,-0.07246076,-0.62145758,-0.25196511,-2.09409761,0.19214612,1.17606664,0.59543431
179,0.07908104,-0.58112210,-0.04080871,-1.92816389,0.37223840,1.17827761,0.97578818
180,-0.40144950,0.25527212,-0.26670247,-1.47721660,0.22667904,1.33476913,0.13607827
181,-0.12816021,-0.06655651,-0.15443248,-1.65733063,0.29003045,1.33885539,0.57564068
182,-0.15618205,-0.35149691,-0.32020342,-1.93686306,0.16046701,1.27161586,0.39368850
183,-0.30188304,0.02356227,-0.28117505,-1.65052235,0.21303931,1.32764685,0.23389919
184,0.02939507,-0.24245548,-0.03371047,-1.69550216,0.36603022,1.26420569,0.89570135
185,-0.21044795,-0.15572013,-0.32120290,-1.81029499,0.17020188,1.32364047,0.28547072
186,-0.09781115,-0.42935458,-0.25042129,-1.95503187,0.21816228,1.22087836,0.54870141
187,-0.03108904,-0.35169509,-0.13679025,-1.86423194,0.30753547,1.25044560,0.72074908
188,-0.23821206,-0.39491016,-0.48662579,-2.05645514,0.08083840,1.31187940,0.16354139
189,0.06523046,-0.10895783,0.05217279,-1.51628280,0.40623519,1.26355302,1.02162802
190,0.02104969,-0.43029866,-0.07060202,-1.86504173,0.34429967,1.23596597,0.85382169
191,-0.03953439,-0.22308499,-0.11282783,-1.75525939,0.33678848,1.28600729,0.72403038
192,0.15868816,-0.19245514,0.13624606,-1.50107872,0.46383402,1.26082444,1.21566105
193,0.07202813,-0.33894321,-0.00490078,-1.74175262,0.38258517,1.24206698,0.97410315
194,-0.28546417,0.11372991,-0.22562724,-1.57221889,0.26278684,1.33940494,0.32125956
195,-0.15557186,-0.03048223,-0.18670332,-1.65414965,0.27532068,1.33200240,0.47231549
196,-0.17594197,-0.39244542,-0.37404177,-1.99334049,0.11459041,1.25757825,0.30690068
197,-0.03986096,-0.24011624,-0.11883157,-1.77952194,0.31428596,1.28658581,0.70031697
198,-0.11928762,-0.37481809,-0.27681816,-1.92664826,0.19702774,1.24252307,0.48251683
199,-0.00666359,-0.35286835,-0.11044199,-1.83819425,0.32498077,1.25009573,0.76378089
200,-0.01042977,-0.38700053,-0.13225704,-1.88701618,0.30225059,1.24424064,0.73409808
201,-0.04167452,-0.35378501,-0.14255551,-1.87077439,0.30013609,1.26928568,0.69194430
202,-0.12305766,-0.49682876,-0.30743954,-2.02672863,0.16217324,1.22681880,0.46699220
203,0.00341900,-0.14484094,-0.04478545,-1.62795722,0.36331347,1.28235781,0.84934461
204,0.05670331,-0.21870723,-0.00411902,-1.65362227,0.39514166,1.26685929,0.94662386
205,0.01197536,-0.42919505,-0.08606520,-1.87413418,0.33830720,1.21487772,0.82775080
206,-0.25752267,-0.04642036,-0.29598296,-1.71302211,0.19694802,1.32187879,0.26691663
207,0.08954799,-0.00702078,0.06675483,-1.40479684,0.39964899,1.29344416,1.03451538
208,0.05649669,-0.33395410,-0.02785371,-1.75330865,0.37954164,1.25216615,0.94383448
209,-0.10786068,0.02196645,-0.10533304,-1.57122433,0.32236949,1.34155560,0.64770734
210,0.22652012,-0.51132834,0.18380842,-1.69579399,0.49450734,1.17598403,1.39463615
211,0.00473429,-0.13174491,-0.02242955,-1.65504980,0.37758452,1.31482089,0.87279266
212,-0.43736982,-0.05180469,-0.47582567,-1.87794507,0.03133412,1.39427161,-0.09475502
213,-0.09572394,-0.01368857,-0.10780723,-1.57329237,0.32793814,1.32319736,0.62997371
214,0.20176098,-0.07965094,0.16390643,-1.38301969,0.46749780,1.27750111,1.30732989
215,-0.23610535,-0.03820091,-0.28855971,-1.72028387,0.20359753,1.33684540,0.29383481
216,-0.18301673,-0.20036364,-0.29794359,-1.82528937,0.18428996,1.30399716,0.36142904
217,-0.03780201,-0.03857042,-0.05102558,-1.56032610,0.35795686,1.31104112,0.77185589
218,0.12751293,-0.05899338,0.13095766,-1.42129266,0.43690380,1.27275383,1.16337514
219,-0.04837999,-0.05990551,-0.07204998,-1.59590876,0.34820160,1.31577051,0.74127156
220,-0.13724123,-0.16960058,-0.21334654,-1.77774274,0.26057503,1.31935561,0.48939979
221,-0.04387921,-0.56213218,-0.23236069,-2.04155135,0.20305298,1.15509677,0.61914331
222,-0.14081003,-0.35377461,-0.29102758,-1.92340839,0.18328282,1.25181162,0.43877757
223,-0.18435138,-0.20940590,-0.30215731,-1.83906758,0.19182934,1.31267631,0.35406977
224,-0.28573832,-0.28839821,-0.47562444,-1.96000993,0.03776324,1.29076648,0.10415551
225,-0.05411215,-0.20161635,-0.13095379,-1.74638474,0.32025129,1.29451048,0.68848389
226,-0.21406490,-0.32190531,-0.37851343,-1.93959391,0.11198257,1.27268493,0.27104437
227,0.04028553,-0.24477045,-0.02100382,-1.68352365,0.37715033,1.27242017,0.92243034
228,0.01021731,-0.12750740,-0.01671623,-1.61535680,0.37980157,1.29603648,0.86675662
229,0.04544775,-0.48971659,-0.07534627,-1.89234316,0.33782086,1.20724046,0.88451678
230,-0.22328120,-0.37181967,-0.40773764,-2.03242540,0.10448305,1.30980790,0.24171568
231,-0.20399174,0.02419236,-0.19277531,-1.61167789,0.28232980,1.33824003,0.43884015
232,-0.00973390,-0.27970836,-0.08343215,-1.76221502,0.34630138,1.26408970,0.80136997
233,-0.03788967,-0.25924635,-0.10268771,-1.75881970,0.32268324,1.27198672,0.74316037
234,-0.00649153,-0.79233003,-0.18226475,-2.15939307,0.23506494,1.15315592,0.76383877
235,-0.16533366,-0.29258680,-0.27474317,-1.88093436,0.19957708,1.29174888,0.42313910
236,-0.06991009,-0.02590148,-0.07425586,-1.58039498,0.34125260,1.32865155,0.71377403
237,0.02463014,-0.19707838,-0.02588059,-1.66877615,0.38679793,1.27964008,0.88703221
238,-0.16279331,-0.05397869,-0.19440967,-1.67515123,0.28058770,1.32018173,0.47372162
239,-0.34626243,0.11370505,-0.28187624,-1.59951699,0.21841863,1.33847249,0.22526510
240,-0.19490132,-0.16852640,-0.30570054,-1.80972862,0.18256053,1.31336725,0.33288074
241,0.02831779,-0.18181512,-0.01943412,-1.64338815,0.38256857,1.28286636,0.88684523
242,-0.00430453,-0.67057550,-0.15716511,-2.06885815,0.27865556,1.16400599,0.78021061
243,-0.07387951,-0.02772820,-0.08294728,-1.58881223,0.34088168,1.32801807,0.69350815
244,-0.22509453,-0.32576010,-0.38706577,-1.94865286,0.10802072,1.27541387,0.24764480
245,0.06054977,-0.18383309,0.01863407,-1.59494555,0.40301666,1.27449191,0.98560876
246,0.06054959,-0.52162939,-0.04322860,-1.90300918,0.37063727,1.19431841,0.94194537
247,-0.07930583,-0.29137099,-0.18447584,-1.84275711,0.27765432,1.26854026,0.60766226
248,0.11721976,-0.00260612,0.12756106,-1.37504256,0.43516001,1.29743361,1.11860096
249,-0.15485239,-0.29808047,-0.26956952,-1.88811076,0.20388590,1.28214324,0.44288468
250,-0.08157009,-0.23966202,-0.16456014,-1.79771531,0.28963691,1.31579244,0.62855405
251,-0.05561115,-0.37335253,-0.17674381,-1.90481508,0.26878974,1.26107144,0.63260472
252,-0.00618386,-0.61293030,-0.14252186,-2.02301931,0.28516746,1.18080008,0.77733415
253,-0.11891511,0.04166602,-0.12952590,-1.54752767,0.30892140,1.33604670,0.58852297
254,-0.36850134,0.08181682,-0.32466358,-1.66043603,0.18138948,1.34857631,0.12042475
255,-0.11712666,-0.38413972,-0.28095359,-1.94935215,0.20393498,1.27280343,0.47924346
256,-0.02221008,-0.62320805,-0.20468527,-2.05754876,0.25025478,1.17140996,0.68353194
257,0.01843829,-0.57840335,-0.13703910,-1.99682510,0.28366041,1.17440176,0.78875923
258,-0.20788252,-0.31365979,-0.36756140,-1.92118430,0.12281166,1.26637673,0.28731215
259,-0.05789703,-0.42245349,-0.17021662,-1.93329203,0.27320811,1.23460591,0.65494698
260,-0.38980970,-0.06632897,-0.46681678,-1.83914185,0.06710443,1.37672246,-0.02690002
261,-0.05211952,-0.24425486,-0.12440733,-1.78834426,0.32495937,1.29343462,0.69341618
262,-0.07474013,-0.17234839,-0.12140922,-1.74019110,0.32079762,1.31434286,0.66208273
263,-0.12956494,-0.29838657,-0.25146651,-1.88225234,0.22218890,1.29356909,0.47530633
264,-0.21039401,-0.43250263,-0.41430181,-2.02020383,0.07511833,1.23941576,0.26336515
265,-0.08925895,-0.25792623,-0.14975938,-1.80288613,0.30401316,1.27672625,0.64242214
266,-0.19645315,0.00983486,-0.19813180,-1.63128614,0.27233535,1.33416426,0.42879862
267,0.01413062,-0.14298381,-0.02081256,-1.62160599,0.37892014,1.28686142,0.87139648
268,-0.19294542,-0.04827541,-0.22871628,-1.68833339,0.25252637,1.32834494,0.40284872
269,-0.17620343,-0.10677897,-0.22542790,-1.73307455,0.24261861,1.33451450,0.44728321
270,-0.11450085,-0.11564936,-0.17325172,-1.71093976,0.29135695,1.32038558,0.55436248
271,0.10617995,-0.03211745,0.12422077,-1.40982020,0.44199482,1.29034483,1.11832452
272,0.11942640,-0.12837039,0.06968296,-1.51626027,0.42631492,1.29807854,1.12730634
273,-0.11563691,-0.07586148,-0.15675697,-1.66443431,0.29984537,1.31567252,0.57372731
274,-0.10679722,-0.56864440,-0.27436936,-2.06957316,0.18733284,1.19247854,0.53088152
275,0.04785548,-0.01500563,0.03677570,-1.48552406,0.40175357,1.30435097,0.93577534
276,-0.09407431,0.03789474,-0.09078004,-1.52672327,0.31288204,1.31469119,0.63901287
277,-0.19009182,-0.32227737,-0.32152522,-1.91375124,0.16199332,1.28657234,0.34971952
278,-0.05952547,-0.17456153,-0.12602213,-1.72401237,0.32527021,1.30652845,0.67333859
279,-0.12098561,-0.35918385,-0.28591126,-1.91694295,0.19316591,1.25996864,0.46921992
280,-0.06829713,-0.02162698,-0.07692298,-1.57834589,0.33828101,1.34069002,0.69427007
281,-0.03132598,-0.01137781,-0.02687500,-1.50913441,0.36892727,1.32439184,0.79698819
282,-0.15690573,-0.32726881,-0.29805297,-1.90717638,0.18231359,1.26236165,0.41031271
283,0.04357652,-0.36758322,-0.03995162,-1.79103494,0.37591299,1.25024354,0.92145628
284,0.14281783,-0.19137134,0.11628050,-1.52669656,0.44539687,1.25926208,1.17577910
285,0.02355069,-0.18555579,-0.01489965,-1.65631092,0.38099208,1.28101289,0.89439613
286,-0.22753981,-0.21516086,-0.38695645,-1.86869395,0.12539007,1.31684625,0.21536468
287,-0.05258642,-0.59238547,-0.22202355,-2.04890633,0.22182862,1.17034864,0.64622217
288,0.00594808,-0.29149410,-0.06595332,-1.76124561,0.35205391,1.26236451,0.83969897
289,-0.24240316,-0.30418658,-0.41684514,-1.95357239,0.09502685,1.27622306,0.20009618
290,0.10691340,-0.31253380,0.07839024,-1.65519392,0.43323770,1.25134718,1.11572289
291,-0.21050951,-0.22165261,-0.31814784,-1.86210322,0.17185526,1.30122554,0.32100630
292,-0.16249149,-0.01323609,-0.15837237,-1.64393842,0.29928499,1.33838308,0.49699247
293,0.00221765,-0.23657303,-0.06304861,-1.72111428,0.34913543,1.27400017,0.81943113
294,0.04437459,-0.24521080,-0.01194318,-1.69786632,0.38756511,1.27241635,0.92038161
295,-0.23955843,-0.02715396,-0.25676683,-1.69715559,0.23452605,1.33317006,0.33517557
296,-0.12495773,-0.34419632,-0.26030609,-1.90865576,0.21268640,1.25708735,0.48878175
297,-0.03438473,-0.30682939,-0.11784292,-1.81703877,0.32111290,1.26886559,0.72845274
298,-0.15111841,-0.04962611,-0.20014244,-1.66252470,0.26501948,1.32771313,0.46362698
299,-0.11112703,-0.22526768,-0.16996995,-1.80101991,0.29005304,1.31388438,0.57978374
300,0.21662453,-0.28098452,0.19506049,-1.53537726,0.49089161,1.21920085,1.35924625
301,0.16188353,-0.28493419,0.11464928,-1.60625112,0.44907859,1.24918664,1.20664465
302,-0.15251237,-0.19416118,-0.24471575,-1.80023396,0.23833528,1.30174816,0.45604593
303,-0.06827934,-0.23020899,-0.12812963,-1.75363338,0.29814148,1.28322303,0.67681354
304,0.16085359,-0.41966152,0.10618316,-1.72001731,0.44767874,1.19548118,1.20761836
305,0.08204986,-0.25204989,0.02213781,-1.65479672,0.40402648,1.25697386,0.99580508
306,0.08577037,0.00252003,0.13672021,-1.36719477,0.43924594,1.29731333,1.14446175
307,-0.15564200,-0.16834238,-0.24685419,-1.78807425,0.24390011,1.30496013,0.43704689
308,-0.01352412,-0.29409313,-0.09016112,-1.79177666,0.33123890,1.27211082,0.77206165
309,-0.07794873,0.12907417,-0.01571801,-1.40361869,0.36896896,1.32855880,0.71019524
310,-0.08537842,-0.11462215,-0.14371091,-1.68027222,0.29757237,1.31367683,0.62474382
311,-0.10098857,-0.20271757,-0.16688472,-1.76518333,0.29215288,1.28884375,0.59804136
312,-0.05304651,-0.47759497,-0.19134641,-1.97152901,0.26219901,1.22125018,0.65778267
313,-0.13936432,-0.07446823,-0.16666237,-1.67402375,0.28524265,1.32905817,0.53813583
314,-0.11885571,-0.42684564,-0.27162167,-1.96748507,0.19844408,1.23514080,0.49630237
315,0.00546193,-0.35613844,-0.08878478,-1.81978810,0.34037152,1.26040530,0.81693918
316,-0.26439509,-0.07887377,-0.33563185,-1.76727068,0.16584538,1.33286726,0.20553617
317,-0.06880072,-0.33616278,-0.18484625,-1.87775648,0.26875994,1.26554918,0.61463469
318,-0.17143196,-0.54886919,-0.40278083,-2.09854198,0.10488032,1.19153190,0.36103421
319,-0.21888174,-0.40024722,-0.42537588,-2.01764393,0.07438269,1.26698685,0.23680033
320,-0.36109319,0.00755754,-0.38846743,-1.74174011,0.14351803,1.35801184,0.06915307
321,-0.12815955,-0.58328247,-0.32660598,-2.09477305,0.13687004,1.19556844,0.44313973
322,-0.11412354,-0.00810559,-0.13064760,-1.59611988,0.30230221,1.35271585,0.56358403
323,0.12073542,-0.59724772,-0.01696017,-1.89341795,0.39054680,1.16571653,1.04399765
324,-0.23634741,-0.13833427,-0.32061115,-1.80030763,0.17170414,1.31412947,0.24911611
325,-0.08142123,-0.17907938,-0.15863761,-1.73254263,0.29772654,1.30216670,0.62617201
326,0.00350393,-0.40413535,-0.09006821,-1.86057270,0.33621731,1.22100294,0.81095952
327,0.01577461,-0.72800076,-0.16736561,-2.08764982,0.25740594,1.12253690,0.78803569
328,-0.06914371,-0.21884011,-0.15819260,-1.77979839,0.29414245,1.29684508,0.63386774
329,-0.13353372,-0.11524493,-0.18375963,-1.72242153,0.28470758,1.32555544,0.52243906
330,-0.22819541,-0.33795443,-0.42460632,-1.98001325,0.08701411,1.28381097,0.21091224
331,-0.16451830,-0.37858188,-0.35120893,-1.97711003,0.13341926,1.23790336,0.33726132
332,-0.17535834,-0.22813880,-0.32157263,-1.85950446,0.17078076,1.29947484,0.33969599
333,-0.10264906,-0.57855064,-0.30738682,-2.07940936,0.17054461,1.20325112,0.51411879
334,-0.20132799,0.05305515,-0.17950755,-1.59286451,0.29069880,1.34177375,0.44256079
335,0.01887111,-0.17628689,-0.04319448,-1.66562426,0.35953334,1.28167307,0.84363991
336,-0.01923563,-0.35031188,-0.12306850,-1.83269465,0.30852786,1.26837075,0.73988247
337,-0.10848038,-0.29949221,-0.24103111,-1.87209761,0.22563173,1.27389610,0.50569564
338,0.00959694,-0.61590028,-0.13686031,-2.03841281,0.27264762,1.15774488,0.78496617
339,-0.08788754,-0.27623129,-0.18938416,-1.83494401,0.27828333,1.27688777,0.59302360
340,-0.05996938,-0.20448171,-0.13004321,-1.75273597,0.32313231,1.29317105,0.68049377
341,0.27612439,-0.07714333,0.27111864,-1.28021204,0.51240546,1.24454153,1.51757193
342,-0.08817241,-0.08246683,-0.11648469,-1.64609706,0.32730016,1.31837654,0.65686995
343,-0.08455910,-0.19018963,-0.14686236,-1.75742972,0.30621248,1.30681884,0.62987381
344,-0.10735607,0.00698476,-0.09533229,-1.57589710,0.35029170,1.31135690,0.62490040
345,-0.11630142,-0.10496497,-0.16455451,-1.68436015,0.27973610,1.33405638,0.54962593
346,-0.22748429,-0.24709047,-0.37893915,-1.89027548,0.12322856,1.27357280,0.23379318
347,0.08590734,-0.41458580,0.00790200,-1.79395688,0.40601960,1.22619104,1.02085173
348,-0.06557688,-0.64248329,-0.24940404,-2.10289788,0.19120662,1.18105769,0.61199194
349,0.29068914,-0.10191500,0.30166811,-1.26795924,0.52979892,1.23410261,1.55620551
350,-0.11923781,-0.23467340,-0.21486160,-1.82084394,0.25181901,1.30489123,0.51444638
351,0.00975852,-0.44229943,-0.11573554,-1.89620423,0.31651250,1.23282385,0.79004812
352,-0.20474017,-0.15093419,-0.31990665,-1.79977977,0.16867873,1.31551421,0.29248899
353,-0.16525543,-0.30907837,-0.31922933,-1.90082538,0.16670617,1.28317654,0.37213945
354,-0.03091894,-0.43720111,-0.14928398,-1.91922367,0.29516190,1.21578038,0.71252084
355,0.01844518,-0.06719941,-0.00458456,-1.54057407,0.37514973,1.30997109,0.87924099
356,0.08055919,-0.51814973,-0.03010469,-1.89206707,0.37789503,1.20463359,0.98233873
357,0.13418892,-0.52199942,0.03640554,-1.84720600,0.40773401,1.20860791,1.09290659
358,0.01151477,-0.16566761,-0.02870009,-1.64052844,0.37248120,1.27541792,0.87716144
359,-0.05071163,-0.17479947,-0.11755931,-1.71337855,0.31145325,1.29084814,0.70166379
360,0.00061129,-0.32137850,-0.07762662,-1.79497945,0.34817019,1.24992132,0.82045072
361,-0.19893602,-0.22934635,-0.29107082,-1.84261191,0.19119062,1.30491471,0.36033571
362,-0.23181917,0.04972277,-0.19891161,-1.59696639,0.27976274,1.33124959,0.40026313
363,-0.14674516,-0.43524164,-0.34233221,-1.99595404,0.14471109,1.24434650,0.40097678
364,0.07649973,-0.23605952,0.03166371,-1.63406336,0.40529189,1.26733708,1.01712739
365,0.02032928,-0.14652507,-0.03521086,-1.64172614,0.36701348,1.29506111,0.86394888
366,0.20158285,-0.02006864,0.18675041,-1.29711580,0.46486446,1.24380112,1.30066824
367,-0.15866885,-0.49709097,-0.35853338,-2.04865193,0.12689556,1.22944772,0.39078182
368,0.18177494,-0.00951970,0.22635752,-1.30757487,0.49409944,1.29244637,1.36712527
369,-0.09811126,-0.38084844,-0.23931763,-1.92577672,0.23683341,1.26671147,0.53590804
370,0.00607093,-0.33856985,-0.09801682,-1.81069887,0.33867106,1.24316299,0.79111737
371,-0.09325874,0.04019185,-0.10212371,-1.52565837,0.31660303,1.32778466,0.65355009
372,-0.12468103,-0.04926944,-0.15786904,-1.64776480,0.29554114,1.33673584,0.55745661
373,-0.09985100,-0.20919114,-0.17713556,-1.79326522,0.27842396,1.30957067,0.57392615
374,-0.20543683,-0.08969100,-0.26010329,-1.73777807,0.22945796,1.33737123,0.37189406
375,-0.09055723,-0.37389082,-0.24205133,-1.91975248,0.23456006,1.26211298,0.54084283
376,-0.21243578,-0.03565341,-0.24218354,-1.67388189,0.23581502,1.32493293,0.36101067
377,-0.00342414,-0.27940714,-0.03031713,-1.75223505,0.36539838,1.27806938,0.85874349
378,-0.13030389,-0.21881293,-0.23149845,-1.80699790,0.25268269,1.29437578,0.49284703
379,0.16097227,-0.47051093,0.11414415,-1.76886630,0.46070871,1.20784557,1.21529937
380,-0.13621102,-0.31337559,-0.26939696,-1.88571417,0.20627983,1.28101611,0.45953774
381,-0.10508969,-0.16981964,-0.15701714,-1.75057387,0.30029133,1.31232274,0.59228438
382,0.23376071,-0.33443093,0.19338638,-1.57364500,0.49954036,1.21048832,1.38622355
383,-0.12753901,-0.37053779,-0.27404204,-1.93996418,0.20226008,1.25195515,0.47346336
384,-0.11103699,-0.24338759,-0.22865060,-1.83424079,0.23629265,1.29014409,0.51141727
385,-0.21953800,-0.28372294,-0.40472770,-1.93448794,0.09858051,1.30660570,0.19809447
386,0.19777170,0.00076223,0.19374892,-1.28736401,0.47704750,1.27963173,1.29212189
387,-0.17908081,-0.23943664,-0.27147952,-1.85546243,0.20902446,1.29759550,0.40771598
388,0.07745557,-0.55062222,-0.02944323,-1.90420306,0.37138787,1.19748223,0.98625523
389,0.03092071,-0.03793047,0.01556572,-1.48533595,0.37623522,1.31021702,0.93671495
390,-0.16012688,-0.26446110,-0.24228370,-1.85939538,0.22522105,1.30703223,0.45699155
391,-0.17061260,-0.58249217,-0.42721635,-2.14384913,0.06617963,1.21418762,0.30637568
392,0.19000682,-0.26884115,0.15081877,-1.55829155,0.47411922,1.24332023,1.27881908
393,-0.09813814,-0.39543006,-0.25024632,-1.94396508,0.22576839,1.26637638,0.52627164
394,-0.03970669,0.13084060,-0.00577383,-1.38665307,0.37173384,1.31123698,0.79956001
395,-0.01140776,-0.67069685,-0.17578039,-2.07160807,0.25447512,1.14632773,0.73838311
396,-0.04103313,-0.01216842,-0.03265152,-1.54165065,0.35956791,1.32720363,0.78158849
397,0.02047230,0.08030553,0.05633894,-1.36216056,0.38304159,1.30570829,0.95811683
398,-0.01574992,-0.65747374,-0.19197178,-2.07245231,0.23681667,1.15482724,0.71643990
399,-0.09760849,-0.52069730,-0.25949579,-2.02962685,0.19205262,1.19421136,0.54864568
400,0.05352984,-0.35280597,-0.01538289,-1.76660991,0.38272285,1.24023330,0.94954711
401,-0.17949794,-0.23308426,-0.31338951,-1.85649931,0.16213082,1.29222226,0.36060512
402,0.00527409,-0.35277444,-0.10231743,-1.84508944,0.31323302,1.23671544,0.76242453
403,-0.09729698,-0.26115641,-0.19511282,-1.82785380,0.26799372,1.29032707,0.56452137
404,0.18093428,-0.16268690,0.16914347,-1.45076573,0.47310057,1.24636829,1.28753972
405,-0.13448155,-0.00347137,-0.14535725,-1.59460461,0.29369089,1.33298290,0.53695327
406,-0.24733901,0.14371508,-0.17650425,-1.50470173,0.29487637,1.34305286,0.41981298
407,-0.08087911,0.09043531,-0.02852602,-1.47395539,0.38865981,1.34203124,0.75163108
408,-0.13112395,-0.22472891,-0.26036137,-1.82895505,0.22324751,1.29413819,0.45409620
409,-0.19698313,-0.32907006,-0.32158804,-1.94140089,0.15906917,1.27034402,0.34732318
410,0.23757675,0.11711392,0.31809592,-1.10135818,0.50780791,1.29762387,1.51761174
411,0.03965008,-0.04476504,0.03758964,-1.49292719,0.39820468,1.31248200,0.94155735
412,-0.28753719,-0.25163099,-0.45513672,-1.94262087,0.07081671,1.31934738,0.11265472
413,0.02483320,-0.48079324,-0.07979558,-1.90093398,0.34005705,1.22159946,0.86090821
414,-0.22689879,0.08174886,-0.18315887,-1.57577789,0.29566064,1.36224878,0.44106770
415,-0.03081411,-0.23506279,-0.09230798,-1.74003386,0.33937153,1.28407490,0.75246668
416,-0.14219037,-0.26922891,-0.21775037,-1.85839069,0.24034871,1.30443716,0.52007347
417,-0.13428599,-0.51739371,-0.33438081,-2.05024338,0.14162943,1.20917177,0.44173896
418,0.02587336,-0.14065091,-0.00246003,-1.58141994,0.38734922,1.27576423,0.91322380
419,-0.30557090,0.12689391,-0.26414490,-1.55583262,0.22825719,1.35649920,0.23493747
420,0.20241526,-0.17566887,0.16737586,-1.44827580,0.46717545,1.23092079,1.28740025
421,-0.06274880,-0.36810756,-0.16366166,-1.88947034,0.28772905,1.26049578,0.66139621
422,0.08363482,-0.33732578,0.01302094,-1.73035872,0.39709130,1.23845494,1.01300383
423,-0.35103697,-0.02572518,-0.40300849,-1.77140129,0.10704660,1.34683692,0.04172097
424,-0.19189009,0.13668205,-0.14827311,-1.49421346,0.30847844,1.35718656,0.47646892
425,-0.01625781,-0.33434889,-0.10876916,-1.82567465,0.32265240,1.25557995,0.75299454
426,-0.15999034,-0.09006572,-0.21070459,-1.70246708,0.26142195,1.32684219,0.45376432
427,0.10648157,-0.15264684,0.06265024,-1.53645813,0.42678860,1.27322912,1.05430949
428,0.04255301,-0.33106196,-0.03157802,-1.76259804,0.37135416,1.24951661,0.91632873
429,-0.16130152,-0.22595362,-0.23021242,-1.81046355,0.23595349,1.30445814,0.47294629
430,-0.07092318,-0.23140636,-0.15665627,-1.78224766,0.30409724,1.28343093,0.63964915
431,-0.12576441,-0.38347858,-0.29045671,-1.94650233,0.18288323,1.24655938,0.45841205
432,0.20808011,-0.04806734,0.21599144,-1.30320954,0.48587647,1.25428545,1.35767078
433,-0.04814492,-0.32201567,-0.16236934,-1.85078681,0.28772774,1.25869894,0.66138220
434,0.01019259,-0.59533834,-0.13401246,-2.01521492,0.30922866,1.19556952,0.79547971
435,-0.10107006,-0.31123433,-0.21394467,-1.86677396,0.25147679,1.28154480,0.55527478
436,0.07114092,-0.44953936,-0.01912779,-1.84263718,0.37016344,1.21757925,0.96415621
437,0.07856485,-0.06654179,0.07853250,-1.49626863,0.42962080,1.28857899,1.04156518
438,-0.10173087,-0.31905162,-0.21253479,-1.87846816,0.24820328,1.26870406,0.55628806
439,-0.30451745,0.01363728,-0.30955422,-1.69282615,0.19844742,1.34980750,0.22223391
440,0.12121280,-0.59337360,0.04884491,-1.89437926,0.41482165,1.15767455,1.11477113
441,-0.12647544,-0.18451555,-0.20148009,-1.78504527,0.27770668,1.30558479,0.52123958
442,-0.18621999,0.06042298,-0.16080487,-1.58751404,0.28839311,1.35075641,0.48727953
443,-0.02929091,-0.23084974,-0.08525810,-1.72087121,0.33890572,1.26903534,0.77251351
444,-0.13550104,-0.15667038,-0.22954220,-1.76196229,0.23452763,1.31171942,0.46138197
445,-0.08183639,0.52006733,0.09085359,-1.03107309,0.42855582,1.40424252,0.93561763
446,-0.09040800,-0.17243002,-0.15804711,-1.75065291,0.30249140,1.30563176,0.60960793
447,-0.01345285,-0.11517045,-0.03283136,-1.62075245,0.36517897,1.30247438,0.83026475
448,0.14810106,-0.01808962,0.14480920,-1.35332119,0.44065419,1.28650367,1.20564532
449,-0.01506562,-0.32333994,-0.09975987,-1.80077004,0.32278213,1.24672151,0.77868402
450,-0.05784668,-0.21457554,-0.13806924,-1.76363480,0.31332126,1.30473793,0.67837477
451,-0.14277835,-0.29878151,-0.27373043,-1.88311923,0.20611465,1.30022097,0.44152981
452,-0.05659060,-0.23514718,-0.14354789,-1.77202272,0.30485705,1.28631127,0.66925067
453,-0.11032522,-0.05472856,-0.15261883,-1.64561319,0.30189613,1.32761753,0.57009727
454,-0.15925863,-0.31201026,-0.28063720,-1.90269077,0.19311941,1.27656722,0.42910022
455,0.04871027,-0.20380509,-0.01667045,-1.65434611,0.38146642,1.27612042,0.91269797
456,0.02952200,-0.28667358,-0.04224268,-1.73077369,0.36755788,1.26288819,0.89150697
457,-0.05409579,-0.33294812,-0.15102202,-1.83671296,0.30503428,1.25349629,0.68012941
458,-0.12127560,-0.32973412,-0.27897859,-1.89868081,0.20129310,1.25815499,0.47468817
459,0.17357799,-0.38133377,0.12155678,-1.67205095,0.45583495,1.21370089,1.23298550
460,-0.14090733,-0.26649395,-0.28177437,-1.86105037,0.20205155,1.28328335,0.44101483
461,0.17643946,-0.34223518,0.11451346,-1.63835120,0.46657395,1.23376060,1.22375417
462,-0.09531276,-0.38236046,-0.23430181,-1.91818655,0.23476098,1.25635397,0.54221725
463,-0.11109594,-0.08932495,-0.14183840,-1.67861319,0.30733359,1.32376385,0.59273642
464,-0.02466640,-0.20664054,-0.09083780,-1.71622550,0.34430122,1.28010595,0.77040261
465,-0.01858239,-0.12247221,-0.05754169,-1.63269579,0.35542229,1.30542374,0.78821641
466,0.01590359,-0.30866688,-0.05516105,-1.76728976,0.35203025,1.25567126,0.86483037
467,-0.16032247,-0.10427476,-0.22190711,-1.73796320,0.25590605,1.32829511,0.45225006
468,-0.14679307,-0.22984859,-0.25865886,-1.83556116,0.22073624,1.30703628,0.44785815
469,-0.16694358,-0.05038721,-0.20846736,-1.67410851,0.26537091,1.32400870,0.45492250
470,-0.15716438,-0.03354057,-0.15276456,-1.64474118,0.30492625,1.34490275,0.53728354
471,0.03760090,-0.41849744,-0.06498704,-1.84656513,0.35529122,1.23545766,0.88899738
472,0.04341531,-0.65196407,-0.07998382,-2.00983071,0.32450736,1.17447925,0.90021402
473,0.00662991,-0.41525394,-0.10604317,-1.86635578,0.33421564,1.23566592,0.81090140
474,-0.21788335,-0.31650645,-0.37999019,-1.93240654,0.11964442,1.28217411,0.26086658
475,0.01490062,-0.31751505,-0.07731277,-1.79583228,0.35844454,1.26199198,0.82566702
476,-0.42325428,0.11692786,-0.35418719,-1.66037500,0.17766432,1.32022238,0.06141879
477,-0.18289119,-0.15885071,-0.27314687,-1.78924549,0.21787350,1.31370175,0.37740958
478,0.01218525,-0.15287131,-0.03584727,-1.63795483,0.36404988,1.29214489,0.85875851
479,-0.09539686,-0.13576260,-0.15333515,-1.71729827,0.30294693,1.31508601,0.60178745
480,-0.27016297,-0.31520829,-0.45523781,-1.97917175,0.04515535,1.29433930,0.13948388
481,-0.08168969,-0.27670988,-0.17009771,-1.83336198,0.28351527,1.28339183,0.62289673
482,0.05077460,-0.34446764,-0.03376969,-1.76188934,0.36850837,1.24513102,0.93235654
483,-0.10954612,-0.34231979,-0.19673717,-1.87326670,0.25170571,1.26322019,0.58930987
484,-0.08911091,-0.21149418,-0.16201991,-1.78476870,0.29636875,1.29789102,0.61097568
485,-0.14365999,-0.16956338,-0.22079954,-1.78285980,0.25775263,1.33925331,0.48201686
486,-0.30140918,-0.10365480,-0.39729980,-1.82827532,0.12734853,1.34077775,0.11799046
487,0.01273495,-0.37759751,-0.08376678,-1.85149169,0.33657414,1.25931227,0.83827710
488,-0.13472672,0.00590573,-0.14158052,-1.59636903,0.30639890,1.33144462,0.54830593
489,-0.05813166,-0.29717037,-0.14603412,-1.81217408,0.28963056,1.26782095,0.67658132
490,-0.31043792,0.05866079,-0.28092459,-1.64165986,0.21536040,1.32612312,0.24401082
491,-0.13442822,-0.08463880,-0.18998617,-1.67896187,0.27011427,1.33200133,0.49120992
492,-0.07644543,-0.17108861,-0.13024807,-1.71376920,0.30977419,1.30086172,0.64188874
493,-0.11959311,-0.43260834,-0.27170122,-1.97006834,0.19627300,1.24819577,0.49777693
494,0.11141589,-0.30213436,0.05443033,-1.66943944,0.42169166,1.24263811,1.09162807
495,-0.16012546,-0.44259790,-0.36508819,-2.01119757,0.12920934,1.23119688,0.35442364
496,-0.27281922,-0.06473516,-0.32399040,-1.74384415,0.17370744,1.32303774,0.21652035
497,-0.15954055,-0.47808930,-0.37324917,-2.03954530,0.11559488,1.22211361,0.36842930
498,0.07716542,-0.22776994,0.01029805,-1.64654815,0.40591922,1.25912440,0.98835641
499,-0.00850819,-0.20320185,-0.07089109,-1.70396888,0.34031671,1.29961252,0.80610293
500,-0.05836956,-0.38111034,-0.16555256,-1.91154897,0.27919051,1.25056219,0.65480500
501,0.02772473,-0.35353404,-0.05044555,-1.79403627,0.36672994,1.24664330,0.88552719
502,-0.10397288,-0.17550781,-0.16223738,-1.74840903,0.29389948,1.30563164,0.60564899
503,0.02123076,-0.40131503,-0.07461088,-1.84276235,0.33307633,1.23926008,0.84990585
504,-0.04746841,-0.06936811,-0.08221673,-1.59765327,0.34008768,1.31120229,0.74309295
505,-0.10258918,0.00052082,-0.10097932,-1.57491374,0.32987842,1.33355808,0.61333948
506,0.07150264,0.00203548,0.10091621,-1.43441403,0.44336033,1.30918443,1.08301449
507,-0.38200247,0.21883881,-0.26028299,-1.51164973,0.24464141,1.37354147,0.23205318
508,-0.21050432,0.20887604,-0.14565057,-1.48293972,0.31852466,1.42195809,0.53901118
509,-0.13137878,-0.03492654,-0.14704126,-1.63489699,0.31400612,1.32292926,0.55262053
510,0.22208199,0.01308168,0.25465885,-1.23709619,0.49231532,1.27643657,1.42295647
511,-0.08906019,-0.23666960,-0.18301845,-1.79404628,0.27978280,1.28933167,0.59309375
512,0.11071190,-0.19860965,0.08467826,-1.55177724,0.43377212,1.26442897,1.11902523
513,0.06118351,-0.55490923,-0.04093317,-1.91127145,0.35890752,1.19157541,0.95394224
514,0.09883946,-0.23969230,0.04816700,-1.62388015,0.41964683,1.26210606,1.05273080
515,0.02451086,-0.03515950,0.02798659,-1.49881756,0.40208191,1.28563321,0.91229004
516,-0.13033351,-0.60686433,-0.35203046,-2.10320926,0.12645429,1.15737116,0.45437360
517,-0.07201096,-0.14565973,-0.10962009,-1.68570685,0.32490212,1.31121826,0.68434012
518,0.04816075,-0.30020091,-0.01799375,-1.73107004,0.37551776,1.24838090,0.93398350
519,-0.13581775,-0.07883125,-0.17689866,-1.69453442,0.29315123,1.33075559,0.53243828
520,-0.01332661,-0.28923240,-0.08175746,-1.76381075,0.32792327,1.26113129,0.80557197
521,0.15357265,-0.06463686,0.13697106,-1.39957416,0.44376341,1.27900732,1.21085393
522,0.16633260,-0.69169551,0.07386742,-1.92819679,0.43997356,1.14014661,1.21367455
523,-0.17501129,0.06156293,-0.15254912,-1.55782259,0.30216119,1.34448302,0.51806962
524,0.17880818,-0.42092741,0.12419210,-1.70546925,0.45254466,1.18236327,1.24026489
525,-0.07179210,-0.10725543,-0.11733411,-1.66605127,0.31786278,1.32793534,0.67303669
526,-0.12166947,-0.20896153,-0.24090660,-1.80518234,0.23905985,1.30054796,0.49185753
527,-0.04390664,-0.77889371,-0.27951020,-2.19226789,0.16396566,1.12525165,0.61040008
528,0.04643621,-0.17096713,0.00352284,-1.61017311,0.38710341,1.28040481,0.95075268
529,0.06697358,-0.24750885,0.03489489,-1.63938093,0.40886763,1.26137948,1.01993394
530,-0.13683043,-0.34959760,-0.25802484,-1.92908680,0.20392479,1.28003240,0.47848004
531,-0.24453327,-0.37716478,-0.45945430,-2.01439238,0.04708738,1.26662016,0.18725277
532,-0.02720612,-0.21614917,-0.08223792,-1.72757423,0.33209822,1.27275252,0.75577825
533,-0.04729366,-0.15665612,-0.10801392,-1.70630622,0.32976210,1.30089009,0.71446818
534,-0.11599684,-0.04658470,-0.14905888,-1.63670838,0.30926499,1.32308948,0.57885635
535,-0.11956738,-0.53457379,-0.30804905,-2.05118608,0.15342575,1.21210873,0.47824222
536,-0.23746857,-0.16390990,-0.33455905,-1.82542539,0.16191362,1.32402194,0.24640487
537,-0.29836816,-0.13514711,-0.42356461,-1.87929285,0.10900442,1.35631347,0.10610995
538,0.02003285,-0.26610938,-0.01694782,-1.70660686,0.35858494,1.25989091,0.90350240
539,0.01235348,-0.04810227,0.00893368,-1.53154266,0.39042076,1.30022871,0.89703208
540,-0.10082297,-0.16094895,-0.16610533,-1.72725677,0.30100513,1.30874383,0.58117557
541,-0.10320750,-0.29810545,-0.23011494,-1.87480700,0.24064942,1.27884448,0.52211934
542,-0.09324177,0.07839623,-0.08248424,-1.48771787,0.33402541,1.32705534,0.66702187
543,-0.07921748,-0.46492469,-0.20375079,-1.97272694,0.24379912,1.23411214,0.63151878
544,-0.15275398,-0.47977263,-0.34179297,-2.02823615,0.13633285,1.21330369,0.39897913
545,-0.28098896,-0.13223708,-0.39530113,-1.85290253,0.12884520,1.34386253,0.15459241
546,-0.16500890,-0.05572524,-0.20445284,-1.68024504,0.27360517,1.32507551,0.45507854
547,-0.07082021,-0.00890028,-0.08547092,-1.54879200,0.32409137,1.32829094,0.69909531
548,-0.20801386,-0.33829689,-0.39200142,-1.95593607,0.10544452,1.28263688,0.27412587
549,-0.12953056,-0.23408128,-0.23907307,-1.82580101,0.23577230,1.30834699,0.48162490
550,-0.22868359,-0.26606646,-0.38810289,-1.90532386,0.11058275,1.27484167,0.22081466
551,-0.15672143,-0.52936769,-0.39727402,-2.07310724,0.12036881,1.21245849,0.37142652
552,0.05125484,-0.38790575,-0.04454903,-1.79586780,0.37375692,1.23250496,0.91371047
553,-0.13512638,-0.38507274,-0.31125021,-1.94511235,0.16532822,1.24278617,0.43532437
554,0.04998919,-0.13900806,0.00823192,-1.58504558,0.39162305,1.28789496,0.93840712
555,-0.11349775,-0.25141841,-0.19392431,-1.80980504,0.26471925,1.26149642,0.56107354
556,-0.17799717,-0.04003033,-0.21561694,-1.66853416,0.24461861,1.33478308,0.42609566
557,-0.07533032,0.06702095,-0.05561582,-1.49770892,0.35520276,1.34014928,0.73211074
558,0.26185867,-0.51787162,0.19827741,-1.70511377,0.50636035,1.18868124,1.43958795
559,-0.12012704,-0.35993880,-0.24476933,-1.91441834,0.22333069,1.26842630,0.50633287
560,-0.17053333,-0.27254558,-0.28845799,-1.87389493,0.19188808,1.28889275,0.38807344
561,-0.20946607,-0.31485265,-0.39577937,-1.93839514,0.11339743,1.27322614,0.26279515
562,-0.03702149,-0.32720101,-0.14863268,-1.83335245,0.31084070,1.26700342,0.70306402
563,-0.30381429,-0.08287822,-0.38213176,-1.79404294,0.12969898,1.34392464,0.13084944
564,-0.03723758,-0.12881760,-0.06138171,-1.65265965,0.35052678,1.30380154,0.77853405
565,-0.26401839,-0.01212579,-0.32337382,-1.68340576,0.18754737,1.33401108,0.22828038
566,-0.02735543,-0.80021483,-0.21467990,-2.16955304,0.21552910,1.09501326,0.71188211
567,-0.04700063,-0.09840718,-0.06199015,-1.63619769,0.35612690,1.30251801,0.75324106
568,-0.05481501,-0.06367317,-0.09361254,-1.62021923,0.33968639,1.32003164,0.69932222
569,-0.06741092,-0.07629865,-0.09715990,-1.62987328,0.34020406,1.31076801,0.70153946
570,-0.04161599,-0.44944912,-0.16288179,-1.95453918,0.27041894,1.21770775,0.68634588
571,-0.06543809,-0.53176910,-0.24261129,-2.02470374,0.22815751,1.22457445,0.58482021
572,-0.03814657,-0.50851196,-0.18083537,-1.98825109,0.25584483,1.19911158,0.68587053
573,-0.07037465,-0.36712995,-0.17741299,-1.87765920,0.26025015,1.25336087,0.63183594
574,-0.09899610,-0.09865241,-0.13642061,-1.67752564,0.30860350,1.32144833,0.62434816
575,0.06002171,-0.27926341,-0.00495849,-1.70755339,0.39275417,1.26093483,0.95471185
576,0.23434654,0.25511935,0.25738868,-1.05809903,0.47681096,1.33277118,1.40585160
577,-0.21201125,-0.23975343,-0.35462648,-1.87661994,0.14859767,1.27173746,0.27850699
578,-0.00923857,-0.28892392,-0.09996859,-1.79284227,0.33222932,1.27007651,0.78121012
579,-0.16524266,-0.09219795,-0.23397231,-1.71956050,0.23981924,1.32697356,0.42880625
580,-0.01660267,0.10342720,0.02021802,-1.39376462,0.38897929,1.32502735,0.84387523
581,-0.22265363,-0.32111388,-0.40036279,-1.94540691,0.09858222,1.26989222,0.23843493
582,-0.16469297,0.10342392,-0.12468687,-1.51154387,0.32734677,1.33833873,0.53720874
583,-0.03064707,-0.49210513,-0.15289813,-1.95084584,0.27700618,1.21932614,0.72929525
584,-0.01315410,-0.43588036,-0.12415504,-1.90293550,0.31149948,1.23935616,0.76786339
585,0.00704955,-0.16974536,-0.03988040,-1.64388573,0.36578193,1.27789080,0.86840546
586,-0.33461583,0.30513173,-0.15742829,-1.37178695,0.28887904,1.33065748,0.33805841
587,0.06213832,-0.10536416,0.05650954,-1.52497232,0.41018125,1.28077102,1.01117408
588,-0.25203258,0.10493018,-0.18852511,-1.53835690,0.27895358,1.32366884,0.39014387
589,-0.03082052,-0.26785648,-0.11034731,-1.78033996,0.32823208,1.27506340,0.74274749
590,-0.05656675,-0.18265806,-0.12452058,-1.73324716,0.32245412,1.29962993,0.68333924
591,0.01070090,-0.22165677,-0.04898543,-1.70642483,0.36006376,1.26184845,0.85364646
592,-0.20293485,0.08829066,-0.17981261,-1.54169905,0.28210816,1.34013629,0.44380701
593,-0.03074068,-0.19628507,-0.08982228,-1.69530880,0.34409055,1.28558671,0.76324588
594,-0.04401849,-0.53433096,-0.17525411,-1.99863482,0.25835335,1.21947372,0.68833435
595,0.07094851,-0.37578094,0.00812478,-1.76493251,0.39800194,1.24456155,0.99882275
596,-0.03404734,-0.22593603,-0.11724062,-1.74501026,0.31580773,1.28203523,0.71844637
597,0.03576067,0.06578356,0.05059969,-1.38467479,0.40141672,1.29798305,0.95979947
598,-0.09866491,-0.20283902,-0.17347315,-1.77970624,0.28858170,1.29505265,0.59083313
599,-0.03665935,-0.36771229,-0.13884723,-1.86804497,0.30111271,1.27343643,0.70339632
600,-0.11021604,-0.24853808,-0.22613940,-1.82556009,0.24946652,1.29909825,0.53008020
601,-0.11624750,-0.26924372,-0.22069651,-1.83705151,0.24849282,1.27992451,0.52240419
602,-0.15637755,-0.19671117,-0.23133472,-1.80064809,0.24203368,1.31098020,0.47333360
603,0.03031102,-0.05937509,0.01170849,-1.51259494,0.37751660,1.29644322,0.93424851
604,0.00805572,0.01035042,0.01869682,-1.47210133,0.39151824,1.31411016,0.85592586
605,-0.46989736,0.25853178,-0.33310658,-1.57947171,0.18795314,1.38157570,0.00134542
606,0.12116116,-0.11974606,0.10130853,-1.47907162,0.42749894,1.27269638,1.14519823
607,0.08079618,-0.51190025,-0.00417938,-1.87461209,0.36434710,1.18870938,0.99834269
608,-0.00013900,-0.36825362,-0.09700353,-1.83428752,0.33361343,1.25890040,0.81866091
609,-0.15104239,0.04582005,-0.14386508,-1.57192600,0.30212978,1.35123563,0.54024476
610,-0.11882955,-0.33413798,-0.23852843,-1.90758288,0.23496449,1.26838183,0.50432259
611,0.18203589,-0.44141492,0.11826552,-1.71937907,0.46376911,1.22090662,1.25992239
612,0.19058093,-0.23881237,0.16036683,-1.52133811,0.45824340,1.24935186,1.29592836
613,-0.14515965,-0.40408164,-0.33059525,-1.96576846,0.14719690,1.23941195,0.41107112
614,0.07906297,-0.34082723,0.01347870,-1.73245120,0.40755081,1.24696028,1.01813555
615,-0.15885344,-0.26066789,-0.28643322,-1.87195361,0.19206907,1.28991687,0.41218334
616,-0.02673787,-0.16870195,-0.07594717,-1.67108333,0.34369424,1.29065990,0.77666873
617,-0.31446037,0.16308510,-0.22045460,-1.51373756,0.25907448,1.33490098,0.30861318
618,-0.08857407,-0.23235232,-0.16530916,-1.79945123,0.29663408,1.30006087,0.60790533
619,-0.03097047,-0.12296773,-0.08388142,-1.66138935,0.34082875,1.31526732,0.75833112
620,-0.02926078,-0.37141669,-0.13786107,-1.86999178,0.31202969,1.25533414,0.73077238
621,0.06794013,-0.18738832,0.03536551,-1.59519017,0.40871182,1.26865339,1.02185488
622,-0.21108764,0.12865491,-0.13182223,-1.47729492,0.31301597,1.32139862,0.48971111
623,-0.08169869,-0.23425339,-0.16599762,-1.79879093,0.29314783,1.29931152,0.61059439
624,0.08722416,0.04269161,0.10608339,-1.34292245,0.41307205,1.29247940,1.09546399
625,-0.20080085,-0.08634573,-0.27466041,-1.72614491,0.20711078,1.31570971,0.33790082
626,-0.02333532,0.21007997,0.03039313,-1.29989743,0.39570439,1.31752920,0.84927362
627,-0.00387215,-0.03757960,-0.00765584,-1.51595175,0.36798602,1.30572605,0.87079144
628,-0.09158726,-0.17083910,-0.17027548,-1.74076593,0.28755838,1.30227757,0.58304662
629,-0.04660486,-0.05986949,-0.06538012,-1.58273709,0.34719771,1.31426930,0.74797231
630,-0.22819570,-0.41051656,-0.45340794,-2.05918908,0.05544096,1.28512418,0.17576076
631,-0.13105358,-0.29488298,-0.24873000,-1.87849855,0.22525795,1.29038155,0.48384541
632,-0.16460347,-0.22034389,-0.27850002,-1.83784139,0.21569289,1.29841006,0.40026236
633,-0.04738301,-0.23220553,-0.10681342,-1.75411558,0.32831296,1.28385210,0.71351373
634,-0.23158340,0.14669992,-0.16109237,-1.48100150,0.29316193,1.33434832,0.42698002
635,-0.06429496,0.06270428,-0.04234273,-1.47127593,0.36355439,1.33822644,0.75407702
636,-0.07909133,-0.26403475,-0.16761175,-1.80349672,0.28985253,1.27082324,0.63582444
637,-0.06208867,-0.13754399,-0.11268105,-1.69425416,0.32549161,1.30289471,0.68219370
638,-0.13545445,-0.07663940,-0.16636121,-1.67133522,0.29343548,1.32791901,0.54123944
639,0.12419611,-0.31100959,0.08380531,-1.65704048,0.43089065,1.25062466,1.15551519
640,-0.04594980,-0.34596562,-0.15951192,-1.85772431,0.29470545,1.25721180,0.66908711
641,0.00448877,0.00960976,0.00662724,-1.47609556,0.37782222,1.30689514,0.88289315
642,0.09555796,-0.19769347,0.04375873,-1.62295687,0.41314062,1.27409327,1.01413667
643,-0.16667530,-0.46078497,-0.38453144,-2.01641798,0.10325946,1.21217763,0.35238642
644,-0.03004289,-0.33864889,-0.13713419,-1.84857845,0.31020904,1.25977683,0.71389276
645,-0.22706607,-0.19540735,-0.37641686,-1.87887514,0.14564228,1.32826138,0.23892958
646,0.05170254,-0.46404883,-0.05476785,-1.88322818,0.35416916,1.21925914,0.90271956
647,0.07372926,-0.00521740,0.07370838,-1.41417038,0.41200742,1.31060326,1.01361048
648,-0.33407435,0.06177353,-0.32002828,-1.66427267,0.19282484,1.36584830,0.19280149
649,0.06660838,-0.27002233,0.02486037,-1.66912830,0.40359977,1.26114440,1.00746870
650,-0.09811249,-0.17193267,-0.16174975,-1.74296916,0.29267409,1.30648601,0.60833049
651,-0.04157121,-0.08539769,-0.08209074,-1.63470805,0.34522709,1.31816888,0.73261851
652,-0.05805558,-0.28946158,-0.16737595,-1.83396447,0.28044572,1.27761328,0.63674992
653,0.01701275,-0.21761683,-0.03263927,-1.68155801,0.37411502,1.27975655,0.88354969
654,-0.20067281,-0.07494567,-0.24699637,-1.71752203,0.22848339,1.33044934,0.38725942
655,-0.17421463,-0.05329482,-0.21794763,-1.68060422,0.24735396,1.34099519,0.43661553
656,-0.07655196,-0.11643475,-0.12271636,-1.68841112,0.32150501,1.33093834,0.65602916
657,-0.04688029,-0.23751101,-0.11717265,-1.74966466,0.32029364,1.28454959,0.72519386
658,-0.24154437,-0.20531815,-0.38656342,-1.86811984,0.11113146,1.30653739,0.19750471
659,-0.05879629,-0.25392571,-0.12867847,-1.78376460,0.30461144,1.28880906,0.69637674
660,0.11935207,-0.43266055,0.03140139,-1.78439343,0.40493307,1.21110725,1.06791794
661,-0.11701548,-0.26792425,-0.21996272,-1.84094727,0.25587931,1.29096210,0.52640527
662,-0.05098285,-0.58794940,-0.21940863,-2.05532598,0.23036541,1.19050467,0.64389580
663,-0.14305638,-0.40417773,-0.25798711,-1.94858325,0.20085597,1.24940205,0.49210316
664,-0.15472452,-0.26824617,-0.27611727,-1.86158705,0.20587809,1.28034544,0.42019969
665,-0.17702739,-0.23561060,-0.28873280,-1.84965098,0.19514973,1.30979645,0.37991220
666,-0.13688470,-0.27508205,-0.25874513,-1.86139381,0.21791799,1.28815472,0.45675611
667,0.02524337,-0.22343722,-0.02970864,-1.66400373,0.37140074,1.28117931,0.88174367
668,-0.13446441,-0.60982513,-0.33496848,-2.10221028,0.14138994,1.18747103,0.48801649
669,-0.02946171,-0.30789071,-0.10809765,-1.79195642,0.32382181,1.26034212,0.75959390
670,-0.05694470,-0.32248679,-0.16550854,-1.84858859,0.28935874,1.26037145,0.64929181
671,0.03740646,-0.09927754,-0.00082612,-1.57066190,0.38101473,1.29944205,0.91294736
672,0.01117004,0.00341503,0.01170357,-1.47413027,0.38580230,1.30036223,0.89284420
673,-0.23024660,-0.00799338,-0.23019475,-1.66696990,0.25262430,1.33359432,0.36124617
674,-0.33728629,0.12847790,-0.26613110,-1.58277822,0.22982432,1.34504187,0.20570882
675,0.03869045,0.07919538,0.06778944,-1.36518443,0.40772751,1.30735362,0.98298174
676,-0.20020653,-0.03242737,-0.25313604,-1.67520988,0.22595666,1.33230531,0.36233813
677,0.02315542,-0.31610289,-0.04199464,-1.76297545,0.36026707,1.25768638,0.89298409
678,0.03695783,-0.15820697,-0.00251585,-1.60387921,0.38169956,1.28493226,0.93380827
679,-0.06323238,-0.34960851,-0.16018981,-1.87254298,0.28394756,1.26245987,0.66203755
680,-0.17789823,-0.45154276,-0.39377236,-2.02751088,0.11324514,1.22131836,0.33526468
681,-0.00555713,-0.31268156,-0.09232955,-1.79219329,0.33973849,1.26188505,0.80177987
682,-0.11439489,-0.01724567,-0.12267057,-1.60516298,0.31971049,1.33905160,0.61539161
683,-0.15966202,-0.51209581,-0.37200391,-2.06049848,0.13495570,1.20544457,0.39172280
684,0.09184508,0.04357371,0.09741714,-1.35162532,0.42586455,1.27922678,1.07538021
685,0.06027102,-0.12149130,0.03361534,-1.53246939,0.40331236,1.28364170,0.98295468
686,-0.16779898,-0.12349524,-0.23131579,-1.74700391,0.24936177,1.32704508,0.43194413
687,-0.28107995,0.15577330,-0.20624542,-1.50645459,0.25889337,1.35238993,0.32597041
688,-0.05877702,-0.25138780,-0.13865986,-1.79050481,0.30549023,1.28789699,0.67395121
689,0.08618507,-0.13424715,0.07458387,-1.51493526,0.41696247,1.28578484,1.07425022
690,-0.02829833,-0.16605625,-0.07370659,-1.68215573,0.34659731,1.28806853,0.75378466
691,-0.11155650,0.03056766,-0.09882364,-1.54566634,0.33702096,1.32943594,0.63096881
692,-0.07147655,-0.51118577,-0.21277523,-1.99761713,0.23526174,1.21360254,0.61139458
693,-0.29857653,0.20418349,-0.18213779,-1.46625292,0.27350208,1.33105528,0.35116327
694,-0.30378312,-0.00129383,-0.33975628,-1.72319424,0.17520544,1.34507287,0.16053411
695,-0.02952240,-0.02327554,-0.05135659,-1.54757702,0.36215943,1.31511998,0.78592038
696,-0.15538894,-0.10493881,-0.20942017,-1.73755229,0.25954783,1.35112989,0.47197622
697,-0.05993581,0.12186752,-0.01805134,-1.39440024,0.36695716,1.31778085,0.76189119
698,-0.09311542,-0.27600655,-0.18110213,-1.81723630,0.26416802,1.27172291,0.58406776
699,0.10180195,-0.31216073,0.02993761,-1.69331443,0.40851936,1.25392365,1.05347562
700,-0.07336216,-0.20103897,-0.14291698,-1.73849356,0.31208396,1.29348171,0.65215099
701,-0.14382748,-0.54240710,-0.36859071,-2.06642866,0.12534517,1.19026446,0.41147262
702,-0.04230317,-0.14483286,-0.09099279,-1.68609107,0.33573467,1.30664146,0.72671872
703,-0.09635668,0.11086985,-0.04730164,-1.43964672,0.35908726,1.32728589,0.68546849
704,-0.02831328,-0.15506005,-0.09971728,-1.67283642,0.32085010,1.31279099,0.76676506
705,-0.01105650,-0.50914770,-0.14367694,-1.96430910,0.29884315,1.19991744,0.74776804
706,-0.17126307,-0.15645114,-0.27173084,-1.78113401,0.21550681,1.32404101,0.37838185
707,0.00953677,-0.34108138,-0.07032674,-1.80700243,0.35261950,1.25636482,0.83413702
708,-0.17842926,0.06772405,-0.15239599,-1.57099450,0.31512997,1.35747302,0.50856745
709,-0.05123770,-0.47204217,-0.18865994,-1.94826877,0.25173247,1.20029008,0.66939932
710,-0.06385385,-0.32326081,-0.17368022,-1.85709155,0.28083405,1.26233113,0.63065910
711,0.10063541,-0.21592891,0.05101355,-1.60205114,0.41019773,1.25056398,1.05529654
712,-0.10193972,-0.48190671,-0.25646996,-2.00023413,0.20867474,1.22997749,0.54337883
713,-0.02079259,-0.21235918,-0.06157517,-1.71252835,0.35516551,1.28856695,0.80750030
714,-0.04780322,0.05927758,-0.02502961,-1.46123755,0.35213092,1.32210803,0.75366408
715,-0.23530079,-0.16465048,-0.35862434,-1.84765935,0.14549084,1.31960249,0.22613563
716,-0.17563742,-0.03839852,-0.20170024,-1.66371441,0.27056149,1.33211219,0.43904853
717,-0.07400489,-0.10043532,-0.10943600,-1.64132392,0.32310933,1.31829762,0.68171412
718,-0.08118641,-0.41943768,-0.23169714,-1.95130002,0.24003240,1.24416900,0.57058936
719,-0.14557154,-0.42268330,-0.34304172,-1.98023331,0.13538817,1.22831404,0.40321743
720,0.10565032,-0.02958168,0.08137832,-1.41682839,0.41411200,1.29176807,1.07038724
721,-0.09241103,-0.36320320,-0.22204512,-1.90424979,0.23883800,1.25452054,0.56154853
722,-0.18595317,-0.30275393,-0.33999217,-1.92019832,0.16656820,1.29886806,0.32407141
723,-0.09879114,0.11664534,-0.06058557,-1.44714630,0.35365713,1.33448541,0.68147254
724,0.05555622,-0.24611235,-0.00665661,-1.67342198,0.38380668,1.26891267,0.93446785
725,-0.21028391,-0.12058577,-0.30907702,-1.77940416,0.19297765,1.32633781,0.29928190
726,-0.30760270,-0.20690098,-0.45352930,-1.91602612,0.04728635,1.33158994,0.05446598
727,-0.12048307,-0.22227129,-0.19933417,-1.80321038,0.26801372,1.30533564,0.53787941
728,-0.21588671,0.02694226,-0.21120131,-1.61936665,0.26559746,1.33763540,0.39420229
729,-0.12936056,-0.26320586,-0.23751497,-1.84579384,0.23497172,1.29804718,0.48283845
730,-0.11222386,-0.32410792,-0.22780466,-1.89165461,0.23618673,1.27094960,0.52922571
731,-0.11349946,-0.07315977,-0.14474517,-1.64981043,0.30418685,1.31452501,0.59368497
732,0.00752251,-0.29215944,-0.05758352,-1.76119840,0.34851509,1.27129841,0.83731943
733,-0.20198768,-0.28740481,-0.38107300,-1.91384971,0.12270135,1.27244174,0.26135695
734,0.15716043,-0.09610383,0.15474713,-1.41355550,0.45348498,1.27177393,1.23775554
735,-0.11926512,-0.34123647,-0.24947309,-1.90427363,0.22186141,1.26765740,0.51066154
736,0.10147357,-0.31018719,0.05380064,-1.68105960,0.40779477,1.23805058,1.07194817
737,-0.05226721,-0.21608949,-0.14380854,-1.75985682,0.30400953,1.28323948,0.66665989
738,0.18804380,-0.27133200,0.16395783,-1.55907834,0.48177484,1.22784817,1.30342293
739,-0.31634986,0.09658563,-0.28211439,-1.58408010,0.21317780,1.33173668,0.20890634
740,-0.09821206,-0.02977481,-0.11491209,-1.60113394,0.32273272,1.33358097,0.63896036
741,-0.21570933,-0.03739750,-0.25400478,-1.69831407,0.23514239,1.34521687,0.35733736
742,-0.15472992,-0.23679870,-0.26083302,-1.83721697,0.21999581,1.30271685,0.43134087
743,-0.21835063,0.17014569,-0.11328805,-1.47668707,0.33831853,1.35190117,0.50427723
744,-0.24338807,-0.31507397,-0.42251796,-1.96159184,0.08727445,1.27497125,0.19416873
745,-0.29316121,0.04967618,-0.28954834,-1.65029109,0.20936187,1.34209871,0.23134591
746,0.16348419,-0.24101251,0.15723389,-1.54317629,0.46206477,1.24498463,1.27786458
747,-0.25471619,0.01476518,-0.25712943,-1.66066766,0.22486426,1.33349431,0.31592023
748,-0.01902598,-0.32528681,-0.10184211,-1.81627643,0.33392444,1.26451004,0.77082843
749,-0.40235481,0.38648340,-0.17042089,-1.30340946,0.27860561,1.33287811,0.24645282
750,-0.19437040,-0.14147618,-0.28015289,-1.78760087,0.20930059,1.31021774,0.35476887
751,-0.11326349,-0.62488115,-0.32648805,-2.11145210,0.13341647,1.17546785,0.48216432
752,0.02085838,-0.27861917,-0.08016262,-1.75215256,0.34868693,1.27862763,0.84275770
753,-0.21243313,0.12322888,-0.14294389,-1.51818883,0.31288210,1.33821595,0.47506517
754,-0.09380682,-0.24111262,-0.17081788,-1.80356705,0.28345880,1.30352855,0.60136890
755,-0.11414719,-0.40499157,-0.27378315,-1.96477699,0.19116004,1.24894130,0.48023164
756,-0.14561082,-0.19398750,-0.23475885,-1.79403794,0.24959998,1.29588854,0.47416520
757,-0.03317918,-0.28151205,-0.09666059,-1.80238760,0.32758585,1.30463159,0.76885062
758,-0.13907422,-0.32605991,-0.29035783,-1.90440118,0.19992341,1.25370967,0.43694979
759,-0.15180603,-0.05581043,-0.18990982,-1.68470788,0.28041342,1.33687305,0.47767907
760,-0.13850787,-0.17395073,-0.22541332,-1.77884972,0.24894327,1.32345629,0.47685003
761,0.23984107,-0.30522221,0.21443298,-1.53734553,0.48475727,1.24141228,1.41065121
762,-0.21810174,-0.27120870,-0.35650909,-1.89473283,0.13079354,1.28233182,0.27742243
763,-0.10303941,-0.28202802,-0.19625500,-1.84021199,0.26486003,1.29306293,0.57302499
764,-0.01580554,-0.06345910,-0.01425552,-1.55601883,0.38314223,1.30297458,0.84581608
765,-0.06802455,-0.50652003,-0.22445172,-2.00491524,0.23183937,1.21652412,0.59417576
766,-0.44596511,0.44946647,-0.16972014,-1.24984038,0.28876549,1.32320309,0.20858286
767,0.08996719,-0.12132402,0.05194887,-1.51939392,0.41070101,1.26477706,1.04229856
768,-0.27818078,-0.21354051,-0.44584614,-1.90075481,0.06610422,1.31323016,0.10368037
769,-0.05705346,-0.25501597,-0.12552804,-1.78092301,0.30994910,1.29302883,0.69116235
770,-0.14466017,-0.31426749,-0.28471780,-1.89458215,0.19993737,1.26214135,0.43355167
771,-0.34872398,0.23031119,-0.21241292,-1.46197069,0.25343248,1.33777106,0.24744888
772,-0.03237677,-0.41623068,-0.14391899,-1.90798128,0.28959396,1.22767615,0.71927863
773,0.02041370,-0.36170232,-0.06872187,-1.81377733,0.34846249,1.23736739,0.84662879
774,-0.27687377,-0.23838311,-0.43098736,-1.92387426,0.06566340,1.31687582,0.13190968
775,0.18931836,0.09828582,0.20319793,-1.20192063,0.46241605,1.28489280,1.29021096
776,-0.23001063,-0.33749616,-0.39458629,-1.96172082,0.10324053,1.27514613,0.22824298
777,-0.16046593,-0.06105111,-0.20183295,-1.68977082,0.27734601,1.33235550,0.46711171
778,-0.23183262,-0.12643246,-0.32726851,-1.79020023,0.16747184,1.32572496,0.25535309
779,0.07077372,-0.18955700,0.02927905,-1.59871829,0.40355060,1.27971160,1.00614643
780,0.00449400,-0.42121691,-0.11264896,-1.88375247,0.33143744,1.23234141,0.78696817
781,-0.10264851,-0.34702402,-0.25306135,-1.90399575,0.21876755,1.26166022,0.51025486
782,-0.03656530,-0.48306200,-0.17552382,-1.93225205,0.26914671,1.19140196,0.69832921
783,-0.21161526,-0.16854557,-0.33265299,-1.82640767,0.15554942,1.31902421,0.28127050
784,-0.20136395,-0.10845537,-0.29768485,-1.76616251,0.19305073,1.32728279,0.32315075
785,0.03521606,-0.14884889,0.01354315,-1.59697211,0.39236835,1.28288317,0.93442029
786,-0.10604507,-0.61297452,-0.30855155,-2.10847378,0.17315066,1.17120397,0.53712767
787,-0.04781508,-0.32864752,-0.15324438,-1.86115444,0.29840589,1.26917064,0.67262453
788,0.09199995,-0.11642106,0.07736742,-1.48908913,0.41614464,1.25765705,1.08552337
789,-0.12548213,-0.24977462,-0.23759645,-1.84135139,0.23417042,1.29079258,0.50045794
790,-0.11197579,-0.07206061,-0.13882303,-1.66747105,0.31876126,1.32444537,0.59283197
791,-0.12546995,0.01334705,-0.12752444,-1.57388532,0.32383558,1.32770669,0.58154708
792,-0.07659002,-0.06504864,-0.09670248,-1.62564075,0.32926664,1.32245600,0.69432175
793,-0.06567548,-0.35851765,-0.18255961,-1.88587320,0.27799445,1.24711382,0.63288110
794,-0.08103304,-0.09327935,-0.11509062,-1.66371024,0.32403645,1.32188213,0.65564924
795,-0.01120844,-0.50882077,-0.14047778,-1.96269882,0.29901323,1.21242833,0.75322676
796,0.21238938,0.11254133,0.23150292,-1.16553438,0.48493686,1.30139446,1.32650244
797,0.00826074,-0.09901738,-0.01226526,-1.57479906,0.36842957,1.29779732,0.87604040
798,-0.09122616,-0.22997831,-0.18986022,-1.80491757,0.27726054,1.29258215,0.57298678
799,0.08130142,-0.41224629,0.00797916,-1.79310226,0.39094573,1.21354783,1.00879073
800,-0.15926719,-0.10878855,-0.21782348,-1.73928511,0.25726479,1.35122728,0.49480170
801,-0.07491334,0.13695298,-0.04340661,-1.40042961,0.35110947,1.30691612,0.73126894
802,-0.09978107,-0.14792356,-0.15250066,-1.71355188,0.29131439,1.33047736,0.60602415
803,-0.10322048,-0.43924236,-0.25306815,-1.97332335,0.20869087,1.23666990,0.53996938
804,0.09461546,-0.31606984,0.04440082,-1.68448484,0.41513345,1.23331165,1.06637216
805,0.06436536,-0.12094429,0.05115930,-1.52730918,0.39723900,1.28093338,1.01939321
806,-0.27646700,-0.09776691,-0.35669574,-1.80550349,0.15714388,1.35793006,0.20208491
807,0.06220749,-0.09870956,0.07332085,-1.53577197,0.41028294,1.31125224,1.02127361
808,-0.20799196,-0.38398463,-0.40028441,-1.98473680,0.10450512,1.25670803,0.28475183
809,0.01110020,-0.37122449,-0.07324911,-1.82438338,0.34329942,1.24286807,0.83851922
810,0.11625968,-0.20280565,0.07167864,-1.56213987,0.42758933,1.24879956,1.10582519
811,-0.32101750,-0.27594209,-0.52304465,-2.00614285,-0.00987272,1.33792984,-0.00761236
812,-0.10245034,-0.10517721,-0.15669104,-1.68215728,0.30669117,1.30933464,0.59460384
813,-0.12336250,-0.32950228,-0.28184417,-1.89831579,0.19782385,1.26167274,0.46846235
814,-0.08153637,-0.28898248,-0.19080251,-1.83906138,0.27849743,1.27800751,0.59948057
815,0.07022169,-0.21021776,0.01923859,-1.62666738,0.39525428,1.27296448,0.99831647
816,-0.20982234,-0.14357489,-0.29645994,-1.78759706,0.19123815,1.30614424,0.33869028
817,-0.09661895,-0.31655717,-0.19948694,-1.87648690,0.26117966,1.27569878,0.57575452
818,-0.10982466,-0.14536543,-0.16617894,-1.73704350,0.29527110,1.30558634,0.57785034
819,-0.04322889,-0.44077903,-0.16989973,-1.92571199,0.27975711,1.21284735,0.68109405
820,-0.18795730,-0.27467853,-0.34856629,-1.89520288,0.14205921,1.28299177,0.31735611
821,-0.04350638,-0.29209459,-0.14003855,-1.82671106,0.30337343,1.28043926,0.68732297
822,-0.18320718,-0.22034700,-0.30155683,-1.84770238,0.19470234,1.31967366,0.35618001
823,-0.03332774,-0.32467407,-0.13775229,-1.82517827,0.31418970,1.25774848,0.71330512
824,-0.03795607,-0.01928395,-0.04399116,-1.53740990,0.36855900,1.31259847,0.77235526
825,0.03716853,-0.20718542,-0.00971850,-1.64475691,0.38367793,1.27123082,0.93763560
826,-0.03682647,0.07091236,-0.01258997,-1.42787325,0.36233509,1.31841481,0.81390303
827,-0.16422687,-0.38891298,-0.35019672,-1.96908772,0.13899453,1.24365604,0.35116851
828,0.02462374,-0.06850091,0.01201449,-1.52212489,0.38744968,1.29385018,0.91239369
829,-0.08914195,-0.68422449,-0.29833129,-2.12097478,0.16130331,1.12857985,0.55398196
830,-0.38168287,0.01225233,-0.38662142,-1.76447260,0.13840516,1.35759223,0.05090365
831,0.06592646,-0.54528928,-0.06991536,-1.93047607,0.34687638,1.20630610,0.92442226
832,-0.23725972,-0.12403229,-0.32936502,-1.79288924,0.16819312,1.32632446,0.25111824
833,-0.03898512,-0.48885238,-0.18135899,-1.97288120,0.26653838,1.21498835,0.67962891
834,-0.09674901,-0.35821828,-0.25335774,-1.92244267,0.22789894,1.25406504,0.52130872
835,-0.05921884,-0.15563257,-0.09947812,-1.68878269,0.32509831,1.31226647,0.70909417
836,-0.24583131,0.18502609,-0.16901302,-1.46260726,0.28761795,1.33558834,0.39653331
837,-0.03946054,-0.15468521,-0.08767656,-1.68814933,0.34874621,1.29870820,0.73742014
838,-0.01308306,-0.44663435,-0.14344981,-1.92193401,0.31434575,1.24091101,0.75648314
839,0.01788419,-0.61512047,-0.11783508,-2.01407623,0.30412471,1.18323290,0.82658643
840,-0.22291866,-0.27101469,-0.36647052,-1.91077483,0.12944232,1.29659760,0.26122570
841,-0.19697618,-0.32246834,-0.36623567,-1.94005549,0.12165430,1.27401352,0.29258317
842,0.02894503,-0.03853381,0.02607806,-1.48185039,0.37978747,1.29995978,0.93156475
843,-0.07104069,-0.45135516,-0.19489193,-1.95278418,0.25953695,1.23441446,0.63988632
844,0.06217664,-0.16034606,0.03203800,-1.57429874,0.39677563,1.26327896,1.00758803
845,-0.07788123,0.05587841,-0.05207797,-1.48689282,0.36325294,1.32637560,0.71458143
846,-0.03541854,-0.22346580,-0.10356522,-1.74643505,0.32633740,1.28756702,0.73243767
847,0.14556804,0.12016717,0.19046439,-1.21588433,0.45515987,1.29304516,1.21978271
848,-0.06963876,-0.02716222,-0.07793332,-1.56865036,0.34320241,1.32281709,0.70039219
849,-0.34535092,0.17991708,-0.23168308,-1.51966786,0.24465442,1.33955193,0.26788121
850,-0.18849893,-0.45247313,-0.39230406,-2.02536988,0.09575513,1.24494457,0.31483811
851,-0.09422219,-0.09212522,-0.12802583,-1.66826224,0.32176575,1.32075167,0.63214034
852,-0.12289599,-0.33941260,-0.25704089,-1.91165674,0.21500438,1.26414633,0.48322266
853,-0.10852693,-0.22422713,-0.17035130,-1.80333531,0.28916135,1.31051004,0.58577704
854,-0.03587379,-0.28824702,-0.11221137,-1.81103051,0.31632289,1.28305435,0.73164302
855,0.06886479,-0.43299115,-0.02628139,-1.82148194,0.37394264,1.22708070,0.96643776
856,-0.01807567,-0.40221256,-0.12387533,-1.89472258,0.31217358,1.25378609,0.74155289
857,-0.25647521,-0.38317198,-0.44916743,-2.01237702,0.07427694,1.23347318,0.14053105
858,-0.13514562,-0.42413449,-0.31118694,-1.98473537,0.16402943,1.24341214,0.42205834
859,-0.12942399,-0.38841328,-0.32987067,-1.97690570,0.21316148,1.28309059,0.45512813
860,-0.16674101,-0.38370094,-0.35778311,-1.98834813,0.14419982,1.27545071,0.33925325
861,-0.15537460,-0.29690266,-0.29293495,-1.89636040,0.19754465,1.29637444,0.39857775
862,0.04631649,-0.55613142,-0.07753091,-1.94949830,0.34748325,1.19041002,0.88627011
863,-0.08257087,-0.45111424,-0.21572471,-1.96496260,0.24110077,1.22767746,0.59049135
864,-0.02811904,-0.16991480,-0.06821943,-1.68450212,0.34455529,1.29708898,0.77816129
865,-0.10122713,-0.48198164,-0.25841266,-1.99823427,0.20419939,1.23116243,0.54030460
866,-0.12015843,-0.33343762,-0.27001607,-1.91041172,0.20575197,1.26694429,0.46888375
867,0.12666281,-0.44706070,0.05700814,-1.77013457,0.41424188,1.21450984,1.11979961
868,0.20758790,-0.53776592,0.12379488,-1.78923690,0.45587841,1.17970574,1.28743339
869,-0.22680694,-0.26529926,-0.39981544,-1.91990244,0.10388669,1.30880594,0.21530278
870,-0.05954368,-0.44078863,-0.19194883,-1.93988335,0.25849757,1.22589433,0.64516461
871,-0.04865047,-0.21437521,-0.12765366,-1.75633228,0.32712433,1.28684795,0.68460107
872,0.02292278,-0.16052936,-0.01353273,-1.60871637,0.37265840,1.28853738,0.90473968
873,-0.18110868,-0.32557982,-0.33875495,-1.92261136,0.14729863,1.28778756,0.34221810
874,0.03839511,0.01589342,0.04751176,-1.42947257,0.40246966,1.30476904,0.94661683
875,0.07804218,-0.33132368,0.03646348,-1.72350454,0.42722926,1.25899744,1.05307651
876,-0.00217754,-0.41331464,-0.10010856,-1.88046968,0.33406430,1.23399365,0.80013710
877,0.01264048,-0.51751840,-0.08650021,-1.93377197,0.32962653,1.19852042,0.84690386
878,-0.19207433,-0.11333482,-0.27281293,-1.77011406,0.21843933,1.34456372,0.36532158
879,0.13118581,-0.37719005,0.06002691,-1.72058332,0.41619995,1.22296309,1.11369216
880,-0.03717273,-0.13168742,-0.09253322,-1.66035450,0.33509722,1.30217040,0.74756461
881,-0.06826225,0.04428149,-0.06488324,-1.47434592,0.32366794,1.30749488,0.70747489
882,-0.03497206,-0.25281084,-0.10151470,-1.75584769,0.31726640,1.27592242,0.74844688
883,0.08494398,-0.57935488,-0.01592427,-1.92873120,0.38068834,1.17343318,0.99962825
884,-0.16802514,0.02809836,-0.17862737,-1.59830439,0.27490619,1.34281647,0.46416157
885,-0.00766760,-0.53088480,-0.12948412,-1.97996128,0.29723880,1.20375049,0.77678204
886,0.03562465,-0.19768316,-0.00484600,-1.65822589,0.38398728,1.28426111,0.91122794
887,-0.09737925,-0.25136411,-0.22191194,-1.83149314,0.25373709,1.28497326,0.54007030
888,-0.02508686,-0.35184187,-0.10894274,-1.82994723,0.30877930,1.25552833,0.77155185
889,-0.11398885,-0.31979778,-0.22158825,-1.87723935,0.24530272,1.28868663,0.53465217
890,-0.07033387,0.03410168,-0.05246217,-1.52029455,0.36085853,1.32647574,0.73450756
891,0.19768673,-0.12256812,0.16651705,-1.42546868,0.46625543,1.25681591,1.28584111
892,-0.10965136,-0.03798516,-0.13464171,-1.61336470,0.30654103,1.32064402,0.59009343
893,-0.25451931,-0.23762865,-0.42095155,-1.89658141,0.10291666,1.28760433,0.16752200
894,-0.08442412,-0.06124591,-0.11980823,-1.62156725,0.32306793,1.31077254,0.65738308
895,-0.12175043,-0.18517709,-0.18907201,-1.76319051,0.28008160,1.29566443,0.55031723
896,-0.07633005,-0.38786292,-0.21688434,-1.92497480,0.24523614,1.24421024,0.58585864
897,-0.14385842,-0.04034033,-0.14203689,-1.63758028,0.31705025,1.32523811,0.54412073
898,0.21166849,-0.05078691,0.19747208,-1.31615746,0.47515860,1.25502539,1.33323193
899,-0.19206643,-0.14205943,-0.26648828,-1.78862834,0.22452432,1.32088315,0.36202091
900,-0.13615005,0.00878805,-0.13942683,-1.60111725,0.30491185,1.35237718,0.54839808
901,0.00821222,-0.14753668,-0.04337420,-1.64631689,0.36786541,1.29614246,0.84744197
902,-0.16446666,-0.25090152,-0.28562814,-1.85084021,0.21135189,1.30270624,0.41269863
903,-0.26674497,-0.11665586,-0.35362747,-1.80346429,0.15270780,1.32966411,0.19838266
904,-0.06206325,-0.75611174,-0.27384526,-2.18536448,0.16807117,1.13273942,0.61426020
905,0.04752734,-0.37164861,-0.03964741,-1.78577960,0.36804172,1.23532343,0.92095631
906,-0.05581293,-0.34952062,-0.18438518,-1.88004363,0.27116343,1.25926483,0.63527429
907,-0.33649623,-0.04422490,-0.40451029,-1.78179634,0.11166155,1.34229207,0.06377113
908,-0.27424622,0.16869074,-0.17706606,-1.48608708,0.28228068,1.33422852,0.38185561
909,-0.14681843,-0.27290040,-0.27685076,-1.88034260,0.21325167,1.30839396,0.43954247
910,-0.03001304,-0.14629972,-0.07079238,-1.66280830,0.35865834,1.28305352,0.77057105
911,-0.03238679,-0.28840584,-0.11675908,-1.78990328,0.32621238,1.26811719,0.73207295
912,0.06010234,0.02299124,0.06727779,-1.40032363,0.40315154,1.30077803,1.00704622
913,-0.03219824,-0.32324624,-0.12327821,-1.84043634,0.31785461,1.26952982,0.72712147
914,0.04551131,-0.46260265,-0.06045381,-1.85850990,0.35363695,1.20907569,0.89881825
915,-0.10708702,-0.11525694,-0.15424389,-1.69904196,0.30296746,1.31637371,0.58785439
916,-0.22852370,-0.18602391,-0.34872335,-1.85006690,0.16626643,1.31326687,0.25352848
917,-0.14948322,0.14826448,-0.08727296,-1.45930040,0.34577805,1.32225144,0.59823567
918,-0.13036719,-0.08263300,-0.18855166,-1.67360866,0.27522892,1.33313251,0.50891840
919,-0.15934625,-0.18991262,-0.24871641,-1.80931342,0.23264246,1.30797446,0.43148679
920,0.00078015,-0.38150853,-0.09945974,-1.85662735,0.33013707,1.24519563,0.81146336
921,-0.15339878,-0.17606023,-0.24711299,-1.78226674,0.23504116,1.32142580,0.44300961
922,0.05311871,-0.40373468,-0.04088859,-1.83340907,0.36651462,1.23959792,0.93465036
923,-0.21243697,-0.20213762,-0.34527400,-1.84232819,0.15379353,1.30699050,0.28014141
924,-0.31560558,0.01636041,-0.33038479,-1.70014322,0.17669933,1.33753014,0.15840389
925,-0.15705262,-0.25218835,-0.28295597,-1.86330438,0.20436306,1.28697073,0.40260124
926,-0.07627839,-0.38404176,-0.21227431,-1.90108836,0.25252146,1.23492062,0.59635836
927,0.00240338,-0.55034018,-0.13593149,-1.97977126,0.29085496,1.18932712,0.77565354
928,0.10434049,-0.33004069,0.05618177,-1.68995941,0.42294297,1.23426354,1.09257042
929,-0.02119391,-0.44311488,-0.12894538,-1.91523802,0.30723286,1.22235489,0.75018281
930,0.00860524,-0.16782859,-0.03704310,-1.63637817,0.36041823,1.28826296,0.86546153
931,-0.17467636,-0.32520109,-0.35168204,-1.92798650,0.14796041,1.26982605,0.34608495
932,-0.19326352,-0.07399999,-0.24546668,-1.72241354,0.24216352,1.34029329,0.39306539
933,-0.16497919,-0.46914914,-0.38386703,-2.04505467,0.10727413,1.23680496,0.32121801
934,-0.02726693,-0.29215476,-0.10434211,-1.78959310,0.34088716,1.28287494,0.76357245
935,-0.09536354,-0.21391287,-0.17464232,-1.78788006,0.28640538,1.29398441,0.59355360
936,-0.15310454,-0.09230405,-0.22114301,-1.70488799,0.25470662,1.32994688,0.44982177
937,0.05310413,0.08690995,0.07979219,-1.32548463,0.40568104,1.29014671,1.01661444
938,0.06755012,-0.10406987,0.03931537,-1.51952028,0.40403759,1.27809548,1.01011157
939,-0.16769513,-0.08644509,-0.21684337,-1.71196163,0.26440451,1.32230413,0.43941218
940,-0.03529894,-0.61020100,-0.20843521,-2.06183529,0.23830874,1.18623233,0.66535425
941,-0.11050884,-0.16723542,-0.19126013,-1.74812400,0.26833555,1.31395519,0.54562712
942,0.12095664,-0.19083883,0.08323980,-1.54837239,0.43637386,1.25449967,1.12327766
943,-0.38349828,0.25169554,-0.25570145,-1.44054604,0.23061521,1.35625684,0.17212486
944,-0.11038722,-0.34739649,-0.21782362,-1.89461982,0.24171773,1.26741898,0.54471219
945,-0.01354858,-0.74921215,-0.18883252,-2.14677072,0.22819357,1.11404359,0.74443138
946,-0.20169771,-0.19047004,-0.29200017,-1.82138574,0.18897651,1.30662882,0.34891766
947,0.04063714,-0.07560933,0.03708733,-1.50738060,0.38306543,1.28629756,0.97360963
948,0.01012255,-0.35771173,-0.07534637,-1.81355238,0.33658600,1.24365437,0.83136827
949,-0.12999754,-0.33945024,-0.27170318,-1.90678418,0.19225653,1.25674021,0.47668904
950,0.19625005,-0.35957992,0.15749250,-1.62187159,0.46771914,1.22004426,1.29787397
951,-0.05196033,-0.12718002,-0.10667846,-1.66491568,0.32876387,1.31084120,0.70156819
952,-0.11247028,-0.28891504,-0.21765527,-1.86891162,0.24688162,1.28885841,0.53647745
953,-0.19290246,-0.16357842,-0.31060117,-1.81107414,0.17576297,1.31436872,0.32534146
954,0.02416644,-0.02383262,0.03434350,-1.47970986,0.39012489,1.29364717,0.93415946
955,-0.15475532,-0.45113611,-0.36292881,-2.02408671,0.12487067,1.24870098,0.35348517
956,-0.12296951,-0.16344097,-0.17962557,-1.74413979,0.27182829,1.31219161,0.56046635
957,-0.11226024,-0.63872349,-0.33210054,-2.11223221,0.13131312,1.14188480,0.49441087
958,-0.01481351,-0.01584331,-0.02538466,-1.53621733,0.37003028,1.31211972,0.80209142
959,-0.02303310,-0.15419735,-0.07683805,-1.66535735,0.34161159,1.29710400,0.76951581
960,-0.29005542,-0.18728858,-0.45613384,-1.90758836,0.08511935,1.34068501,0.07893324
961,-0.04881945,-0.52842247,-0.20273802,-2.01775742,0.23884197,1.19977450,0.64022046
962,-0.11521074,-0.40509909,-0.27057910,-1.96636903,0.18439862,1.22699797,0.49708843
963,-0.13833660,-0.43847218,-0.33755687,-2.01016712,0.12986854,1.21849716,0.37933958
964,0.00542402,-0.31559595,-0.07471014,-1.78967237,0.34677994,1.25237918,0.81909716
965,-0.05404606,-0.38392586,-0.17920664,-1.89060915,0.27966589,1.23480844,0.65494680
966,-0.03040726,-0.05039305,-0.04413711,-1.56090271,0.36018547,1.30366242,0.79218984
967,-0.02420044,-0.40039116,-0.11574479,-1.87672627,0.31212506,1.24938452,0.76802814
968,-0.16602151,-0.03409402,-0.18768388,-1.65424335,0.28116295,1.32986796,0.47949362
969,-0.08619429,-0.12744516,-0.12684652,-1.68393242,0.31723565,1.31113660,0.64490980
970,-0.02453431,-0.00987965,0.01906575,-1.48988736,0.39179513,1.31146860,0.87332100
971,-0.16810207,-0.35407716,-0.36376786,-1.95161736,0.13974111,1.25834405,0.35226268
972,-0.04151474,-0.47632784,-0.18156007,-1.96344435,0.25572631,1.20287883,0.68686342
973,0.19024527,0.12914044,0.22602880,-1.16926539,0.47338611,1.29133117,1.33765209
974,-0.15193427,-0.37521499,-0.28825021,-1.94368351,0.18054166,1.26548636,0.43937171
975,-0.08059819,-0.51285875,-0.23959321,-2.00814819,0.22509092,1.21502030,0.59577280
976,-0.00364204,-0.26536417,-0.07081722,-1.75089312,0.35765269,1.27977514,0.80979204
977,-0.09840581,-0.17423105,-0.18380865,-1.75805533,0.27665022,1.29531801,0.56167722
978,-0.12136634,-0.28959113,-0.23930243,-1.87423933,0.23328261,1.30003059,0.49439991
979,0.08195622,-0.12404726,0.04915370,-1.53242660,0.40639451,1.28542435,1.03367281
980,-0.00081694,-0.28460646,-0.07787905,-1.76516306,0.35153839,1.27183580,0.80892056
981,-0.13381132,-0.14915216,-0.19977450,-1.75938404,0.27508709,1.32129061,0.51223302
982,0.07814042,-0.33209091,0.00546899,-1.72327042,0.41092485,1.25264037,1.01660216
983,-0.03891701,-0.39006484,-0.15660521,-1.88052213,0.29303363,1.23973083,0.69244212
984,0.20085394,-0.33575055,0.19936563,-1.57089341,0.50268847,1.24325061,1.36490345
985,-0.02169581,-0.14349280,-0.07048672,-1.64373243,0.34926403,1.28764129,0.79042649
986,0.05577648,-0.08833173,0.03330590,-1.51130843,0.39843324,1.27819109,0.97928804
987,-0.07510865,-0.19076043,-0.13177681,-1.74547279,0.31254050,1.30083156,0.65827215
988,-0.07740234,-0.33264193,-0.19745138,-1.87089837,0.26723307,1.25256622,0.60453182
989,-0.10117519,-0.26150554,-0.22264576,-1.83388841,0.24022491,1.27859521,0.52078342
990,-0.10032301,-0.20686179,-0.17759115,-1.78287327,0.27872059,1.30972600,0.57832426
991,0.07273358,-0.39588487,-0.02020399,-1.81627953,0.36831614,1.24161243,0.97318619
992,0.03460909,-0.18430752,-0.02219514,-1.65695834,0.37396964,1.28529859,0.89950633
993,0.11792058,-0.31333882,0.07504264,-1.65675855,0.41597217,1.24849522,1.11326623
994,-0.21694358,-0.18749297,-0.34612715,-1.84592640,0.16941433,1.33074570,0.26822114
995,-0.26784772,-0.19752459,-0.40329522,-1.89227855,0.10001573,1.32687867,0.16288128
996,-0.30112934,0.26832092,-0.15616155,-1.41371679,0.29716066,1.33947682,0.37360585
997,-0.17547670,-0.25404170,-0.28743994,-1.86134613,0.19976997,1.29519904,0.38186336
998,-0.13245100,-0.04636859,-0.15396655,-1.64087486,0.30634066,1.32190216,0.55255777
999,-0.01465482,-0.63480985,-0.18086010,-2.05430388,0.25867444,1.16551030,0.73036510
1000,0.05087744,-0.55841762,-0.06394372,-1.92869210,0.34472361,1.15911365,0.89810520
1001,-0.02688293,-0.03688115,-0.04154367,-1.54911244,0.36619231,1.29480016,0.79387468
1002,-0.24240839,0.08295646,-0.21059576,-1.56660604,0.25705221,1.34887028,0.37033170
1003,-0.19363546,-0.10870743,-0.22528070,-1.73737264,0.24908590,1.34118426,0.43332195
1004,-0.14425614,-0.19385588,-0.25137931,-1.79608333,0.22057649,1.29302299,0.44874537
1005,0.00355054,-0.15083665,-0.03894677,-1.62819135,0.36762795,1.28256106,0.86677456
1006,0.08708441,-0.03426970,0.05756862,-1.43740666,0.40409851,1.27585661,1.03711581
1007,-0.13854705,-0.02050555,-0.16131577,-1.62439382,0.29526183,1.32862520,0.52595943
1008,-0.08907555,-0.50867081,-0.23521972,-2.00794411,0.22446702,1.22087193,0.59300178
1009,-0.07107204,-0.36455509,-0.19704056,-1.89916170,0.27357632,1.26078153,0.61112154
1010,0.06149450,-0.58896220,-0.05456249,-1.95927393,0.35742679,1.17954206,0.94131523
1011,0.13350818,-0.23385943,0.09351724,-1.58524311,0.43433136,1.24707019,1.15012002
1012,-0.16962454,-0.04890765,-0.19709897,-1.66710329,0.27555424,1.33022606,0.46845514
1013,0.05696033,-0.08706869,0.03627465,-1.50044572,0.40067676,1.27093637,0.98736411
1014,-0.09042788,-0.52235091,-0.24495196,-2.02351999,0.20440732,1.21294582,0.56042194
1015,-0.33143181,0.22134012,-0.20231342,-1.47578800,0.26375648,1.33759391,0.29247987
1016,-0.01684567,-0.47780666,-0.14783132,-1.93092048,0.29111394,1.21384180,0.73552614
1017,-0.13919804,-0.20515741,-0.21662784,-1.81287658,0.25945988,1.30223763,0.48279470
1018,-0.20067266,-0.26780689,-0.32338458,-1.88360250,0.17200534,1.30958450,0.33599496
1019,-0.12142439,-0.15054415,-0.18858340,-1.74325740,0.28153381,1.30723441,0.54301763
1020,0.04666848,0.13652761,0.07217662,-1.30157578,0.38623998,1.30410314,0.98844761
1021,-0.18535012,-0.20318872,-0.29861486,-1.82685506,0.19169705,1.29225862,0.35488778
1022,0.11372423,-0.11573406,0.10636862,-1.47860575,0.43783364,1.27249110,1.14734697
1023,-0.17239356,-0.16404407,-0.25685543,-1.79841936,0.22288249,1.31658018,0.40318292
1024,-0.13219373,-0.34499615,-0.28568661,-1.92171967,0.18884723,1.26922774,0.45420116
1025,0.05659160,-0.19440950,0.00740809,-1.62469232,0.38715023,1.27594721,0.95001298
1026,0.08724242,-0.09581706,0.07046121,-1.50915635,0.42000064,1.28245473,1.03804326
1027,0.04083398,-0.26766402,-0.04506678,-1.71653950,0.36971530,1.26392591,0.87784880
1028,0.04344396,-0.02042597,0.02244703,-1.47868574,0.38825479,1.29503310,0.94762486
1029,0.08924010,-0.29265979,0.04373560,-1.66086447,0.41578332,1.24576926,1.06064093
1030,0.13903764,-0.36759475,0.07969100,-1.69496202,0.43793309,1.22513807,1.15201652
1031,-0.00327355,-0.34654158,-0.08746377,-1.81134951,0.33999845,1.24766397,0.81737560
1032,-0.08861923,-0.34963965,-0.20751551,-1.90226102,0.25397953,1.27941954,0.57277447
1033,0.01607674,-0.42063898,-0.09344146,-1.86985219,0.32838923,1.22978699,0.83105367
1034,-0.25464272,0.10772283,-0.23249185,-1.54876244,0.23727880,1.32681084,0.31132632
1035,-0.12267783,-0.02942735,-0.14479622,-1.62987936,0.30180892,1.33154690,0.57135701
1036,-0.09052154,-0.62390459,-0.31447282,-2.11607528,0.14186357,1.18357146,0.48636919
1037,-0.12262240,-0.48288137,-0.31894347,-2.01867414,0.16843002,1.19897211,0.47636020
1038,-0.07480386,-0.38425827,-0.17742652,-1.89953804,0.26167336,1.24467146,0.63201451
1039,0.01508263,-0.01547596,0.02314190,-1.49440682,0.39770222,1.30396223,0.89670759
1040,0.06685337,-0.11994280,0.03817810,-1.53325951,0.39709088,1.26788807,1.01544988
1041,-0.17062242,0.20924234,-0.07679204,-1.40169430,0.34535864,1.32957804,0.58936584
1042,0.07049298,-0.34614241,-0.00781800,-1.75273573,0.38244948,1.24692905,0.95544928
1043,-0.10653120,-0.34384862,-0.23951048,-1.89961374,0.23350282,1.27218807,0.52539343
1044,-0.13458675,-0.18955842,-0.21601191,-1.78360605,0.25771013,1.30595875,0.50386715
1045,-0.38586044,-0.14175642,-0.49570155,-1.95244777,0.00978223,1.40260243,-0.06409179
1046,-0.28151196,-0.41401654,-0.51079684,-2.11680722,0.03376611,1.30615973,0.10714999
1047,-0.06621826,-0.39054814,-0.19644973,-1.93162429,0.28473088,1.27146554,0.63242155
1048,-0.22995441,-0.34173083,-0.41092151,-1.96208107,0.08489855,1.26625943,0.22600676
1049,0.03321025,-0.16104862,-0.00838961,-1.61025727,0.38223919,1.28404713,0.92669362
1050,-0.12879813,-0.33033532,-0.24350765,-1.89160883,0.22300231,1.27485478,0.49319571
1051,-0.00057016,0.18982734,0.06254843,-1.28022444,0.40178367,1.31840050,0.92247641
1052,-0.23977807,-0.04101202,-0.27425027,-1.70667338,0.21856417,1.34151745,0.31327933
1053,0.01492697,-0.21547486,-0.04218096,-1.67943323,0.36349922,1.27721620,0.87028211
1054,0.08613688,-0.41818768,-0.01148927,-1.80207288,0.38866106,1.23376441,1.00078821
1055,-0.28596377,0.35457468,-0.08847285,-1.29422700,0.33283669,1.35342932,0.45138222
1056,0.07905756,-0.35409206,0.00557262,-1.73900664,0.40123644,1.24094927,1.00906241
1057,-0.09273273,-0.07359640,-0.10423494,-1.62654722,0.31879660,1.31196225,0.64041322
1058,-0.03523590,-0.23932485,-0.11833408,-1.76418269,0.32283238,1.29016018,0.73269838
1059,-0.18568727,-0.32764408,-0.32239005,-1.91873276,0.15424998,1.26501536,0.36395103
1060,-0.19136475,-0.27190271,-0.34725073,-1.89864206,0.14427799,1.28715789,0.30137950
1061,0.09535301,-0.50987190,-0.00647318,-1.85796583,0.39380088,1.20282364,1.03643405
1062,-0.13028449,-0.23703164,-0.24218562,-1.83271062,0.24380581,1.29238081,0.48230296
1063,-0.08468162,-0.64352709,-0.27117848,-2.10671234,0.18893245,1.15018260,0.58343387
1064,0.01416352,-0.50935924,-0.11180516,-1.94574153,0.32275882,1.21649575,0.81306547
1065,-0.16628817,-0.49240679,-0.39535093,-2.04563856,0.09983262,1.21921432,0.35089445
1066,-0.12229237,-0.26142016,-0.23965877,-1.84983921,0.23280407,1.30419457,0.49036121
1067,-0.10610512,-0.33161688,-0.21843731,-1.89246726,0.24017124,1.26855087,0.55212784
1068,0.09030625,-0.18890834,0.05253973,-1.56885493,0.40942746,1.26057744,1.05862164
1069,-0.24310060,-0.25364473,-0.39465696,-1.91098034,0.10558033,1.30149233,0.20998491
1070,-0.21295512,-0.16674805,-0.30194426,-1.83176005,0.19405629,1.34095681,0.31437951
1071,-0.06335753,-0.54997736,-0.23721382,-2.03486371,0.22671618,1.21196139,0.60346866
1072,-0.04917587,-0.21767955,-0.12199674,-1.76077664,0.32140025,1.28806674,0.69101393
1073,-0.18557070,0.15901411,-0.11613988,-1.46253467,0.32305977,1.32771695,0.54347754
1074,-0.27623957,-0.17235467,-0.41469336,-1.89696276,0.10411711,1.33770204,0.14349276
1075,0.04193190,-0.25645095,-0.03342550,-1.71125972,0.36791316,1.27093649,0.89920366
1076,0.11753535,-0.41240594,0.03448245,-1.75559700,0.41476843,1.22143590,1.08272648
1077,0.11100531,-0.13633786,0.09360937,-1.49449170,0.43290582,1.25968087,1.13122630
1078,-0.04836278,-0.24447234,-0.12419068,-1.77034318,0.32149270,1.28928983,0.70717937
1079,-0.22738762,-0.13896120,-0.33469030,-1.79855740,0.16332263,1.32134998,0.25611311
1080,0.06577685,0.07951811,0.06587704,-1.34533370,0.40703151,1.29031169,1.00728405
1081,-0.14390232,-0.27248350,-0.25661308,-1.86619318,0.22232753,1.28605402,0.45528579
1082,-0.26013002,-0.13646598,-0.38537693,-1.84055626,0.13864700,1.33537972,0.18784235
1083,-0.20755401,0.03180484,-0.18919605,-1.59828544,0.27238876,1.33120453,0.42290848
1084,0.04102023,-0.32830644,-0.03527381,-1.76570427,0.37557951,1.25048506,0.90148687
1085,-0.30002084,0.21146289,-0.18497327,-1.44518220,0.27167255,1.33121395,0.31898248
1086,-0.15361497,0.18879050,-0.10822391,-1.41752934,0.32625189,1.36374784,0.56792009
1087,-0.19941337,-0.02839161,-0.22116244,-1.68979418,0.26311845,1.34009683,0.39725232
1088,-0.06249002,-0.13350806,-0.11566667,-1.67978776,0.31768304,1.32116079,0.69713968
1089,-0.08400346,-0.45517731,-0.22055957,-1.96079266,0.23966287,1.22733676,0.59284502
1090,-0.16656542,-0.39332432,-0.35077477,-1.96464169,0.13849349,1.23657441,0.36440271
1091,-0.17456375,-0.29482937,-0.30718136,-1.89890635,0.18155317,1.29510081,0.37055123
1092,-0.12561846,-0.33620602,-0.25855896,-1.90086424,0.22789328,1.25606668,0.48824602
1093,-0.12453753,-0.09502821,-0.16583750,-1.68457973,0.29323110,1.32088959,0.54923767
1094,-0.22485700,-0.04082842,-0.26380268,-1.70455897,0.22425605,1.33883202,0.32924831
1095,0.00558783,-0.12047501,-0.02000123,-1.60071003,0.37840673,1.28957427,0.85874087
1096,0.05191304,-0.26197228,-0.02587721,-1.69936848,0.37786520,1.26295340,0.92678040
1097,-0.33779332,0.22284487,-0.23159412,-1.44899702,0.23610298,1.34306753,0.23487197
1098,-0.30214885,0.04793649,-0.29983267,-1.64926159,0.20451869,1.34193766,0.22764592
1099,0.02160549,-0.16767170,-0.01074330,-1.62781775,0.36881086,1.28156030,0.91523331
1100,-0.21049161,0.00632732,-0.21395573,-1.63663876,0.26609930,1.33630860,0.41610891
1101,0.15360907,-0.10718575,0.12078646,-1.43663907,0.44058296,1.24609756,1.18725109
1102,-0.01109904,-0.42603913,-0.13121542,-1.90741813,0.30436376,1.23251557,0.77098817
1103,0.01397772,-0.28962705,-0.05434924,-1.74727249,0.36435696,1.25251842,0.86551279
1104,-0.08631833,-0.15560474,-0.14135388,-1.72366583,0.31383178,1.31210732,0.63483983
1105,-0.08483231,-0.21141717,-0.15967855,-1.77467310,0.28777909,1.30897343,0.61402017
1106,-0.15424266,-0.15101740,-0.23823279,-1.75783670,0.24361472,1.32346332,0.44053233
1107,-0.08396088,-0.22888245,-0.16714841,-1.78904307,0.27804339,1.28819788,0.61514306
1108,-0.15580995,-0.21736199,-0.24542692,-1.82561564,0.23289986,1.31276858,0.44514608
1109,-0.08699319,-0.31196001,-0.19312963,-1.85708857,0.26786840,1.27363229,0.59207398
1110,0.08613053,0.12344494,0.11472055,-1.29119909,0.42357773,1.29670703,1.05228269
1111,-0.22739738,0.04845414,-0.19677442,-1.60689080,0.26721346,1.32772064,0.39412826
1112,-0.02597970,0.06788531,-0.00654893,-1.44823086,0.38198295,1.31448996,0.82087630
1113,-0.03798927,-0.46585110,-0.17602485,-1.96102619,0.26342866,1.22187972,0.67315066
1114,-0.06812686,-0.51983225,-0.23444015,-2.01403856,0.21253794,1.19537246,0.60755348
1115,0.04157913,-0.45044994,-0.05646149,-1.86494029,0.35517520,1.22030056,0.89942700
1116,0.03536433,-0.13912271,-0.00962771,-1.60672581,0.38163823,1.28135145,0.90093178
1117,-0.15495259,-0.20341010,-0.27128267,-1.82851994,0.22360711,1.30739975,0.41217542
1118,-0.15817899,-0.29595095,-0.29634836,-1.88827360,0.18373288,1.27955782,0.40340537
1119,0.02421010,-0.40669826,-0.06350745,-1.84550345,0.35796407,1.22964466,0.86650097
1120,-0.15638542,-0.22655910,-0.24505141,-1.82620490,0.23437500,1.30786836,0.45254141
1121,-0.10337593,-0.34802625,-0.22318828,-1.89938068,0.23960321,1.25760615,0.54950166
1122,-0.29913515,0.22779423,-0.17094854,-1.46095824,0.29192781,1.32759464,0.36264551
1123,-0.17426327,-0.47187430,-0.37010875,-2.03130126,0.10679556,1.23225176,0.35743743
1124,-0.13883369,-0.34562084,-0.25212958,-1.90919769,0.21319397,1.26533782,0.48571581
1125,-0.09750894,-0.14454401,-0.15269223,-1.72584581,0.29887864,1.32088888,0.58823186
1126,-0.04361673,-0.40063044,-0.15097681,-1.90246367,0.29661235,1.24352610,0.69811171
1127,0.04959916,-0.24260722,-0.00799463,-1.67347109,0.38150391,1.27080846,0.94210225
1128,0.06832442,-0.02623891,0.06231578,-1.44467187,0.40978777,1.28773105,1.03338802
1129,-0.05162794,-0.07983848,-0.07052257,-1.60785925,0.33396623,1.30855739,0.74468517
1130,0.03937581,-0.42849642,-0.06282785,-1.84835100,0.36177054,1.22298145,0.89517391
1131,0.07721063,-0.07750316,0.08629175,-1.47993898,0.41320828,1.27973378,1.06771028
1132,0.10508558,-0.25412348,0.08501974,-1.61870122,0.42449465,1.25483024,1.10300815
1133,0.04186198,-0.29317886,-0.03824229,-1.73853469,0.36497459,1.26164687,0.90108341
1134,-0.21375537,-0.16830239,-0.31565425,-1.81872797,0.18311314,1.32463849,0.29399192
1135,-0.08269206,-0.14503287,-0.13732311,-1.69549119,0.29165709,1.31583560,0.60314900
1136,-0.01880507,-0.32534298,-0.11636520,-1.83986151,0.32052627,1.26816368,0.76073450
1137,-0.12091438,-0.47671342,-0.30113515,-2.00417876,0.16691619,1.21630645,0.46825290
1138,0.08037299,-0.02144159,0.11227725,-1.43484211,0.43911302,1.28731716,1.07138455
1139,-0.07845449,-0.09449548,-0.11270974,-1.64476287,0.32085967,1.30559528,0.67386132
1140,-0.23464456,-0.06971194,-0.30295706,-1.73910201,0.18981181,1.33320117,0.26624829
1141,0.05557947,-0.25480899,-0.00868469,-1.68842638,0.38632253,1.26474762,0.94135135
1142,0.05894119,-0.27713865,-0.00875659,-1.70350981,0.37987271,1.25707388,0.94711596
1143,0.06871213,-0.06610368,0.04470826,-1.48473692,0.40657642,1.28716695,1.01962829
1144,-0.23827952,-0.04953143,-0.29625925,-1.70080674,0.21972412,1.34075034,0.27919537
1145,-0.28727570,-0.23561008,-0.46288544,-1.92190397,0.05186243,1.30101740,0.08863814
1146,-0.16673273,-0.32052034,-0.28521517,-1.94911015,0.20177807,1.32725012,0.44355166
1147,-0.15150893,-0.19475359,-0.22387004,-1.81335557,0.24697737,1.30057228,0.47431308
1148,0.04418808,-0.16152577,0.00713570,-1.60051227,0.39053687,1.28209841,0.93331987
1149,-0.21944989,0.01763761,-0.18580672,-1.63289225,0.28995600,1.33978879,0.42721248
1150,-0.09793268,-0.11728795,-0.15356231,-1.69231093,0.30664855,1.30967414,0.60483569
1151,-0.03588583,-0.16191576,-0.06963903,-1.66038072,0.34392139,1.28965640,0.78401417
1152,-0.05830257,-0.08227281,-0.08964574,-1.62348402,0.32726163,1.31805623,0.67068452
1153,-0.27449208,-0.09378614,-0.36296606,-1.79173863,0.14494446,1.33486545,0.17107157
1154,-0.20230949,-0.17513052,-0.29636797,-1.80586684,0.19139750,1.30803037,0.35267299
1155,0.02306449,-0.25863135,-0.03293790,-1.70384717,0.37115571,1.26385939,0.89050299
1156,-0.30633694,0.10494499,-0.24717152,-1.57610166,0.24593027,1.34354603,0.30172634
1157,0.02151483,-0.22393593,-0.02800863,-1.68714273,0.36679459,1.27724540,0.88044804
1158,-0.15352166,0.07062341,-0.13404363,-1.54001963,0.30222493,1.32890618,0.55054146
1159,-0.04356810,-0.47489196,-0.16864032,-1.94835353,0.27832898,1.22052944,0.68659693
1160,0.03229485,-0.31860402,-0.05714779,-1.77137315,0.36433306,1.25687110,0.87702173
1161,0.04485610,-0.32769886,-0.02528653,-1.75498426,0.37942263,1.24793661,0.92867780
1162,-0.10750733,-0.32076120,-0.22629499,-1.88207233,0.24200995,1.28706610,0.53452241
1163,-0.28405896,0.13435844,-0.23028010,-1.56560886,0.26333860,1.36574006,0.33034229
1164,-0.14718224,-0.23943453,-0.24646920,-1.82573164,0.24038295,1.30341697,0.45065093
1165,-0.15673384,-0.26250482,-0.28593698,-1.87160516,0.20225175,1.30094552,0.41279769
1166,-0.17366338,-0.14731973,-0.24263251,-1.76722252,0.23764239,1.31882918,0.43026024
1167,0.00737390,0.00395565,0.02123671,-1.46492028,0.39103630,1.29568827,0.90908581
1168,-0.18287253,-0.21769375,-0.31426299,-1.84277809,0.17509536,1.30190742,0.34264952
1169,-0.38069603,0.32913160,-0.17042953,-1.39778280,0.30238602,1.37232172,0.30413896
1170,0.15366471,-0.35234639,0.12170614,-1.65441179,0.46871281,1.22349501,1.23948121
1171,-0.00771019,-0.11940153,-0.05114148,-1.61397636,0.35871717,1.29289234,0.82514369
1172,-0.24421768,-0.09067909,-0.31328189,-1.76170623,0.18621406,1.33681428,0.26504344
1173,-0.20896235,-0.08096772,-0.27179176,-1.73145878,0.21983489,1.32723153,0.33968246
1174,-0.04939109,-0.29686284,-0.13999400,-1.81144857,0.31337067,1.27505648,0.69144833
1175,0.17430907,-0.20245767,0.16517684,-1.48188674,0.46392003,1.23781681,1.28924513
1176,-0.14008740,-0.11948100,-0.21111190,-1.73232198,0.26942551,1.32801580,0.48510641
1177,0.01239119,0.27663243,0.09617516,-1.19844234,0.41651294,1.34235632,0.99611086
1178,0.02455746,-0.49800339,-0.08760204,-1.92731059,0.34013534,1.20642495,0.84766924
1179,-0.11341508,-0.03326743,-0.13112342,-1.61026490,0.31638697,1.32655823,0.59832609
1180,-0.01472144,-0.20567676,-0.07436516,-1.71673906,0.34772295,1.29364240,0.77371705
1181,-0.05644953,-0.44068024,-0.21285388,-1.95929396,0.24667348,1.22964776,0.61793977
1182,-0.21169321,-0.22351696,-0.32115793,-1.84991395,0.16980758,1.29932225,0.30998456
