stasshy/Variational-Autoencoder-/dataset.csv/dataset.csv
joint_1,joint_2,joint_3,joint_4,joint_5,joint_6,joint_7
0.053038306347178515,-0.207531870889109238,-0.047220353689391703,-1.736739621391810484,0.474720789446349323,1.253372810656731007,0.883472478710635722
-0.071048242685710472,-0.342550640183154120,-0.136769033258288236,-1.770516280780235485,0.407167816948468264,1.361435994176035669,0.583987233821061880
0.059984331393198816,-0.307133517827768432,-0.190818692120410915,-1.911439848829521893,-0.055355456567211636,1.282922420460986812,0.638640815905245574
-0.042765751008560358,-0.258638361239061587,-0.121604741593852733,-1.895719676661507869,0.205315961332063118,1.348725745382433505,0.777401195153844871
-0.008151235265117983,0.092145162536694858,-0.210036196454895380,-1.885631874620670612,0.304023018658806155,1.424310310765312781,0.785352277410727106
-0.084183440534753129,-0.382686070547947788,-0.352941958180263027,-1.723919919768061471,0.281889644355643232,1.080018379265258677,0.547752577836349230
0.156117435206641092,-0.106782470697220966,-0.030776206744212511,-1.894979549833014643,0.287826741681065701,1.162498822859017400,0.720587785936889436
-0.234643588577857498,0.062933251125917522,0.073793562621219499,-2.093747408768016793,0.140111279019148938,1.300828303882458847,0.775295613815235707
0.119671008168591081,-0.150520577916797405,-0.032081991115140721,-2.002464082276055990,0.240424092920766885,1.239925345965595671,0.726640658378731041
0.032014048356711469,-0.350251304057750457,-0.090109512807393849,-1.840324941535402825,0.174121394126664775,1.270360002088784857,0.792374004527052644
-0.216764440946485087,-0.383363756381325305,-0.344939589531946311,-1.893598501300796544,0.563168170998362250,1.351221511052450808,0.876695559413579129
-0.018098557473101663,-0.403985973523211694,-0.354218757074557522,-1.944995474852710959,0.350766794817924499,1.054528656439643663,1.003455246967412950
-0.058439486159747728,-0.280307226512456487,-0.098763300100191881,-1.886001437618201937,0.668233091116371192,1.407634425904249031,0.803356066841245053
0.081553413300144553,-0.284656995574369021,0.020532059801247560,-1.919035343299644314,0.207775851991203409,1.104367094439561381,0.722694918068459868
0.021645224203501047,-0.119377769974544606,-0.282854946381536076,-1.981648042251471509,0.366134973112112461,1.206839041242250721,0.890901913863924699
-0.096332562998322754,-0.338585790709942991,0.198092604528518762,-1.658579615305176391,0.281217112220723320,1.396657004960542237,0.538921961544615802
-0.189453358684879974,-0.616461776745798939,-0.375350358018788466,-1.943107178335271579,0.300214806624909736,1.595157268561646191,0.905753864590664093
-0.084377545387395891,-0.312181548407472753,0.090308245158262801,-1.694596300589070514,0.371443477877588746,1.078879944245092259,0.467048652311518153
-0.122409811269789712,-0.047035747621093443,-0.121305061023469829,-1.706058450540417493,0.173889875051250420,1.179266105856634717,0.841618438357714327
0.033312327459293148,-0.541235144108487498,-0.217301890675329068,-1.999970611619732219,0.395818941862660700,1.207680411918328867,1.142355656926062668
0.043231469880661760,-0.282782754459605101,-0.266895597296363418,-1.845641143175832610,0.110642074350681685,1.367799806888243763,0.799875440931162141
-0.042133134107475587,-0.280912318495848523,-0.253604356120447849,-1.738962334903584095,0.460896277595946757,1.558236200872792132,0.740064765981209960
-0.029237287794397927,-0.261205977866804995,-0.105352124933559138,-1.984875665573677894,0.331361874390637690,1.145254960799281463,0.903070675308397242
-0.016580591627563680,0.174180525203728787,-0.022316595244059240,-1.606470743156345860,0.343468148483491997,1.102691603572730106,0.671505971764909670
-0.129071079165176433,-0.277171548561903291,-0.301580709295494742,-1.963688339563784524,0.344070033701015798,1.262141681575455809,0.690673303558510976
-0.017916235278054471,-0.106976173984150880,-0.188968078092653979,-1.908258024708860967,0.157436208425106999,1.357079439435607382,0.577261620471342218
-0.003959669363327582,-0.412781350833268390,-0.186598776453756610,-1.867490371811034500,0.264526988082858794,1.357161979383743278,0.733962149978462097
-0.279488131257564831,-0.412633231357173891,-0.301081550821077792,-1.870622537734292878,0.459637044731338484,1.107105548064582390,0.926654767073764485
0.091051621633400873,-0.171827039338892706,-0.118286021090449514,-1.823817453822292878,0.356611660121179452,1.714882107201362471,0.790829417234651610
-0.038307056711688235,-0.266165176629106937,-0.071409520993911874,-1.950048468141910574,0.254013257935209458,1.256983456973672419,0.910215591903737353
-0.296286364287358106,-0.193618734413434163,-0.370884080162876550,-1.861617021141944939,0.181101858578794683,1.259341592008075272,1.032532990064239042
-0.403507678210669130,-0.507566050633281973,-0.295231265562323708,-1.939935737679365113,0.053556264240828322,1.378922265445960749,0.733094172144469147
-0.170828254150890618,-0.401057053168837885,-0.148284860986989453,-1.852990251723320547,0.200907234513643340,1.211857539718638188,0.616079272492488395
0.061161542530501309,-0.204239114192420773,-0.337120776649625697,-1.835057569448336645,-0.064044114404215202,1.232631481415650931,0.572415263763029758
-0.002199624903482099,-0.434228721457469435,-0.022535051152529822,-1.856010158452470638,0.290201570810400156,0.904420994675142920,0.601330870472296830
0.083802117196672465,-0.319471089884168391,-0.251253106559774231,-1.767878172548446036,0.078524842498650355,0.939621358664495809,0.867082252209854909
-0.192755615114093892,-0.458212407991893889,-0.003331734544850973,-1.652273334473685740,0.365731527264285761,1.421075197301219006,0.734863661041397109
-0.042406238714382760,-0.024995935967489447,-0.061799252828216994,-2.005472673592692434,0.097712769485716999,1.556275761714570161,1.006765924893826991
0.010050336525999785,-0.361195996925520235,0.018887770111028324,-1.898323590386743698,0.014202864328760167,1.273321435654467759,0.861052015885049982
0.095965120743290305,-0.154605240969220070,-0.275624323171297814,-1.981152798287348693,0.193372597122980300,1.283795456648233246,0.925546135849463214
-0.124721206582815020,-0.204468005694045663,-0.291019515266040085,-1.714533086470185319,0.386383467741068853,1.240002657176568324,0.742237386702848334
0.334262418860024835,-0.074679547651378075,-0.186997854812793907,-1.829020383521833937,0.316234927306793312,1.274102495937545099,0.774901377348454656
0.009746003443659886,-0.487887827178428102,0.206641855744193220,-1.707410006668426128,0.200390760549209512,1.172230390958869384,0.755573739990453297
0.045501157364909256,-0.219454418356326814,-0.246121295976469145,-1.840019641240999260,0.375014978939144539,1.300271306191414844,0.798102656458732129
-0.125842590800465476,-0.192348468802059580,-0.107736800602634020,-1.637188674449732595,0.599136513850268781,1.478419623226506996,0.516121115029279487
0.038660338179052831,-0.228947977303710415,-0.219987920638354373,-2.163390566226703005,0.438391659728532779,1.282018025644500625,0.890365253095466103
-0.009900885093656258,-0.098960672070466660,-0.268851127708908955,-1.856024276825739339,0.534001351806430935,1.182083698032138086,0.595442948356736834
-0.223573545750189895,-0.551835822270105636,-0.315116427003943322,-1.818540123273432840,0.202053251177260751,1.335158590093754372,0.410805165826430507
-0.063290948730560209,-0.209176110024034689,0.129943466090272158,-1.805762806389085817,0.415041638447927241,1.426328667246636206,0.674519980936756691
0.087321998152952426,-0.337798875396817133,-0.165760854693301818,-1.711129735728138979,0.493612178734991303,1.276187137080001976,0.588410531820418581
-0.029490353272754156,-0.268915224598625491,-0.116452502199477184,-1.784683724116797210,0.505445257006104098,1.389315801343962598,0.717811314313181681
0.063631947253780241,-0.464474339324591978,-0.188031990072456273,-1.533144545178592111,0.356356641713699629,1.290337268092105916,0.764643424365566982
0.099365379046690946,-0.175470739125112296,-0.101949918826846370,-1.799931484209813526,0.248819343533263876,1.277053744341944297,0.736255246452888756
-0.011353949331044347,-0.456440445423301422,0.028288690328424709,-1.921615849460121872,0.167404498784391870,1.523973000082698315,0.829250631778639780
0.283101683826831207,-0.071608471975041971,-0.192569681491973677,-1.733476539691242824,0.495661177968905520,1.210025890961487827,0.652937475143674395
0.151022029385879386,0.114891163426259435,0.034015704548553849,-1.741626165955204364,0.676901648799666855,1.251252931258044709,0.660804802568607963
-0.210751130716548524,-0.321387850678086617,0.202606093283610622,-1.497800571300962336,0.147849966228631086,1.267468469933040298,0.930329588699880361
-0.188798968116949795,-0.402628695619686172,-0.218835442117137791,-1.769560851683008584,0.502400617706845964,1.342308281104180878,0.539557339367191413
-0.148603043457745804,-0.328606024732593871,-0.240299887542950702,-1.951892233651640884,0.312270233587402857,1.190720071009434555,0.832502898612063835
-0.172087532416353994,-0.476192084651523850,0.072482231243444689,-1.955548958615634048,0.357629583207046298,1.407552366726042781,0.661378679712794071
0.047114266878568713,-0.232050748158302872,-0.114228760220182995,-1.935923635546324517,0.452085448298474413,1.427477664571179083,0.543823483977175060
-0.009945719285751414,-0.126662406954258427,-0.200351430890125137,-1.589396935593104798,0.452653397534502733,1.145850330886362567,0.628301728863310482
0.025271493194887244,-0.149001491950780329,-0.264778872128586362,-1.983589466678027602,0.260346771251471765,1.081151055351114110,0.503771028482555949
-0.414498564717771412,-0.109820736304888061,-0.301846413501126509,-1.783997973663478120,0.187131801232718220,1.582499604138958293,0.674605148742314142
-0.349071105089072520,-0.074839959103932568,-0.338322637938178294,-1.750181259468589712,0.183814491795612933,1.168787352472932417,0.753850380819990562
-0.085312549915076474,-0.138807792321991474,-0.024241471130793418,-1.894172341040017749,0.223826430874750987,1.452515322256310082,0.744353561208997316
0.071822276973955407,-0.312956511789607539,-0.134463905201834738,-1.806443377809886064,0.029367158216506761,1.519811258291585254,0.695302095495001771
-0.184336138396750643,-0.223199774989578131,-0.110097233903271779,-1.853784771883770333,0.242238723417696589,1.345546561859424672,0.810140358690220608
-0.111308371258415278,-0.111866873552198431,-0.159171313300928069,-1.863280140970711374,0.312736071378251157,1.222487128912272070,0.554229469162524579
0.113910480533209707,-0.047931032803262552,-0.236333353166123084,-1.771282475337534246,0.259691127141817690,1.181480341192170824,0.732469305293009909
0.007133225657583467,-0.360084619072976952,-0.092321349841088585,-1.661303831117111995,0.109654289979271929,1.376840902938390565,0.517288084903149259
0.110900331132515365,-0.421425628377287198,-0.366317316994326125,-1.494826136549586959,0.298200782494292660,1.463873925075959370,0.767808214981358539
-0.075839431928039755,-0.161650057369068678,-0.346992742170087687,-1.671558985040106027,0.220587568797928180,1.278785616415131443,0.783639155283348599
-0.206393430628510482,-0.241137050401137087,-0.364263803576943823,-1.810672495815220495,0.300200431779142962,1.376541750491264260,0.953893065007701324
0.190153822979926168,-0.221036721006854009,-0.107964824138638199,-1.764605791179164163,0.429653570828062048,1.440115172477072214,0.764087058997952151
0.053587813955006940,-0.249443149043078627,-0.285834004721746471,-1.847348224514529624,0.097986145504377814,1.220392232496504858,0.280028032931076643
-0.186253450708735835,-0.204186759798549444,-0.253053317015384138,-1.655748038243164411,0.372841255279099448,1.593939585917100832,0.728705550125140489
0.093174647522952098,-0.304190079199305297,0.081239303492048776,-1.847116413845226068,0.263333537816217156,1.369108901291971048,0.510962026745753084
-0.245230489291380943,-0.199005343729800388,-0.064876225072359683,-1.672709376696995376,0.275977754080776239,1.090076266184416776,0.620871104591220413
0.083420099918114499,-0.196482231902447096,-0.446169725970703368,-1.797099575277747219,0.210690324557629427,1.523315769248276164,0.932332750542475663
0.013240518837614609,-0.285493883502936474,0.148465890284785434,-1.658092074011653816,0.206695241809509378,1.282330815327830553,0.523678735671201934
-0.061898100119367708,-0.211684177870895857,-0.039888345128986327,-1.943026639905606645,0.339151815751149444,1.162736445714717348,0.863056896033749466
0.071186651295584380,-0.330820301292775010,-0.133153909623133559,-1.810405880152644809,0.369274982357548465,1.127449769777817856,0.638199282772359600
-0.016337156549609884,-0.086298870811510081,-0.287441768823270549,-1.903166696703766370,0.345826993017832152,1.602421034485906226,0.865507581330900555
-0.187362120029927415,-0.090582812383708244,-0.218593256326964663,-1.792029572840937002,-0.005653174474381184,1.208404500406903725,0.691705760372382406
-0.036432308804914812,-0.377566742110868825,-0.216666753350279018,-1.600503433891140581,0.339025633049232222,1.417795464983968134,0.633902109702057626
-0.088978277743265055,-0.145750843989944312,-0.366800591745971794,-1.571382718501021625,0.132870082070485757,1.481838819068458601,0.735495278816414966
-0.190214376117224110,-0.431891211484802251,-0.464772180607351759,-1.896101694718153041,0.361273491374834999,1.204410230083803990,0.531106756737596220
-0.078753222348203672,-0.183868752483078740,-0.031295238607085774,-1.766975291385232794,0.378405612284027193,1.387479156004702396,0.527735955925175082
0.027480882504542448,-0.165431585967513395,-0.039522897755457240,-1.626903653894163027,0.340775640398441881,1.293491242499934968,0.903144470141450495
0.160562248553173997,-0.316236062028826759,-0.240913483402843770,-1.538850486611516688,0.186140500898408862,1.181905660220007759,0.633890288711785876
0.217446005646627666,-0.073405745781167514,0.022670497960017466,-1.362891669354898916,0.423508548079657987,1.338810198976119192,0.663402535133587157
-0.133772950283211622,-0.004070309825641633,0.157966102928049440,-1.848292196059734049,0.436067945852061878,1.396123119554071534,0.952385305405517690
0.035920806156267859,-0.153600903136697331,-0.415977383476043239,-1.778123414227373855,0.215964862422243276,1.200664657427946480,0.735522206424933933
-0.146411963204709117,-0.093428448266370007,-0.200137254986199692,-1.432973613686723713,0.287617992267954259,1.257511141635493157,0.787716271221196807
-0.145305123413950688,-0.250308696964250510,-0.254728078230248622,-1.864090240325301906,0.210714067458821153,1.224755953954434373,0.716913898347202538
-0.143085647759289780,-0.185478934831913078,-0.059990880344357136,-1.995693189828371183,0.606275371021688825,1.330584194565858525,0.468482388826337415
0.116765345522450048,-0.231176974533468832,-0.296543579197919183,-1.910612562081239973,0.327707656990052387,1.431921821005339490,0.374502998314866498
0.133520434861117254,-0.309542871438232448,-0.131396903203202770,-1.655988984364899830,0.168964349903271749,1.171863681334626373,0.750247962198596241
-0.073060379095315736,-0.152628176332664428,0.149416869249176881,-1.647608796814095555,0.288127494183339605,1.208344952556042351,0.606119244418941494
-0.215543908567296050,-0.205968409869269370,-0.238828930441800813,-2.230360207076325540,0.425299103033828618,1.171240062152164585,0.578304214626141899
-0.111765016772905776,-0.450746285101917943,-0.288074479323277510,-1.808779679810092134,0.056927239319024048,1.409115898950785706,0.745587600328536548
0.078583507502244465,-0.157160597038905281,-0.251247148233504247,-1.914786745893507280,0.236716905030722846,1.435990476759181789,0.504945607697872445
-0.148557792495772112,-0.405200855686933370,-0.145524145889688206,-1.740726658035901764,0.256194531623630539,1.116389792888532906,0.509458748184357324
-0.304674091594319296,-0.060014157025971376,-0.371674264405886856,-1.883287988847264005,0.420078336969323951,1.264229039324617165,0.783117831339493642
-0.039775867816803277,-0.355427573117722384,-0.285893339480899400,-1.823762006765746069,0.249209446473830143,1.166376401398333540,0.687927032273247474
-0.044810614095037442,-0.340122535000221382,-0.193160793107424206,-1.742987863819706273,-0.020350689421301138,1.092009084038121136,0.612177114837159531
0.015119009659300076,0.068570997256162669,-0.250159142286831004,-1.865535832346318923,0.660725739844116200,1.543076799766862406,0.745660137390283362
-0.080106717008750078,-0.234635155171500048,-0.293159252350004285,-1.583649848402699734,0.479710898926457630,1.375395245930899790,0.675572636747428068
-0.015144420887244939,-0.521494483417607180,-0.664603803005265226,-1.878996041856342281,0.219000723247447127,1.116517548737483434,0.710315691538095373
0.031529207845748572,0.119419143134905648,-0.157840330862710237,-1.643850667333818460,0.443214476192171691,1.048376666632172327,0.707708460591706223
-0.220533752289866630,-0.494354925517769217,-0.102436903821878728,-1.555207088325269549,0.272722006703033037,1.429501590056573068,0.657252047278509277
0.300278896461540656,-0.171485229670066242,-0.202268477849417955,-1.583879616805268897,0.194971847576274004,1.304859865669331098,0.775086796940146039
-0.081779256758219801,0.050032958858743176,-0.194454940811429416,-1.824888816719055562,0.168491608162596007,1.181891352653054561,0.878786789242618438
0.002314696522607448,-0.319213082163828710,-0.126630120740358620,-2.180627134215427532,0.166205329196698448,1.263900905391041052,0.836789159156936968
-0.065492661944571942,-0.310633892587174165,-0.124468897070522874,-1.617175299542934930,0.243770796889687308,1.437124333944672427,0.650294828647692835
-0.058225561508018775,-0.237776069414242397,0.138818947340544924,-1.635988578771124580,0.164091217053552035,1.290388426413042744,0.656063133939058352
-0.236634982566954283,-0.345434358138618891,0.024632504121146037,-1.810581801144894643,0.357093149429146217,1.487644253548578988,0.570883390472640251
0.124882459945688640,-0.346833559671304026,-0.025006547722162653,-1.875172465065465310,0.231001335412733155,1.109092424956720890,0.882739854838574534
-0.270625329792119895,-0.183528692249470854,-0.102286683948575069,-1.593169595996353882,0.386454082606307869,1.510786122052197644,0.793107891983587554
-0.044866913000140861,-0.337996574803774819,-0.154019901972098555,-1.627913393551206678,0.257083469759000816,1.240525972237582542,0.701165680831313476
-0.104344924454094601,-0.186682844286576360,0.011724121765397610,-1.726296428655197834,0.307649238921801738,1.143825012639657857,1.070695156307131413
0.139324349553122895,-0.325391711574437248,-0.198387292991722974,-1.635348945563341427,0.151290628887665840,1.487345981109309712,0.846665327834850268
0.059061901955700449,-0.242019047023853073,-0.022887149856573807,-1.703943715239390588,0.263855784397677540,1.412532072670867223,0.785629126944064948
0.002292255880293616,-0.165052817393982171,-0.176065392348339872,-1.713408658738338142,0.420712781849382378,1.085369563600315335,0.844997021994647435
-0.003973346098517093,-0.289697560756687622,-0.203532668271032641,-1.813992302505413434,0.294208336281720551,1.057374323910713620,0.699203634883923675
-0.095104518830102444,-0.362581377994060206,-0.077455307234347001,-1.936340282943625812,0.153842465507348647,1.170490973324405104,0.612969999246757102
0.078680311795355284,-0.603860906238591566,-0.176633131547090316,-1.520480855316328483,0.525610735242733274,1.253172778682318578,0.781058056918827459
-0.134165836242787606,-0.237684123894163657,-0.226516944734400261,-1.998502372678098604,0.249751357572799815,1.282749409853004563,0.504949052488505634
0.112820100350180197,-0.317895106514153647,-0.094926202844238847,-1.785776154259553161,0.535557119538786930,1.466239576199270589,0.627434839860820603
0.007515709505025628,-0.320045447096835745,-0.049228168555471644,-1.609560778726742081,0.438473745104894341,1.210621545789553721,0.746726870904496964
-0.038861582585754943,-0.051909553462323454,-0.287490163537746535,-1.694460564740984942,0.183569973031192130,1.114887445670280641,0.515721905490202470
-0.092590527602707279,-0.238117648157453621,0.031202265871673546,-1.700701902217863992,0.433145728290355136,1.230116073620863393,0.760407534199078916
0.080985027475820287,-0.239882995581486402,-0.488445997824221601,-1.702387843239312470,0.485162493104793924,1.353666475810858527,0.675163953060461397
0.045678917630523362,-0.187099841338524864,-0.198932733607578488,-1.163736949616228644,0.386878944656843582,1.334004895786230049,0.773432297350222453
0.158669844559021334,-0.225972496812760798,-0.222944520811514224,-1.647907757608236379,0.373245186691219699,1.236899725249855697,0.651676817774340056
-0.194955033070640604,-0.125355543994609409,-0.108956747236717819,-1.957569664126816322,0.177550967121209824,1.185886848343800315,0.745777193369748459
-0.127259316240982939,-0.072761014080495845,-0.097416572468206092,-1.732424699621726516,0.344113184137160411,1.210583989272708827,0.768487985572005483
-0.070172448300634890,-0.481882538740357469,-0.074836295954182355,-1.487147562250147548,0.157151670583585118,1.167491230387100565,0.508353319360647093
-0.192502937198740010,-0.175408596164268571,-0.070578494871657307,-1.794663843232002787,0.228163018885630509,1.235996884156140840,0.578666902013076800
-0.053028688541908800,-0.000585051998184760,-0.262680408454284642,-1.706338703500912546,0.736792198010813193,1.079971244113394624,0.641143905580903950
0.096759590227064679,-0.133397846557375355,-0.065558823538165764,-1.517223738215326190,0.186740608608235825,1.266095344039718684,0.529163755712124928
-0.339633635090905328,-0.550766478678082594,-0.148969340203585598,-1.640941938236967657,0.066491564057353764,0.891530987566175770,0.490721098289926605
-0.341583857223816567,-0.255124850196514930,-0.378095768568686708,-1.648076978209987109,0.064637133251705697,1.163446435172262650,0.583134663246307805
-0.008444210470538456,-0.010249119749383306,-0.085417630857718738,-1.976152998073098077,0.013641822613868315,1.244580489185878935,0.614630815165583266
-0.130574759628984821,-0.176252164173764631,-0.494974891011522145,-1.647923031632721358,0.379441128228142466,1.407191774103639714,0.740422670862948662
-0.047690339862467582,-0.330263029160730470,-0.207596656856340794,-1.408595670433657521,0.272047679947012233,1.082390387383630692,0.629443991398563107
-0.195561719351670937,-0.184791526751219848,-0.145288545273271619,-1.375342675336109988,0.372737734784302888,1.321466381828811043,0.821521414217424861
-0.103850858535910529,-0.111177501388035629,-0.178127168904297251,-1.842803810073869508,0.340936237808390274,1.646395597918937082,0.638797530120850721
0.149782644073387122,-0.117605636599400182,-0.192743820686000600,-1.705490226469541071,-0.071920208018081577,1.213331408040830395,0.534265304073371805
-0.064031576010887784,-0.277677983519259097,0.241848892860627440,-1.679279535435883597,0.442104747457781999,1.412143583117412060,0.691992585602351773
-0.088847102982618165,-0.121379020154902303,-0.183565565537386510,-1.919528448476458315,0.187213867331259387,1.168903325373019886,0.470746041754499078
-0.138390247293374041,-0.431557248619319433,-0.228728177428798030,-1.926280309983143368,0.579440988077977837,1.453333864206213910,0.817838909760314925
-0.070565301027091784,0.099197603000041379,-0.102132911124889827,-1.627895443048151591,0.105701877263589511,1.197227210462648239,0.615478440980206543
-0.160962279962678423,-0.031991002635262639,-0.234665006023168976,-1.722941585854427249,0.327821457486953183,1.285276419207106446,0.874704936827308099
-0.377042810486077684,-0.241392598872222697,-0.205761656108464586,-1.761416188765858371,0.279508468722558190,1.297810587604252275,0.627475351303190321
-0.072232035632512445,-0.205724570324631040,-0.278925707076818075,-1.670801844760877675,0.180616243229137469,1.307642241634531244,0.939035830129684501
0.037610095746569844,-0.190589093600332771,0.022479642163100860,-1.698499409998321941,0.122236706436165327,1.461657396201884396,0.750686544562608415
0.096907509105910658,-0.244511083314179950,-0.521622369039366540,-1.765372679803981493,0.200856698428258540,1.392987372053276829,0.715370781947510137
-0.200876960114717590,-0.250499526896661551,-0.352696595396982726,-1.896240629997669069,0.478981433408715129,1.299683355071423518,0.397206952947978031
-0.139298488635233531,-0.126238892810457193,-0.161616614253596219,-1.687328534813477665,0.379102490791512481,1.239689109570373482,0.795381414994921432
0.036062288501029507,-0.241935555563362437,-0.216877727310641061,-1.580609684708266904,0.153209035467461646,1.383671083987204620,0.471390005547111302
-0.036191336499254961,-0.136338749094864958,-0.223327832559684525,-1.722823296114970315,0.249946804460416422,0.993801710437903996,0.736621949291025979
-0.047733040566343879,-0.157691324619966683,-0.127268147557506761,-1.812674033384533256,0.340627664271430319,1.203226317998087991,0.678786583553987910
-0.155021279387361932,-0.270856683228854589,0.152970494764014392,-1.826967020316170753,0.359214391528562327,1.148872100191952184,0.587946344757305894
0.084296930169562911,-0.428600439701882996,-0.160825490794971659,-2.079673866289669881,0.265648084142620866,1.049043972006348024,0.472045576694504310
0.137246593552126178,-0.451317618845990864,-0.041146578836769573,-1.813456022392011091,0.388829590493563637,1.291528236480485869,0.549992813170106176
-0.044402082450450964,-0.163565158668824540,-0.370991547019023815,-1.747316223207886265,0.359454592491922242,1.395940584132196571,0.649761683944724555
-0.005324595955352653,-0.239128845389157213,-0.229881465937833096,-1.563051938408701158,0.280878864671673278,1.226722810722005619,0.845677722398350928
-0.006746792804016744,0.045326476552934203,-0.306878838605951998,-1.471785307831320555,0.222160657753768365,1.432132097684675864,0.473888398912647946
0.037928381747955695,-0.003085322079053154,-0.161990483735633600,-1.798235059626106080,0.296254679850529834,1.354774301299616734,0.576391075939309050
0.013922867074371334,-0.517477816591619177,-0.222769495441236531,-1.840259080353747967,0.132370088569171040,1.262003100788950949,0.695213885549239685
-0.030213085276507123,0.036341098063635335,-0.054569188219994347,-1.644666558293652825,0.149206644376679992,1.215140790170842200,0.864097674636527091
-0.340798033884260887,0.008215943420265104,-0.168190847705841168,-1.579316535614477379,0.241584972293359346,1.320319140477433262,0.501958422102568913
0.101964298081631322,-0.195633700440573433,-0.072826147422360862,-1.692365388720915131,0.334562916652923426,1.502161606719455422,0.413091850996092969
-0.097922304167431973,0.010527266230827531,-0.285000724631750135,-1.543677638154227205,0.281132510781662959,1.269862469862515608,0.971243144325829144
0.049810148679376338,-0.194546016830883572,0.175912995800345501,-1.631921449935600510,0.310748073523774482,1.223938981440252594,0.334286616442317941
0.101275115533466006,-0.283202960460260722,0.108085802036510276,-1.647644751250174844,0.484174352182405121,1.217692723287346457,0.708373693478376198
-0.027922627689326462,0.138568526703599343,-0.154485986678925741,-1.967890510985207619,0.236038020909940194,1.372404897493762821,0.512479501348500843
-0.018314504099562381,0.014757986390521088,0.106073158823246250,-1.940965403987004123,0.427029587953693168,1.039367769280963305,0.757603748511999742
-0.147266741064597945,0.020497210524165810,-0.280531956118636905,-1.568186353272043698,0.418315922392687278,1.371833596724419069,0.545123026445576087
0.109469201511555161,-0.029600711952310205,-0.343007700917225766,-2.016733226704931159,0.139596244852340151,1.168094847985581275,0.725109469681971985
0.069327861203103913,-0.158008660047680355,-0.076884207424335757,-1.845384399471440728,0.369312199274337560,1.535441116060346722,0.927323509657772105
-0.223538414936343605,-0.217044129794141200,-0.129153255126394223,-1.931549789080107438,0.214195600994305624,1.317316182071812669,0.672505654005761011
-0.077213345146641382,-0.359082479818774059,0.116556011652943409,-1.795611379897372517,0.310040523629611930,1.453623789381178311,0.856698142252600436
0.015736574547289266,-0.107258386597511135,-0.223642126178249523,-1.565474838872304986,0.168447339544267494,1.141553089405470844,0.510295379977171781
0.000713191189729942,0.104055155970073671,-0.176858905122031729,-1.598103140926937060,0.126906236444343984,1.259001606728303413,0.444997717490136391
0.187509179621102196,0.053948297669900169,0.083387363604497500,-1.837736370253978402,0.367555678288883692,1.323768468228467610,0.593741498368612897
0.077135495787612751,0.196418637370637472,-0.333797459424993170,-1.869529167152602200,0.319016883267951468,1.321285810298404861,0.551720756291032233
-0.081682422149868456,-0.170098917618584533,-0.071916169765167057,-1.710269545607702169,0.298582808155602952,1.425040941820811646,0.533445821862038594
0.026802903887106849,-0.035467118526540192,-0.111694501503316446,-1.626608650434126169,0.107712936695798345,1.316337355986216373,0.599030024790889737
-0.281721199833907698,-0.259032349038219201,-0.159656060891903206,-1.794233675225553437,0.162127882662221334,1.438515322606483515,0.744246313376170421
-0.004960695166670345,-0.280300755033762283,-0.350012299199529586,-2.247399409083120858,0.225215946739800305,1.284404747667331037,0.662696006726630316
-0.100029132751218358,-0.140191251111422333,-0.286685899299008062,-1.368615387747586176,0.375045655913312737,1.256184841522947071,0.717536151758430329
-0.148702249446388601,-0.165474465924578790,-0.118118592566244324,-1.796155304739829983,0.451940384164528086,1.216919467620271700,0.411061959636708218
-0.138566607883432280,-0.157531238857657713,-0.318974536035237066,-1.973713022342961976,0.187455464170296515,1.277490345957229767,0.613274028222074996
-0.042903403142877411,-0.209687929599636724,-0.216941621501212878,-1.754802328303006087,0.328881737356516102,1.280437918314055068,0.605605971449041824
0.020852093215965831,-0.422132354459710868,-0.136312372142438520,-1.812349828172104438,0.165364095113308934,1.464733863261564517,0.721192056471799736
0.074932555959337219,-0.139854326581099253,-0.247118614866917663,-1.537842214963302645,0.361104569561395361,1.190059281487732434,0.561423234367054103
-0.241541578708656501,-0.159670565056789615,-0.292580790977612470,-1.992982131921252176,0.399013044481172807,1.325028154320879059,0.351031993546060184
-0.077780668108691733,-0.124506409436748469,-0.143470567243000391,-1.753961868901145804,0.431554593684470966,1.305834581691089680,0.363388624963982887
-0.322358159269872935,-0.268914762304908961,-0.210915910902339354,-1.618590845586526106,0.382658187864460597,1.224282042814148097,0.671630868083271215
-0.019428117924791058,-0.248250790842995395,0.012259312353160412,-1.558115322652870116,0.174418390437520859,1.336026180590736967,0.866233799785408931
-0.080096730014012824,-0.101170714297714182,-0.250517554016942923,-1.869196671340656479,-0.085093141849161558,1.130161455379704361,0.466856863019844803
-0.092963061911042699,-0.288466954432108347,-0.253527386039991920,-1.696171819568764505,0.191012809215958645,1.186263970892647013,0.753630364511477246
-0.197263045326512981,-0.280636064103938265,-0.275392944158096398,-1.667351720841757645,0.256135574202114413,1.002773174954560753,0.809054851594257274
-0.063744890619856193,-0.355735676825559621,-0.266698472417743304,-1.518219007459317815,0.107779946936833654,1.297040922665848139,0.658455341398029637
-0.069471418805761659,-0.109647546532134876,-0.105470100421836938,-1.588444584887198197,0.749849057252114704,1.097853675691796926,0.700425359903476430
-0.045147518653218546,0.152593612052323024,-0.242334245416307076,-1.834411612649511358,0.371012930065812985,1.356267846061097737,0.423111797341783280
-0.012638969984821287,-0.188617852311137535,-0.033160418391215640,-1.960973164154631077,0.484827420020777833,1.505430510148133116,0.905635339360927882
-0.019899609247539390,-0.189276417023771959,0.061207472713257799,-1.751674002154933962,0.576572889953571477,1.403191945711539379,0.618618505392673712
-0.119387805385768153,-0.096266666359546282,-0.157101687653198818,-2.046564195570974576,0.163757016361125024,1.244096169804855601,0.589235504995508141
0.068633460968314769,-0.059917731868719251,-0.015767172625738929,-1.606932742009589354,0.440316866865589629,1.292480379316278016,0.789797172090815902
0.124924311095026677,-0.239083035680352662,-0.223103792661214051,-1.760612574973589251,0.187761326852649790,1.403906211109269941,0.596367021997930791
-0.172507035258386288,-0.342470525077240295,-0.332077397039464484,-1.796131710063940901,0.513659473317712445,1.486138999872228528,0.437827947263581541
0.149687516655144570,-0.205261244026234080,-0.325804702806176127,-1.708506262166551881,0.421418396839792209,1.163354971920907310,0.730852634515877564
0.011820883635108984,-0.100980369826182692,-0.151077586130869940,-1.790746380147400396,-0.031784363159586160,1.543363141825774942,0.590859960106070559
-0.000789170390769187,-0.178687042406381391,-0.185135648993984825,-1.873636877872098649,0.361466423684008775,1.454252073434232129,0.742974829644247436
-0.062632774664392626,-0.347128953393180950,-0.461230571735665784,-1.946143489727452547,0.276118922369357922,1.350411723832944944,0.626016701695846334
0.203683449731767413,-0.299776522918852983,0.005662661797164542,-1.747187526996841100,0.305271943227321207,1.336090119216543748,0.354993687439714378
0.179488818012447815,-0.193725071499591089,-0.034015960178878119,-1.590598626140453220,0.029712871409997954,1.234253749329951910,0.866418829893068954
0.191063202378027264,-0.047442864977991370,-0.223247451369086830,-1.644756352547106060,0.436889511033753286,1.116251781277947774,0.794069875314421636
-0.032571683976671456,-0.389071593010017258,-0.016640991760145024,-1.705924207091326972,0.325143023413464849,1.270183331740119659,0.905582039891041579
-0.212886717947845638,-0.187653031596022174,-0.011139430971937980,-1.713805138265922068,0.288714127425215517,1.579099382441639499,0.506233709667446297
-0.288599271311223815,0.012197105891693538,0.089142416366508159,-1.817408705248669598,0.225185263884862041,1.259341258737980862,0.504248667671835848
-0.027312389009812137,-0.059618931506067827,-0.320785744489666014,-1.622117311113561611,0.617427349486996735,1.385413409216483371,0.581382576257616579
-0.407596630399078896,-0.013937878888553995,-0.089575624728990777,-1.718589009207009521,0.343618526510981515,1.189087352734407244,0.564461534922196528
-0.108319914615170126,-0.372879077024229511,-0.198993856091376514,-1.835033682824400048,0.218022709731359510,1.168300607160871252,0.476788315307195010
0.100536174773865880,-0.149569611955177956,-0.082352009144891256,-1.596396994904765609,0.349756756873347341,1.253838415408920826,0.461365642252083541
-0.195748532242065176,0.030533043882794625,-0.242047316216301822,-1.708961715232133693,0.670984471592076970,1.576293773138742527,0.614634311243127840
-0.173600195155356241,-0.000487808262500888,-0.356759653482553341,-1.652102279518899985,0.295821811018830150,1.640767678910604710,0.514948971412957368
-0.208472075604054174,-0.179687997766335317,-0.334745681145910912,-1.598335700586544839,0.279356855287502703,1.486895113238142718,0.680588671297526981
-0.056926278903394356,0.102022588080567522,-0.115226976910964174,-1.556263158668482749,0.145625429954109015,1.053892313638758127,0.768314102444366487
0.025722976161171404,-0.152286595933047136,0.048123684420983276,-1.635806982624162575,0.192706922742929887,1.351779647695133812,0.651111565488133981
0.111505252816496245,-0.247567578485845902,0.000531701524956046,-1.698262185153033732,0.364730312916751398,1.454522182406425168,0.627294347581853429
-0.084163013480685805,-0.316930058459369612,0.131779043858540140,-1.622930217495075267,0.455133940867333109,1.338014277685649400,0.442715285433677108
-0.194549110036203232,0.062681447679020272,-0.056494439780510552,-1.920821967429504618,0.252532315131993035,1.385965631214769456,0.588987757339675788
0.014293341211082694,-0.257479712769145164,-0.446400966408115552,-1.743492380312704260,0.320320544634156934,1.084649122623013495,0.440328588024912149
-0.090221527553958222,-0.076296305455889252,-0.061235653252516897,-1.808208694773348668,0.340052130111970108,1.230214870800962146,0.722827945936761473
0.101351613310848104,-0.004520037097342652,-0.011452451729183188,-1.753004381604495121,0.360520673843035544,1.212379007986111645,0.775617540881563650
0.047525162796177078,0.050924690359293812,0.030133033586420860,-1.667067003045071827,0.398768954993805824,1.083442542739877723,0.769609821705584340
-0.282122745196853097,-0.166367696898558126,-0.022625995713963093,-1.570291709477659614,0.267652036014506212,1.446023950271931868,0.745473945208906641
-0.238965681297810317,-0.152809978223176657,-0.132928511855843201,-1.508878686522452606,0.282678920079507845,1.464077057915106561,0.668062928551595214
0.065220196616814108,0.115909349197436951,-0.041011274036597406,-1.734893534461520836,0.439839756507401924,1.367026332081104023,0.602684861066321020
-0.270720684449428484,-0.060908345040143565,-0.433595188376413199,-1.759718452471341621,0.413643821861696070,1.395113769475860188,0.376325873890357654
-0.100411340337801844,-0.371355109915499193,-0.078556674584397981,-1.937977908953167905,0.414068830061851911,1.061506135531584460,0.668809555892607377
-0.090204368248869543,-0.172350804566025334,0.078235488007599135,-1.656237788452916693,0.401047867665506652,1.386308414551221668,0.666934474295225677
-0.254374094527893668,-0.220723817063537997,-0.428934676959319749,-1.892669097507468923,0.354719712372393303,1.328912528529614390,0.566531472239131251
-0.132550483316104972,-0.234413532470130526,-0.184537502941857612,-1.806935340983306215,0.234722378693565992,1.201482027101292704,0.526565514029566195
0.197851852493325819,-0.210670696528618584,-0.312618086590605915,-1.762172573474486414,0.310277902908311309,1.219566192629639945,0.520410144675903741
-0.021500776821838534,-0.012602095345265574,-0.023724868831284329,-1.737351511074211707,0.265166646945366347,1.577804032078188090,0.462768540654680760
0.075202643505690156,0.118655963489715716,-0.166021132849301284,-1.647018404440300010,0.511402362190428894,1.500462525211128106,0.707276844669085247
0.024324653249319261,0.018932248904077215,0.100875482607287820,-1.751278972824213520,0.299498359989320784,1.396668610310584757,0.600870594098137256
-0.087429589511185096,-0.002744389103264286,-0.356236003285382297,-1.642913012502570380,-0.030670917723069624,1.124584230760668380,0.934659290518051078
-0.457861397353658051,-0.029468785824846078,-0.322552903856922202,-1.745278492014015193,0.315208595379862733,1.170318251697815004,0.665739280167091718
-0.281117771075289402,0.052121396339846887,-0.332663056495561715,-1.446742250558139098,0.399657658467957866,1.552322421199083369,0.866564837594182014
-0.046916881729591034,0.158920927232056364,-0.318155886472095473,-1.641993334592898757,0.267997783808680834,1.323324054192525745,0.731179265682039059
0.072206544770065037,-0.228532632325211205,-0.184416948408814479,-1.736037270780773190,0.427558851474135471,1.142522424531118297,0.685582702032651148
-0.202043304469029072,-0.198345460440072674,-0.233276400147059609,-1.513523622294064452,0.319466937181953181,1.490817606768819914,0.675353398399768601
-0.259227558561163418,-0.255440021592427624,0.144152914320828468,-1.724234510073272997,0.328041901127955171,1.172869209568549120,0.601916333031488504
-0.299637613691043247,0.027834114747781982,-0.012156308648927611,-1.492625777672394793,0.306104724811827655,1.280089541019495902,0.792763782000686090
-0.047108832452620687,0.036812538897694994,-0.264937124911178656,-1.771500179074385617,0.524616440063446765,1.410324361346566358,0.560402254372686759
-0.279760472407274308,-0.144286708950311204,-0.314549412729633437,-1.531867060089663335,0.453173364738195361,1.385099661470450050,0.425676603750434146
-0.241221359715705491,0.022520214232994371,-0.043734961981482440,-1.650274138365159349,0.403203294441922933,1.219867310739342070,0.538421071679795471
-0.085288473531384162,-0.083144207311288881,-0.015089570063753083,-2.001306449563498457,0.638783137327657125,1.519848074272263982,0.611155001001062903
-0.090949360941035826,0.028894401095581293,0.046577150780491877,-1.802739132247068055,0.391244808262831645,1.458013131871328305,0.627435664241804858
0.075401334356875516,-0.150075110596382677,-0.189505022060263761,-1.720565419582626099,0.027168627948736312,1.200973880156743112,0.586139022892357642
-0.199804231592092318,-0.214852913549035657,-0.130987246472494046,-1.546541685401588095,0.352467518947967184,1.231714272111534836,0.476288919324089455
-0.140863646461170777,-0.137787126928441001,-0.322522119163291654,-1.474677638303061755,0.125595957343349746,1.522861286612739562,0.586734345744627128
0.077387860702340383,-0.072848540083830488,-0.182767326940827479,-1.861774781129757361,0.238618950104534933,1.115196471590271576,0.747651445319884589
-0.171212218988567311,-0.091523492971928841,-0.349499304593227089,-1.594597253203444254,0.138604027088309240,1.207163936984754438,0.419724106792861984
-0.159328237556417340,-0.162809757660183851,-0.113019438436841591,-1.678666201021877136,0.197750039051712456,1.358063190595560021,0.746912994514297712
-0.392851328095337293,-0.155906981873575545,-0.072107532990787385,-1.724098901675960915,0.410552229075055675,1.361947790472039177,0.940276436724207132
0.069063061735160636,-0.109829957661682742,-0.259689779169577251,-1.533847781435986324,0.471535219345514345,1.377647150182290225,0.375881620074642320
-0.524203595536399725,-0.163486638786612959,-0.175566989357901215,-1.799829245213125262,0.276541677081472148,1.351698070825260833,0.765509142330245584
-0.008940811200326665,0.084285363316964942,0.019253868060525425,-1.814071318856609105,0.360238155505360480,1.671970150470392547,0.850707929688175102
-0.374802925693188183,-0.065787005893198011,-0.236602929614585511,-1.504788171281596254,0.277171911612360378,1.277997114789727995,0.816121500007283784
-0.042554894454893473,0.006405127035020053,-0.030739565659354845,-1.566081836506162395,0.508884430465789128,1.122416643060963892,0.763159233048796182
0.031166551583022062,-0.054056806573016841,-0.231329851171816508,-1.784235792962923117,0.368569719111634053,1.487546090978946189,0.907363200052491825
-0.187306228115995094,-0.347900736818357204,-0.149414092113452496,-1.621703017427398530,0.247111068985911814,1.451977685307018540,0.717367727536637467
0.040123844680318405,-0.061690071703429550,0.124493793561375493,-1.667093717237652317,0.634148160632802105,1.485509936648029328,0.866843409958946154
0.055647762324932126,-0.179641750037760922,-0.243887512768179215,-1.598956590556160462,0.210659139291249187,1.343873271965413618,0.543625979195037412
-0.246700147795141184,-0.052394471187351452,0.022998930558810665,-1.552040883471041299,0.373159118815382551,1.182519902537211953,0.572599907491192828
-0.383533803467685230,-0.057824074593684785,-0.203212710206240432,-1.634142751627517098,0.417921031216919925,1.329545637642942868,0.710393364047256837
-0.063824817059203551,0.063444066479101391,-0.135731031283606585,-1.771771774891286233,0.551187406463440110,1.447527305885092819,0.346895329849543466
0.049619555435083229,-0.302064242692111518,-0.233425563731740449,-1.734682815818402002,0.072258248391330909,1.488570526359684010,0.727472273019533433
-0.057930803695836648,-0.144031574384807681,-0.251229759915159057,-1.786901328487724427,0.256761742733141674,1.334851042115616337,0.557408535502357028
-0.262655956965763715,-0.074107445025960395,-0.233524630947518852,-1.528405669451684545,0.659796311080097175,1.103480148168124009,0.591258045679593391
-0.248490304559247033,-0.157392890268608421,-0.147962392715466962,-1.697776904281603105,0.475172414494674955,1.481306877661785482,0.591686036538928040
-0.003047842799239572,-0.133382780979246135,0.051289872276456122,-1.357253756689675184,0.429976155826855222,1.296683996299185848,0.616132858577111198
-0.166772388311770881,-0.181789399171544130,-0.076861399562581229,-1.443726203709046807,0.258897296942518784,1.416217536609416294,0.774475849617623502
-0.206155324106008175,0.153805447288883901,-0.220081359608561539,-1.705980042897771165,0.384007559336980719,1.150293470979365740,0.752250236865556032
-0.076445611509255135,-0.171433751946235446,-0.160678299047443102,-1.354640399096066927,0.200178737612401070,1.419798865748283401,0.418131593699114013
-0.194318850187402081,-0.101631769352822518,-0.177105910688865997,-1.493886367996144493,0.320980090629158887,1.464289571545419832,0.626733716502754001
-0.295666548156745146,-0.223747128965902153,-0.181362678416652823,-1.770627539457982680,-0.067845944854205420,1.148479584995653946,0.626134559307465977
-0.159926406642367513,-0.004827594488912637,-0.241197802864514477,-1.601809175151923670,0.314721987082487054,1.015549197640709167,0.534161428253597470
-0.416058399255022637,-0.097086562806815185,-0.202763002065359438,-1.845063803203812913,0.235518055962711137,0.983251310428372660,0.733591503989813098
-0.166130019879195234,0.060370649201724524,-0.174131758393505032,-1.751951201204499764,0.367866932671198743,1.470228421286530418,0.471137729491024504
-0.122199792962686918,-0.076759140028256054,-0.162493913387448924,-1.481353287316566902,0.263093566860315320,1.482340963289300539,0.667378998960258873
-0.191710172078323582,-0.276761295981331923,-0.431200731527783931,-1.681519116807396630,0.160723986339160962,1.643342480157350405,0.690202676313496077
-0.187575349180646056,-0.176075605331775104,-0.065931052146412497,-1.520318974078598728,0.440692305673426432,1.200911122984535062,0.698871813372895390
-0.225064508823223264,0.130386077715450577,-0.325427216340653802,-1.579925798601998777,0.658674203209569376,1.418212291124319790,0.636500181473988458
-0.228372535411426103,-0.007499833153878262,-0.165577026432233904,-1.387266480369907962,0.562134687393706312,1.558894516243608752,0.696912375408552554
-0.416395181016813942,-0.005637418656630026,-0.269433537891959229,-1.770593438350958948,0.345820022494102874,1.234861121768739078,0.484074604705975076
-0.115590787659125074,-0.168751000781860006,-0.027174654257946768,-1.447042566871910463,0.272220894314872230,1.293089528607588967,0.580901807881448962
-0.099578466299109075,0.229380324180926354,-0.244391889163668441,-1.833900083898145184,0.312644814044354735,1.490949771999900531,0.543296929544290319
-0.090929417608949667,0.214279298284480946,-0.173898386809225119,-1.893825738919744595,0.369371307968494267,1.429828985964274768,0.361168181668517718
-0.350569339752031639,-0.097179154801564083,-0.137957786488888345,-1.750347801614740240,0.231120284284241528,1.183201610046995089,0.628563287957643602
-0.134351727162476231,-0.175080022255791889,-0.109942400834760104,-1.315498184696765271,0.110078065074043357,1.384808867658289477,0.578663918621213802
-0.141364523317938778,-0.024311253171375835,-0.567889570764141371,-1.709035469678502617,0.320783346245984702,1.171291344572841897,0.589304573506778340
-0.163352781896626054,-0.053731677890576819,-0.134239066163395759,-1.504860795201359069,0.316422524212377487,1.328389268453681771,0.554261938584494351
0.055528608088088557,-0.139542867401798720,-0.114412327088158489,-1.634165843735870371,0.413836047654413342,0.943089570157657375,0.610027965665099536
-0.216479089559610982,0.178305298011201374,-0.142791747382587236,-2.041479705351775031,0.541522442603606713,1.198329790471895695,0.890963699077293558
-0.242749907977190066,-0.088443985318040264,-0.275128868459585174,-1.533004141222824579,0.035145592480374466,1.403081654248118593,0.743817256326375409
-0.112078224782751562,0.101838626317879821,-0.044264562510383687,-1.655768760646177507,0.284626998330108127,1.225739027171600659,0.546640105431373424
-0.131079941631518343,-0.056198014119297854,-0.121354806922830960,-1.548848740289762160,0.382958450627847946,1.384789600119837871,0.571433800936200775
-0.055362953234709918,-0.129313277593805398,-0.027371158621252223,-1.740655899600951573,0.584029491650948973,1.280386810405707898,0.366976578127196418
-0.070053384526219814,-0.038319610380354821,-0.316338065061754325,-1.665783835630555210,0.383278218376637225,1.051624576615653339,0.872436973100453095
-0.375778088649439179,-0.346030473689637519,-0.456298137103213208,-1.661620693410841287,0.487807654020121384,1.344152131873937117,0.479376306698640897
0.059218053297550102,-0.187364518143298603,-0.005079007374056727,-1.548665449877476785,0.319264909906287420,1.455554867672201436,0.515473191586392154
-0.089192523051166719,-0.214446883254399728,-0.172569627014111465,-1.476963573572736887,0.161857561354974866,1.535834184377316891,0.775701086563922670
-0.047441531260271473,-0.057899639594582206,-0.466543281961557255,-1.597204235887259127,0.176703663314041970,1.232774838138146922,0.655789847694901451
-0.238688443109652537,-0.120368004541055923,-0.173872634255016423,-1.478540851221718411,0.207779808884993311,1.377432566434169781,0.483621267523358600
0.100776050613067214,0.210596686309857950,-0.050094232097232697,-1.667815992960116178,0.193146897147340652,1.280586582501205051,0.728180981309542896
-0.223892047366915120,-0.018698434171657615,-0.030054443949760756,-1.548427255991176921,0.225824424703978510,1.290448465147351120,0.778185368397072308
-0.284856104521301445,-0.353849767486941469,-0.002430922687712750,-1.594718051265024084,0.467849566971190178,1.258433270086533273,0.609522071282438405
-0.323241270392768398,-0.296640207803204936,-0.545479081828112000,-1.360832325213104488,0.279400608639560788,1.300924103721155189,0.594746226507471332
-0.193980360560502663,0.060908381670974218,-0.059917338170673795,-1.646569170014588579,0.321853893635957899,1.278497411393495931,0.647466657294575421
0.050283047959913799,0.111314716708113576,0.103827468740945367,-1.670306458051828757,0.501051954212294648,1.244625105857972702,0.725906464292259024
0.002027633104447896,-0.275423161729561605,-0.203111571370835520,-1.558959690955941113,0.491173037346677943,1.472339348539851045,0.565370971480563478
0.071937304395377169,0.009655972835140560,-0.071976529210139112,-1.463390887803659446,0.185150365256008254,1.380600335193503891,0.544017960019999802
-0.063561591134693438,0.146809200029044629,-0.059202175807966953,-1.607117251148490356,0.252005614222742091,1.195940764795983435,0.803448260850257556
0.214719331480640208,-0.063929131186488408,-0.230509752371460652,-1.515289171624982112,0.178499694432782879,1.292247375830508638,0.629461163888838993
-0.074599359341236848,-0.131651377687160509,-0.098353794970005085,-1.254463756563549470,0.265442529885077327,1.447351135656026688,0.446872802463124164
-0.220478987865168452,-0.129714544196833398,-0.211488411279505739,-1.503014947380707067,0.447271510964109664,1.286378022974300261,0.554146559661376048
0.047335424272256010,-0.160021153060531413,0.092553142806153649,-1.679957820699857773,0.388882808274299774,1.244188762912669555,0.457431213715278839
-0.367099404266126361,0.065936387936094493,-0.343487085812736070,-1.931801058496421808,0.308305422083678782,1.488937869786675972,0.491536021529430878
-0.200979854102306815,-0.023296364508319595,-0.084689512956668198,-1.566552385014635007,0.485090149977170260,1.470558397210095292,0.748574806081804045
-0.260244578753610734,-0.010344204444745909,-0.200142305056661446,-1.694193203734599917,0.462761164433499794,0.904717853804541505,0.476635283399842291
-0.040958804849545366,-0.057118943409972603,-0.109073128641319364,-1.783522235965279590,0.237809761335372516,1.351059713715443866,0.697851877731408443
-0.195187538430575236,-0.171347133824773540,-0.425578354507587298,-1.531470847416116721,0.111294732792500711,1.470282000339485862,0.621802563403882291
0.024145923789820042,-0.066690528275475391,0.081157358874426960,-1.680498908141165204,0.283344172996572330,1.140971876848413391,0.618775587847006703
-0.180868911282169698,0.038775263241234821,-0.242756887400013277,-1.374859971355941957,0.299397855088078035,1.502540307583791312,0.505833208349031449
-0.102574839876467705,-0.486958467228576219,-0.233595936440057939,-1.540848813305700338,0.202184295860961316,1.250871268279857729,0.519350281914372935
0.151780595962298759,-0.239378693465659931,0.066912959672404348,-1.549064696247593353,0.583808298743508258,1.434579057180116912,0.812989136384192901
0.119107125938521255,-0.061487764238564141,-0.100505953523676028,-1.697364752751605366,0.252438935202052794,1.116121726312917062,0.682384396885802214
0.018193085608672541,-0.262654800169844493,-0.261584082538486806,-1.665810893422145167,0.458534568357942818,1.528442140885089007,0.354746565580542628
-0.413864926716906889,0.077450228478386896,-0.157509968733124284,-1.614361064483408326,0.480995876352628249,1.329751089752090554,0.523521348275032161
-0.368624159270157237,0.041151483849046586,-0.001529048583799791,-1.560969101958724847,0.425834343087738654,1.207457993351343184,0.381877960254050741
-0.068023729645015088,-0.045556666498132586,-0.144719281797603461,-1.588666659243585855,0.169769439638111724,1.318243228549559998,0.804612506398474148
0.146040618605671191,-0.081462400559711018,-0.069958390604643872,-1.381447885656845287,0.404261288389325846,1.364636570962608264,0.781846458867244243
0.088289453035390181,0.091534767988005236,0.158008077980610395,-1.430613899664702204,0.333250022562421977,1.351911959394751728,0.489884160333546759
0.055322242070427741,-0.170946613433288541,-0.209147165064768825,-1.670474159380699541,0.221188165362202482,1.216809979875190129,0.389555981882962143
-0.177654849866153042,-0.217775445086567515,-0.062101465075148660,-1.550010094985401876,0.101929261842098218,1.320249653585811700,0.508498426964662631
0.017066432791472172,-0.123298682600177567,0.194536472114185288,-1.673690961069240535,0.186134528971651420,1.300772222012587687,0.454479193142790561
0.104829256366576445,0.182563493777620711,-0.121336952940480580,-1.661203984367439324,0.478200790496935813,1.366172267657407735,0.863525251560156470
-0.232002111787410481,-0.041428553002093214,-0.293264614838000204,-1.889481139801556964,0.453017117368238131,1.154941808215253829,0.507200057063325938
-0.149279263507258564,-0.141096734986932149,-0.404064128471489870,-1.459206704974015611,0.325880843158921241,1.415704547458846996,0.310354902583477088
0.180674392476366907,0.086915382744051917,-0.171970734720472307,-1.597297260026117716,0.371357027852756372,1.327975012175351743,0.386824772324959376
-0.206735777125165887,0.040002466341334322,-0.348581352898144736,-1.301668658849456151,0.442273322908094069,1.116375950825545305,0.519622319397852084
0.075949005058506436,0.111218718303939729,-0.159559638995001529,-1.674343795657597722,0.208723666777189287,1.268987348844054841,0.612714530282768233
0.028323913434960754,-0.030138182205943310,-0.055385768457252099,-1.414020408257130823,0.486048185895967877,1.324614036258807248,0.568260752949898529
-0.145045869957248358,0.139815292470411662,0.125927730420119843,-1.731775830178959641,0.610191834976948400,1.455460970297418388,0.561069501833521778
0.302834650786097281,-0.141980441359943782,-0.075036452256292366,-1.415050295920490475,0.561830224012238810,1.401950927933464319,0.627166538901270498
-0.091991656926084714,-0.116661128915701864,-0.248026199894456956,-1.543546828957082617,0.085431400632898197,1.407323136918904316,0.555269062716812312
-0.066262971513943725,-0.140390739570799034,0.007476142285199661,-1.555658973939151757,0.295264448803498392,1.199461142170331840,0.464573387872275756
-0.149318344373606693,0.129492542190634663,0.052174042425646522,-1.275669949205392895,0.416635280204065539,1.319245446833316571,0.722756607695651865
0.108757147478195995,0.007344297470154651,-0.290666252331210295,-1.713620397768282677,0.168129214912524527,1.280249398887247203,0.803148596002287496
-0.337570580233044204,-0.035933340555296324,-0.156498673612776557,-1.705038567715247977,0.434467027300734610,1.287815898557960637,0.600528288076214056
-0.163477218925307699,-0.186005729115490320,-0.285511453879696564,-1.644283067940436549,-0.022796831742186330,1.381328572028226453,0.730307351755630885
-0.138486519862164342,-0.056422915405195437,0.028248163605810617,-1.785716913804263672,0.412645370189855254,1.400163487198022416,0.261916826564643379
-0.102004509884248140,0.200141241910531315,0.012566315347039586,-1.202806151359633313,0.182830515896204027,1.430432545640734965,0.542170224240185572
-0.046016655644837715,0.021129934519984808,-0.222432809716676755,-1.516587623122733097,0.402660794052786764,1.590636995784578511,0.685846548010589085
-0.044987579594762406,0.262626461081942819,-0.227959067652983988,-1.568147979541111958,0.487077492662804479,1.352247938900853264,0.574602987634964979
-0.053059218427384952,-0.317270472753294286,-0.174375710838244685,-1.562361931062421272,0.361345255997662484,1.411661803543310167,0.654216847783666067
-0.258349810887696152,-0.003078325743133900,-0.230766710318807022,-1.506244694768316128,0.117079833987347059,1.369558313263167459,0.748394523792457855
-0.301579000625654847,-0.174860514832771125,-0.139525170314645730,-1.498121365925580539,0.340124180530232856,1.214203074679918171,0.548872954545388092
-0.129140928578156594,-0.178837857287108604,-0.171569495841026792,-1.501874299396279255,0.148708212533243844,1.340368677779180340,0.544775568301399171
-0.541186191848316178,-0.100811232020372732,0.103385916403289729,-1.694752015077409801,0.566173810477600847,1.321622822722071877,0.463036250097215552
-0.261126317101615268,-0.079570033005657265,-0.177348713090445420,-1.508673427001665290,0.330265558471986131,1.214499632657542350,0.717602250446439105
-0.089563682725508645,0.030952389584848236,-0.002118507205023823,-1.874450453420807072,0.337177811604745026,1.305529167544364322,0.503697269681854465
-0.397879488675093596,0.214345901392181126,-0.073162841131909143,-1.845883747985066270,0.168961679708259926,1.237323787187357471,0.348282713119740350
-0.125133328246274406,-0.022343339752037103,-0.194640674621378018,-1.741157942710166218,0.320151983651936978,1.183098631731129169,0.544497340763055448
-0.229402253609730572,0.024314329664632407,-0.344038512118256035,-1.630249603141356252,0.390498549749674906,1.371398755576037853,0.540392920037620406
-0.472020497766649449,-0.110335743976800196,0.095444406355650435,-1.794949657255425546,0.244316417949112435,1.124523783913944364,0.781340767526146007
-0.094336570194049882,-0.031687396662972503,-0.227886799867065060,-1.662963215906174019,0.262042307771481631,1.518228850004526453,0.540299513931327802
-0.475978054719007559,-0.239197094464605853,-0.050821957541184917,-1.568893947652640009,0.291911745834251946,1.311384045242116381,0.577467764639463033
-0.172580578244460825,-0.062259631202784022,-0.361615118446454942,-1.582861564785989383,0.039176500573959272,1.221305381008363167,0.625313580206816932
-0.224160040759321666,0.086842251715851360,-0.181519213067663082,-1.618996385835394625,0.321454788662233537,1.399125521567872843,0.333181569145805656
-0.184415330613996453,-0.226298223757828737,-0.288200326985910693,-1.686043446574996940,0.406805666182859349,1.421335487748981219,0.785473371490405969
-0.093796021529093332,-0.135231147887380776,-0.030263686252010896,-1.649299703593929411,0.169187751541696019,1.336306800264194239,0.862777198095246112
-0.213738868240973823,-0.106841136997370412,-0.395480005914053634,-1.909128212697376314,0.182395090563379519,1.311330599888841819,0.267198956510925734
-0.288851363181543142,0.107395578967048461,-0.026746755966234020,-1.468483495790181559,0.545041209942422222,1.646890645966063271,0.823882780096184542
-0.110284356489507296,-0.081507668542041029,0.028294156262135384,-1.946680725252157851,0.353651709394211256,1.578397000691942331,0.573298288189258654
-0.102767108325227535,-0.094497545006351366,-0.317363144133288477,-1.900968775494454199,0.131826392334840725,1.373314754696654649,0.729164895858837259
-0.119892728332057691,0.069377169699272628,-0.092621806610960145,-1.705990330681236511,0.325431736064854260,1.382617531691344048,0.371618667551885440
-0.151425066785151663,0.110359166152366794,-0.162672751928374854,-1.812296233048908745,0.475930190827332567,1.502956014435432808,0.590491755935609319
-0.182670790992843002,-0.071171659042489011,-0.445889240371863893,-1.644090253446521377,0.422580189273074336,1.295625294526281390,0.623749220178994701
-0.282515599995330158,-0.211540154904129279,0.046607279571344418,-1.489097800657369408,0.077049202928585248,1.346472176725066916,0.815160880188636194
-0.228215883020602861,-0.152061559331747698,0.032798790829007246,-1.514552985253367678,0.484191664200353089,1.496075266059608611,0.777075303980956700
-0.308175738289189760,0.034950279163092693,-0.084775822374612383,-1.903754086317414274,0.287581740039507205,1.014508684971286989,0.789890244674238073
0.008746069550820718,0.233384861335758004,-0.170764464741104210,-1.634260176919612340,0.296812081596418087,1.590520340095653129,0.505209893128145349
0.133844045209201290,-0.069968675422192497,-0.227133617895456080,-1.899067401709722436,0.160664848821885087,1.583096789567552287,0.743915095958688211
-0.303846069800362772,-0.167730079099078000,0.175102572347907964,-1.344829979030194744,0.170864522183764883,1.618451701201489179,0.542768521071675836
-0.029453812458842141,-0.081067496652351329,-0.189498468777989842,-1.812044389375433440,0.389773452120776520,1.341870235323691318,0.720069824602135533
0.072508912756044291,-0.118094556074133966,-0.060428647204216104,-1.683001803620014503,0.364489060196849790,1.186376191825104787,0.236734823008129036
0.031471544035265753,-0.151417300425832790,-0.527715777197746982,-1.388026357018725232,0.394355979012638413,1.426881128449299929,0.478554166199562425
-0.335313174505800560,0.006635611968174727,-0.160686720300699692,-1.702229153882819368,0.079216454026384553,1.207839111822469835,0.521115766001817193
0.085320298989598864,0.285257568961057417,-0.038315998114806238,-1.534364508413936568,0.159137974161026458,1.645568414778976418,0.633461371796028905
-0.062347120315566357,0.347148269138470467,-0.200038308328898740,-1.502694196121378223,0.187981029618449286,1.223637974339848666,0.311908075356184977
-0.058997515341133164,-0.185688775739251688,-0.275590871343764698,-1.709537958950699155,0.453366706177002421,1.328612225224196530,0.426227766358793558
-0.051438512474797873,-0.298027842598819426,-0.189193396566958993,-1.505595451402098606,0.095078535617600046,1.261224115434490534,0.607957562890524716
0.022355990868512476,-0.016736862799738246,0.015285139490587268,-1.472215831898381122,0.380521451580094316,1.177218613152293480,0.443454758662704451
-0.039527711960107861,-0.087713548470621211,-0.262520014910204602,-1.557295545578230023,0.079203100624615663,1.394519183298124299,0.496614211805452288
-0.107334489538434177,-0.144455816809033466,0.003398747578617356,-1.982133586219134713,0.400824706147740017,1.215731474586905447,0.603295755323299598
-0.366858067725931436,-0.044508865643477821,0.029360333144578560,-1.602668253419375688,0.339657920692932824,1.430831116610876474,0.698685761031937580
0.023357528623500989,-0.027441049101862514,0.189686450733225986,-1.947805593127884594,0.462478085350174484,1.270607894872323840,0.243820360401260317
-0.227522916932984653,-0.016108022441787662,-0.141579655979084951,-1.540457432985076425,0.188516639950300380,1.277532917452704142,0.714624610216175071
-0.252886971576762098,0.028993876443210134,-0.255617673262555911,-1.424809462646660085,0.119384456642441988,1.298148054774665550,0.823930544051914016
0.022041386341634162,0.007453495453060881,0.083453084034437963,-1.754622945371125953,-0.022347977526766538,1.334227327733998214,0.714647745395635692
-0.201918193185672279,0.036889884065843592,-0.294238066114924091,-1.791120697735866463,0.439952589803700556,1.383885111597650708,0.420325772741883097
-0.012962810818137840,-0.114801090087285701,-0.247843003723461963,-1.783087695512281190,0.509269321636018679,1.317817823232077190,0.657524117989348400
-0.144858188861812648,-0.065545734050070414,0.045848762524693498,-1.702659371060101900,0.154299057244563526,1.384135349817906979,0.435405881211676893
-0.096151608360051655,0.236234450944536128,-0.068542519924012696,-1.756084004163569690,0.258277122946912352,1.174424787535371051,0.439350446935495298
-0.367221058783990140,-0.063673616649155579,-0.276012336725199592,-1.474139083519533155,0.230552346310053502,1.161805467613124865,0.630040450541614727
-0.193198391972496886,0.081393701237447991,-0.123668573376748789,-1.784510380961006115,0.261580916048006817,1.264541700638587507,0.417924128764326497
-0.224256897882585904,-0.061830936137784495,-0.402206392101484456,-1.828818818897728793,0.616366245212491837,1.203553360313716292,0.436346079749551696
-0.245224219467704452,-0.046134680463642205,-0.065369189944232645,-1.536680673355086402,0.301448746017635660,1.333465303804804769,0.613127645545053723
-0.292957526559074644,0.213288245377016211,0.100822804750428902,-1.684004239233327871,0.060297751225227791,1.460583980547458305,0.482162143026714229
0.052192911949166393,-0.155362159611632661,-0.240911445083647036,-1.392864616271399347,0.147341062099149517,1.346245586873209943,0.286739112809055952
-0.100986683733098145,0.141961177342520839,-0.298494100385459149,-1.621689613946465380,0.555205283224567303,1.359004875366186749,0.510134480831710646
-0.175807034630874770,-0.055820553042243912,-0.340158053257375470,-1.797363207825576570,0.210267553883604713,1.192389821237189951,0.520867746125738496
-0.013878336795924706,0.344869056552199738,-0.068837672733883234,-1.547904300058995597,0.286171110771385906,1.234252792087378481,0.493001527613370016
-0.718524060120092178,0.258941617957321402,-0.406460226099358668,-1.623554292442212388,0.157375622847772317,1.295047770993102310,0.595767925089620065
0.009682314258214780,0.274021425774958249,-0.145739583970294295,-1.460751554215369952,0.098652945185133067,1.219182374278880543,0.358506149676519503
-0.126266467197102022,-0.020348188569820673,-0.126474341165529330,-1.456715723056835055,0.370801350213034620,1.167388746908680552,0.453461490498164199
-0.193496780767213550,-0.185976218201993948,-0.005287138004371500,-1.834935404183845931,0.214610794017410345,1.248575062415786086,0.502470702560910532
-0.059505254188235948,-0.085914164486717001,0.065668720897522126,-1.625021337359828122,0.539435849467605033,1.112126052860205716,0.380363027262000608
-0.429362724019287989,-0.016220818885368096,-0.000866007936512203,-1.543305096256247788,0.307385206227536734,1.193148693922757575,0.435913441800834300
-0.138583369268209106,-0.208026172008427379,-0.275500108318271653,-1.609456358115944230,0.241403047016390870,1.222911338209244692,0.696390855981602552
-0.067127903865577446,0.398828042705390240,-0.260584403622966476,-1.852213499613878378,0.180260884581159742,1.429699711008884933,0.453772508369202743
-0.214543973235033270,-0.238549700869776615,-0.114401658387815131,-1.546880935647471755,0.360726659702031549,1.291364638389715491,0.699051743319590857
-0.238822475396208961,0.082759443404310823,-0.172001685324080916,-1.506254491190133438,0.431271227225357601,1.315868029850567833,0.741980003653524678
0.014146582839920430,-0.059175332407082233,-0.116104474560575543,-1.813921022457727128,0.494313997431114593,1.412460178626616658,0.400339620036920307
-0.147943143549173761,0.162483410385676819,-0.077931891235961392,-1.695740893760062429,0.276183470759247263,1.450749382217639827,0.567317595691378407
-0.341950157706136348,-0.153087812509971943,-0.341681743231063373,-1.575263193246120075,0.463596997395263832,1.312331956768273855,0.598833600123238052
-0.123800527685803574,-0.096527535966861006,-0.207847939836502182,-1.959390760977815393,0.435022315386092484,1.157418092108656538,0.407771162099019757
0.105517777107469651,-0.127804979252553907,-0.002264414755178468,-1.665842134427173882,0.174917646238398339,1.323657811740984958,0.396727573380891929
0.035084401843723384,-0.021607880791452243,0.066101960720352043,-1.644636063924886482,0.493070297372124045,1.542041611317808814,0.567506667071847049
-0.108223489087349814,-0.349517200327852051,-0.324743481184467497,-1.385315825880144347,0.103128353190876515,1.345311056386628401,0.310056905310997943
-0.252947044845842073,-0.046840625676202910,-0.478175133810568531,-1.380504582860334173,0.330426451595983828,1.235869890117210712,0.895570215814900594
-0.125189779202035556,-0.298186831002285102,0.109723737182501446,-1.740800861507484143,0.270287997851640593,1.228709533676823451,0.484711217894016555
-0.252856110823341251,0.038248683715704522,0.006558817473375361,-1.543815596798556733,0.325356953470050947,1.137797846668603841,0.594752469698106134
-0.242100423524566732,-0.393048632705496281,0.044882841121066636,-1.713208090213465429,0.359405129009045032,1.188874911885772434,0.525363254833412840
-0.162677970196958677,0.035994836073636953,-0.172301858611432462,-1.670325125181009396,0.541198203512848419,1.288737900802142899,0.496253201701140956
0.035073198401760763,-0.228923072620708545,-0.135576818517392811,-1.651036863437573388,0.345882736834620175,1.142684566851758898,0.631164221871427289
-0.209268636981683881,0.223152251358153919,-0.378326519440620790,-1.578307083630246188,0.249804269195787076,1.399878008782579286,0.753179147556783057
-0.044225402344086867,-0.047726722639407554,0.144407243584298434,-1.774298940500365962,0.300864545164655495,1.486206447109569506,0.792746397696975524
-0.112619554059093602,-0.077997252999921357,0.071060416523133496,-1.459017040032781320,0.414781394773108214,1.351635773159775011,0.529954094345793991
-0.027318325550215933,0.144904696276234451,-0.131058018910278490,-1.622497485616142709,0.502584663036983237,1.497592000805900714,0.479330653067659485
-0.231893620823949820,0.095978738749574868,0.072458528562664853,-1.541033806014962648,0.274547522819869938,1.571987182167459585,0.593374185971629053
-0.168560126400234378,-0.055921395973685360,-0.233329451923045050,-1.660312808828041886,0.242219693495216215,1.404890178305075565,0.604079368458753097
-0.290917398433829577,-0.109217400869235565,-0.285887769827995020,-1.681563823775782840,0.380490424683400830,1.639197290558477071,0.487106923241315659
-0.406684297789558447,-0.317975704257059066,-0.150516841658448614,-1.541452201315728798,0.602053287768465339,1.587506034746495764,0.422622484124718201
-0.153703563457208370,0.031475555032602069,-0.265518676888994776,-1.687387647340457209,0.159431282710950861,1.472212792074554022,0.628283828943784206
-0.316863643453145438,0.031078352870589812,-0.103645644014328242,-1.443110143545064172,0.198156922490274029,1.220529167984873320,0.498398963964318431
-0.095676947771404036,-0.064764949037641545,-0.166190492860487177,-1.515212531265819118,0.375918899820495533,1.207585282471260513,0.418391455325855588
-0.189420562018919825,0.099100448433242810,0.080317187525109440,-1.459549550565241605,0.249444493869979411,1.305295127251228759,0.453423569726361553
-0.124219311466504140,-0.006944724141612079,-0.082523770413695324,-1.567459177591522757,0.592779034735018806,1.476725737570556030,0.523934032574951525
-0.013007998323151720,0.137228898989852216,-0.081415741058126018,-1.598157222572540670,0.579196932518388552,1.198821732318669842,0.618150168846371306
0.035445648625205800,0.084955075777730746,-0.026450609067849129,-1.520310584464234838,0.247814175659811897,1.447227971215730324,0.432336632922574127
-0.088176304871171424,0.088298714818462520,-0.096235678874209543,-1.581380248689554291,0.183687291755794180,1.240593868354018969,0.626316299735941939
0.157330538899024208,-0.185358625201493626,-0.032049343582944118,-1.600751452814590525,0.364740058806274581,1.292358415867584487,0.868578442098191239
0.020314176222319374,-0.073477330246946360,-0.127380374823360898,-1.523359347756880977,0.283518557400139481,1.352011981071750579,0.807673657229296182
0.047214637586059205,0.065449699898243285,-0.200406346073126851,-1.681764700909335053,0.366732084262998137,1.458541581409701138,0.473100791780786012
-0.314476854175648302,0.011929027050645503,-0.153645419484068957,-1.715281572866878879,0.312721791088435452,1.379067463124908466,0.434526479143677813
-0.277091514204502620,-0.236473096904552649,-0.742775751055666622,-1.777175110527759561,0.400671014091080635,1.241004983536619477,0.647052042234727565
-0.074483671808885626,-0.085872329787409413,-0.112329345095784766,-1.601875588301084008,0.477168934131484979,1.417833617934634249,0.546524708198863118
-0.028190809595217192,-0.262851848035520030,-0.046157377982520786,-1.294718324810341992,0.360974421715668403,1.091151122599150369,0.703783265839261207
0.087815704844237424,0.184078912664237648,-0.043451266913072689,-1.452171594289138667,0.262152807383525033,1.299813470779668245,0.957398725345639634
-0.262970069441861409,0.018133913474115214,0.100872404735040694,-1.632622106073177815,0.111413561640311187,1.570073412959825498,0.273928722767714017
-0.316604286517551015,-0.140196087197261426,0.110638203860733780,-1.789516101347836452,-0.024658012274848873,1.344423670067789400,0.654137083795119700
-0.038518843048852960,0.004080540627007086,-0.163916039799871849,-1.645662862088298484,-0.016015833829730208,1.258835988268400596,0.460697260199159020
0.101815115507688930,-0.107960083014587899,-0.201148264012079914,-1.651794628765775430,0.493871327625074075,1.350135031013028675,0.712190928754341868
-0.484122663348114712,-0.100763403266041857,-0.140697347421141483,-1.790111842355802896,0.083560297857188243,1.225391250915961683,0.659962546863451682
-0.150371517781306141,0.048917083469173575,-0.034532373106939407,-2.002615968928732837,0.327841226507338990,1.178698803284659480,0.635028960343786197
-0.129543573686645180,-0.404245180733930842,-0.110749448394938860,-1.220683227284495853,0.421964382536231086,1.301443516550519819,0.562793498930489022
-0.229877861644718934,0.112632464976200455,-0.007317062053503548,-1.656572259079641896,0.460358533937581305,1.453530126931868338,0.502002033565715267
0.012608325101216539,0.001968645971481844,-0.094639737222032713,-1.559682321457831033,0.128403037794065172,1.522593422847486000,0.605489828328690916
-0.453884017140795959,0.168253432717572565,-0.087973864387700829,-1.802752477267181019,0.154454628037714176,1.132190035353533020,0.645340732365683900
-0.290843844176207122,0.097810989734321063,-0.203139987591857002,-1.629438756527914478,0.284072584365647751,1.448745172727740727,0.854151695514124620
-0.117853836666940159,-0.191666385955698432,-0.261493201339329184,-1.895500276884471980,0.378754120963108010,1.243737504044531317,0.618142486082171594
-0.330777884047801951,0.190543377823257643,-0.210752491490343308,-1.557099388490273961,0.238303341785303019,1.193059411328042829,0.328143394519907483
-0.028886221709794130,0.157337511462890267,-0.333742433601831201,-1.459793662305540085,0.415844006973773939,1.573711480497468340,0.340119382127690661
0.094459528314896180,0.140262609058131787,-0.358701893497607505,-1.478115954242350538,0.374085181845584980,1.193693625451999640,0.364854120123292991
-0.191524363272369103,-0.169853093200360350,0.097617727076023036,-1.947949802643055950,0.312645925933166424,1.291061426264741296,0.522295578606656541
-0.376013935429872881,0.038455187171768421,-0.004906452868575828,-1.754513172886166705,0.530422299637372752,1.290428539393512652,0.421462094907322005
0.030456668843595602,0.011850618189548433,0.017710817205147944,-1.809655315210125126,0.408094050867228553,1.673739250052734828,0.544720027278826735
-0.354016980883883003,-0.078074771975315566,-0.073086901874280810,-2.002799552769230829,0.039176577355500675,1.326392826281876047,0.649701919788162496
-0.113681314694411617,-0.228448767265941238,0.081410683904903747,-1.767706467837693030,0.079073426896165894,1.171807392720331853,0.521530933809684960
-0.245333407719025676,-0.035395028876427558,-0.134762419910776088,-1.582764246598100444,0.375338902446814782,1.313140677427074410,0.455725071048679264
-0.208993526024349313,-0.023759607284065915,-0.133143039902418159,-1.416384396036472371,0.420300359218799935,1.175353522973009657,0.615186284901124147
-0.189707105701691109,-0.048024482133750823,-0.159624392537759147,-1.854903560250584782,0.504382295633486022,1.377951242651662245,0.248202587492068971
0.018451381288490692,-0.061061789119725457,-0.261215468459697064,-1.814838632251673634,0.383462957891475609,1.155647087777461612,0.620359751962767936
0.219953699092854532,0.025658194076454081,-0.402781554036425959,-1.714176918147097606,0.153328334540644512,1.317372903856883326,0.626742301240987731
-0.309740626032138366,-0.094240739218730385,-0.209812952883167758,-1.905319655884486263,0.425074136275974013,1.154729347926562566,0.644943932382666674
-0.136661514230581455,-0.304051580536540744,-0.261002334509560452,-1.707737436395551089,0.529015274941031066,1.261255873896843793,0.513469016665343614
-0.269821740224625017,0.109767694159167817,-0.012750045871180865,-1.616908069776889834,0.243203788891053624,1.227461399620217941,0.614584177388918129
-0.207020213977956169,-0.338425635003469560,0.024595122602899949,-1.605459843829679878,0.359717071138358657,1.668327766985957084,0.858607749422850453
-0.040749261300817977,-0.309648056341100653,-0.223904753808853552,-1.750867624465476613,0.480349789265765326,1.294942697593250758,0.644313920545665497
-0.029757717005462078,0.072131578585094641,-0.244961926715460770,-1.594397073508518003,0.199851606064401888,1.330585850060091113,0.480806716310677507
-0.173291804464376309,-0.026976738621986598,0.169586461475088407,-1.741736371487822232,0.276915742956174160,1.139160668772667639,0.629356170499610346
-0.079729646062612500,0.026799823519154366,0.089758359701704621,-1.601463679797170192,0.082399710302944490,0.823107883338301871,0.434431438628172850
0.034850373177682248,-0.230214966752105593,-0.318808193279705165,-1.487317873646991861,0.188320009024455448,1.398432236881075985,0.494449544806009056
-0.445703921703902939,-0.501188403091449519,-0.094909644540056584,-1.713217521411751765,0.312817412948527607,1.265227796198103327,0.430259257246213611
-0.011228461796625677,0.109263975928358431,-0.114724327319213379,-1.548030824811833961,0.571986341225286576,1.474489775137798109,0.252461261877310550
-0.311938321623214665,-0.165395231707822693,-0.438069456711165428,-1.625049885812536177,0.190623538231122436,1.307269347690636740,0.578163120032613054
-0.102250095675654379,0.101638364598958336,-0.189296294761505973,-1.674573841485255787,0.366859544179687080,1.478290630981055287,0.494311754169239670
-0.323763798190574770,-0.119928686016081504,-0.018575749272362801,-1.699532185631797088,0.602128892333442689,1.425405253915787984,0.548200186022841485
-0.028832594669879238,0.016903923996859554,-0.406118572882313733,-1.655076898706906219,0.250595628038193907,1.327174243761619632,0.506731724379879900
-0.170866549116914568,-0.089489512756950579,-0.138740023570717103,-1.763433655471695172,0.376155095862520272,1.568139420161649422,0.496902764621722504
0.144071619376381438,-0.067123633347698483,-0.245905811008189368,-1.797362425370916839,0.158050676481899438,1.377132891744030863,0.419051178752421927
-0.081862604185464719,0.002035885110076546,-0.230192550085184577,-1.552205749498047904,0.364644536614557868,1.214445484570290779,0.714493065405263916
-0.119820260063424888,-0.112976986426876647,-0.051365543737210806,-1.493917698092301904,0.486643675764185990,1.243410489100466476,0.800413471163865964
-0.173695246179244839,-0.169279366174700185,-0.124705706636157598,-1.820036161101401095,0.521360859922527342,1.391335928155363222,0.739807547218298223
-0.331293883388514621,-0.030151771741654555,0.266876603617686059,-1.580924054585685301,0.466533301870011408,1.307745211723774004,0.556450331122600339
-0.150914215951325120,-0.356681202518854323,-0.080922132732697397,-1.751324532140373869,0.296780677515065539,1.385106986494859971,0.862910925030974107
-0.184371726924640794,-0.112922191009855524,-0.003341354512711919,-1.657577075491069474,0.493622320934764935,1.329319858183652059,0.526407887592526214
-0.268338491239811683,-0.204163321427120820,-0.202262504073332239,-1.530170604387254052,0.446622187112625801,1.257375961372995121,0.580436016730381921
-0.226130121742545154,-0.003361434572319799,0.092091729930033589,-1.228015040378145128,0.248948548339148645,1.412238447986930545,0.343383761504129748
-0.182035253285945609,-0.042611930083864456,0.119009006948441548,-1.686458081136082088,0.531077971690341100,1.264720843609699941,0.582328337793278528
-0.335971685541067711,0.121552192710664558,-0.207934609494031142,-1.540470246669555454,0.481208315633464168,1.595766202309430781,0.451687308934465959
0.070775858334125169,-0.018413819894846792,-0.176729447155373642,-1.584886013823826101,0.189165774992460456,1.299039069466617402,0.597723634209698318
-0.042211400695979714,-0.095301405948443163,-0.120970260127258061,-1.937471581607782101,0.268662927621427905,1.192040635885280198,0.552936442628878422
-0.141944779522346576,-0.006516173340106679,-0.248803077669166067,-1.401949693833990818,0.296835981130732174,1.667232878660729778,0.425756540488865687
-0.047319215378750917,-0.101308104327518467,0.023920583740329487,-1.703320867831139118,0.452796891376624433,1.197154484285946285,0.742668809573730937
-0.151723060612152655,0.060617412560081782,-0.041968167093135972,-1.526956659334543165,0.227283119998123839,1.565390402372299095,0.779326700692857921
-0.208145648747439294,0.022275136331658660,-0.159396642668118343,-1.813990276424915393,0.400835026592856802,1.686208554663863879,0.245735223488977750
0.074812199253036615,-0.303605092666312582,0.151595294611947901,-1.289708307878113747,0.162250968324638950,1.453862977389105193,0.758740951275954423
-0.208948269137956444,0.025100970115547599,-0.435767066099694012,-2.041765535932031028,0.230192508431215803,1.135980815745719408,0.414439908816420455
-0.106741172647367863,0.253558590572494469,-0.051040839940413890,-1.507096828915997389,0.156701504167470640,1.524804734902767578,0.489224947453588410
-0.052062311322625177,-0.017518363812519248,-0.196116029713116813,-1.818213658534376886,0.276297863459856130,1.481674554752348660,0.596067213507778693
-0.060948303317799477,-0.287735803133308266,-0.367206435524327357,-1.475311649160416794,0.303578270476958789,1.244637439587373162,0.605065986823474677
0.101976122115721379,-0.079286838993999520,-0.014608607538846324,-1.636368264118902571,0.482429998723394982,1.212245457050968200,0.862265516949813127
0.015027813132515944,-0.022266197153200225,-0.026785630943357841,-1.674606791974581510,0.461525473158910793,1.394538418710398853,0.296006172945808999
-0.018647652101618700,0.131537843815664912,-0.236404938190626468,-1.455204852644800928,0.231452357338725795,1.201148779078928142,0.532142182997340285
-0.204201706132956379,-0.018467214947122820,-0.413646161087542930,-1.864046393435226934,0.402034883486937722,1.235920795030400310,0.424591603592155531
-0.241967935342447760,0.098429350785446013,-0.316588165861318438,-1.827892262719290173,0.206976893674317985,1.480474307551894686,0.457528364804187349
-0.016360944879483280,-0.277772879156968744,-0.255146109927289477,-1.812540781822869151,0.248341660932489827,1.445041538798420566,0.589326674570011977
-0.036011869379316538,-0.447999242428170186,-0.104471627439739367,-1.842286639645638324,0.253512359195732451,0.800452974927656657,0.504106677789916025
-0.024379144207273815,0.081702655460445250,0.237187945582338744,-1.620913116561446321,0.393227178982067049,1.422469021790399246,0.480285460604910341
-0.213157255333360440,-0.370763710571902660,-0.130642476831015764,-1.784863572826954403,0.326958796144033781,1.380209089336727590,0.609564722175680362
-0.516742462846654815,-0.043147656051782467,-0.137216792697423928,-1.791113241498059505,0.387439508865201176,1.285655540808756214,0.664397076154524147
-0.304502019736740626,0.029663164840286811,-0.410147093238920069,-1.444625925675544931,0.386363398533424995,1.216021841722387364,0.517999990842278879
-0.022356036495042919,0.071305800519755408,0.243922628466904268,-1.667176636582688776,0.119567308488661816,1.122032431721102341,0.661314711464282334
-0.281849299971205336,0.194949814386239956,-0.195260608669595048,-1.766710834337819946,0.282964451382232973,1.263214501333737250,0.432336165022001950
-0.085036988888142762,-0.418811934722954693,0.031317991241670506,-1.657930798233478775,0.371002669999082713,1.337461190003796263,0.499218196887861176
0.077424529404659020,0.314857433872305248,-0.138253483320973092,-1.579007293353623664,0.461218362801196380,1.419144489602454096,0.704504862040780888
-0.068454964882953148,0.056823464626986918,-0.174743363225046883,-1.890589222971820416,0.259983918816214299,1.314948343257189123,0.521997374921289281
-0.300738188121078776,-0.227046340762469545,-0.210744535520854065,-1.764101707791535301,0.407107048086595147,1.345449266536185240,0.488558586717329713
0.001977352058775972,-0.081342883047882536,-0.099705672871124390,-1.745190790807421788,0.300870024646285261,1.311668658768954332,0.505047652464395092
-0.101676119347828692,-0.033865717432654485,-0.118419386908917901,-1.941858041903600673,0.415229492528218280,1.589997805058673386,0.637356988856256246
-0.140520424048161813,-0.113227657615126598,0.158665828838452871,-1.604652379133013396,0.565728883566075091,1.291901940840227248,0.319535628712545039
-0.138413863370620394,-0.085993159318141735,-0.219711748202631479,-1.622699426333874539,0.643369049635305501,1.306212773313929043,0.500289287534852578
0.185860671680672662,-0.073565466151608777,-0.458086352405699726,-1.773589543953893788,0.292823058929486568,1.125572875764875302,0.566660187473806864
-0.089014161408825898,-0.153776018644393692,-0.360069906824704578,-1.876504713241418321,0.512186401694763260,1.488395232133818968,0.362023688516391662
-0.093707387734411313,-0.174959091401566486,-0.131990714172509738,-1.755819355067076426,0.357812110062262489,1.668732027078457136,0.388332782411430599
-0.268176421935920728,0.174657959963272186,0.051289740295039604,-1.685127791245826012,0.408592836510941193,1.282735301057006838,0.595612527789288970
-0.327619299318559209,0.116868558262197858,-0.149006435948315863,-1.628317903775955644,0.300546130120621646,1.352304993807726063,0.769641401825874594
-0.243786482656710990,-0.221532191679677248,-0.145148190326878646,-1.617143228778866071,0.437420613529807989,1.463743188852268728,0.316025808879366266
0.021616159244609995,0.001755526597013536,-0.250227197364795817,-1.659025653644806475,0.282405968639301175,1.177093942681806782,0.605062751862510573
-0.161776937397085430,0.042358037695974904,-0.392991262478517289,-1.674912820654337331,0.062169062841664097,1.478789644814262561,0.713934457422292335
-0.401031800158376750,-0.076929571231006341,-0.023319282731162877,-1.786846343100473744,0.403939019424155832,1.498364510939740324,0.633648907899286518
-0.087176901803658086,-0.085155229142495459,-0.139398055105700525,-1.685942349199909485,0.659809941130240940,1.322767848628528586,0.317816816372357980
-0.252246772118137008,-0.170710715370765320,-0.278929623990062714,-1.858516781535034079,0.374452081003376847,1.469023668908056912,0.469797842945569033
-0.156588605565737254,-0.017667870591499685,-0.134386640774648569,-1.461641159462538253,0.234998592633356096,1.418979216121888598,0.818208561892716402
-0.016433669254339783,0.005977367910509269,-0.332141718585488632,-1.658765871520915036,0.246129373510827115,1.194734806124019055,0.525667339332920425
-0.303689522918832888,0.057213028864200204,-0.078989536543512748,-1.654392697285008262,0.341793646953761909,1.595174669181931737,0.725387480195676448
-0.422331935953542903,0.083664043045202946,-0.231292364223449065,-1.808664185919445888,0.137053177047017888,1.442639791103318192,0.605579316963681835
-0.180991855960791787,-0.054872720268818037,-0.288198337150423423,-1.755100821344533379,0.104860892600196570,1.370701522301622788,0.394860634983582814
-0.026935276853524814,0.079993580153426502,-0.066497498989602818,-2.159756724548504092,0.381236781354531706,1.525280171881179259,0.240262050547899730
0.098255023211244907,0.034421245344685339,-0.216608937558162296,-1.964874843780467284,0.405842541042298666,1.283211635615931545,0.685446137276322753
-0.230181863855198315,0.001670245679172150,-0.182615029878624074,-1.456522282826675507,0.364398225612639903,1.243215145187459125,0.598297641833020921
0.072481863894324539,0.051489470089034310,-0.011084634767730778,-1.830627330874399217,0.027787941169683306,1.233697690010436387,0.359997861258820273
-0.032374241740072487,-0.419623675230144710,-0.199062487109358838,-1.508884915484180134,0.329812152272011050,1.353598040846427430,0.454037379291696408
-0.432268623949329189,-0.089263415114107264,-0.106754061595730823,-1.668226181577353140,0.018899967011425378,1.428327911829835761,0.574033807264975215
-0.077923263981785840,0.005375992047473063,-0.163013112881091410,-1.548544933904114629,0.291977218284704299,1.236808787616999750,0.606019574773477565
0.008784828763558294,-0.122811034353077442,0.004869284580507838,-1.755426874028624518,0.435407041762246705,1.360932266589935935,0.499923752393331033
-0.016721752818616348,-0.023169696878007920,-0.255364374662000793,-1.679911215676582747,0.174008312973813806,1.256189842237931176,0.597751507576208874
-0.273662597867495860,0.134214131131029896,-0.102503193937706405,-1.673071191184365869,0.197368467675475057,1.099564638567917196,0.461665044654785972
-0.144812540159381137,0.061074737647325822,-0.126632711437000806,-1.794474765479355360,0.035054070035220208,1.456723187092176630,0.473481709859645494
-0.131983736742869867,-0.180341979168078925,-0.204034075640503632,-1.855258909633233699,0.207133898552352869,1.479105571491027504,0.544900001497663489
-0.192073279358116855,0.017246385693517371,-0.218873724469634878,-1.773535832293463121,0.277448855145987050,1.201748965830728544,0.545944342727336829
-0.379363630143300323,0.065930119216961305,-0.191171672413830429,-2.011175505667430308,0.242313018342000669,1.351284997592276493,0.513276941941678055
-0.254724987858998275,-0.000360019182380988,-0.179532450513467640,-1.731979869594683086,0.270374930707840300,1.239674562898939181,0.774177193998467184
-0.168734177594578455,-0.115969173995650709,-0.148865859721174942,-1.371694977303086649,0.446730932779397683,1.417556175132705709,0.486003101937369342
-0.203986139449033099,0.174489319688300837,-0.176922785607364325,-1.539791906503636731,0.211881221679349419,1.406588331814036419,0.400298449899142761
-0.310276118494527631,-0.352168736102126012,-0.427825081495437964,-1.680980327756872006,0.119339433518645760,1.090004004895580358,0.526865535539449703
-0.265200399330034198,0.086832897358658387,-0.044144774257388442,-1.934493183147222739,0.066032297901359033,1.181877117341326944,0.227451633107020490
-0.186424101156513256,-0.090984170389923555,-0.002546230639162789,-1.672995605349330006,0.214728694389269559,1.211956031295744252,0.690394386166960028
-0.213727857915909369,0.064511621381593054,0.044153828902655096,-1.698082758837045292,0.266339327692133920,1.234352563661001767,0.652235802949509891
-0.325842482103285258,0.013578193418665965,-0.118632566933369377,-1.738611249959478799,0.132770827226512428,0.984289282852525815,0.594770255362331857
-0.216341370626271928,0.010781943451058609,-0.214125318463149888,-1.514759246422695549,0.518278022540482497,1.118212389683343355,0.626278751269803702
-0.412468472551425769,0.022035535243768792,-0.394807847418447322,-1.560378786161977338,0.559603394486352435,1.315720502991666319,0.545843077819102018
-0.414466514018592247,-0.020693119853953959,-0.425010217474876495,-1.869853911039903949,0.381827795012543603,1.350542487558086258,0.537746802092226028
-0.360007092464789902,-0.259469980842294279,-0.160429464089692775,-1.787524833535926394,0.138085234593810197,1.062643199134534200,0.659831030664326912
-0.046980986680584133,-0.242464242275236108,-0.276349256966737289,-1.787162705081189351,0.386363635353917712,1.336328241412252149,0.441178203560214255
-0.304162908674767862,0.104531479319317375,-0.268428192843056690,-1.632966860312767388,0.125467868333385912,1.417999864965961532,0.438882387480392544
-0.065498326366309936,0.050476215721563050,-0.027507159184277818,-1.499484801535050371,0.521203406445081341,1.183399990134480051,0.713283817808134435
-0.280673880368491058,-0.162112435743419381,-0.576494507966476499,-1.709074657712938761,0.622292283072696684,1.234143600572960020,0.682924008741654265
-0.018239900719797253,-0.175094338572756969,-0.341500200007436305,-1.618102100172507773,0.566190802748760547,1.094123949205795476,0.509946635613650501
-0.021791745825822217,-0.292382516499228640,-0.173390637585226964,-1.876785910549350955,0.143568733015191352,1.340719320937461712,0.412307394746340261
-0.287711484562616304,0.059857985793204782,-0.020742314261799816,-1.454993405491015634,0.386770469803246253,1.063584889779577214,0.422908162143598665
-0.243592781264435509,-0.100584867222279148,-0.367777412719761609,-1.718354981481059474,0.307261372147940304,1.327194982400478285,0.692808702821169353
-0.046196068341144716,-0.229764371140073198,-0.402807782399411063,-1.849106623027370944,0.509300933527140787,1.220711445925269922,0.650890362948702839
-0.046198624687800616,-0.171155672760487654,-0.246830853559772412,-1.851189563382967140,0.455088269312301286,1.441909217285519684,0.761855615798998853
-0.044883169749597551,0.049980106274870401,-0.152442045953812638,-1.673356794696089445,0.332480863132182836,1.391552065321395304,0.428148097437636377
0.181760866805415977,-0.031967019841909181,-0.086000317901762866,-1.682027120426815125,0.307098038541712304,1.301631533266927487,0.546733028548994859
-0.030957662742883599,-0.060482061230840906,0.028922533477742596,-1.675665019055448957,0.384286849075852754,1.464447706399303106,0.401893217242390799
-0.137777203503680251,0.275449304804596062,-0.216696291672262703,-1.721521694280418346,0.231323762364106345,1.470553844979988867,0.456746167074007225
-0.110407924302823313,-0.010509626174778075,-0.301934245574592808,-1.479058122439144141,0.296353120779086598,1.419171966769026794,0.609668869706122662
-0.051069169418004476,-0.021216459357315760,-0.197145099731508094,-1.682646462487658257,0.434873549285302641,1.327238682751332055,0.345480460239488418
-0.279947042448372152,0.027010643965504996,-0.350370523307314108,-1.702475087693918976,0.203230605267432474,1.355560467414672177,0.380255872479683454
-0.450947975750648267,0.021795526574837590,-0.164855315028252292,-1.777214952722566244,0.351766504917081779,1.470847479172179728,0.200101851599197078
-0.163499665922430981,-0.124586184527765431,-0.317509874237437262,-1.637416614239759705,0.136382574124334299,1.636429431468783946,0.235762888631409651
0.116506877582147450,0.094565470975022478,-0.013534767709001888,-1.431183405010740595,0.362243790829883339,1.527519453892050461,0.564765992729233557
0.000573207557611560,-0.128657644012167782,-0.174777733696591275,-1.642363963467487364,0.221107709710245570,1.535932631285766847,0.365301802807374010
0.054535998430249311,0.089781612074940217,-0.261593058469595463,-1.602114262560632607,0.285873158244536851,1.229276161766452491,0.445054773359185696
-0.410835870964059824,-0.096508074413051925,-0.199594312320264922,-1.542266459297857661,0.275683908023117763,1.216007146008797113,0.462340421863180862
-0.217243989767961554,-0.044518917351317286,0.133992607005623376,-1.727605047370823765,0.512855735711616245,1.350050526467033052,0.611233598533290623
-0.371823299958839337,-0.357166509495155160,-0.359766391966348298,-1.988097409990102982,0.600702977633941759,1.002743258174632057,0.411905583585859603
-0.141366570315698575,-0.003037239000139941,-0.263076459041272415,-1.625666686317807308,0.431032100723368505,1.217208900718604658,0.458175219938302347
-0.027581478113243851,-0.331622052289310076,-0.243909900092490362,-1.692968714387042217,0.229644203496525923,1.217361429487977986,0.250497075215970422
0.090119087156290495,-0.261716895357693102,0.092360800632528162,-1.702190247654073119,0.449761017006510944,1.450606175962634081,0.568769750033529586
-0.249129822557358604,-0.195029901309691334,-0.121518647379813216,-1.763867623042507882,0.452993206622062217,1.414117683982639706,0.841859197154855021
-0.087936715008179553,-0.092119643163318887,-0.099280252555480467,-1.755436889993199578,0.227024238434777204,1.179888518186059887,0.638188866196396143
-0.433228361888353508,-0.128232470665523929,-0.196860946683030141,-1.537881066426085797,0.329857376421393456,1.595714594629756844,0.410825886612021296
-0.186567396013757297,-0.111332714370054667,-0.296533994387537747,-1.699952826057026689,0.212784661942218289,1.250123930453786780,0.622668917546194134
-0.314216714755612858,0.038259974752588258,-0.122342360192571040,-1.897453105649077543,0.065743746896875954,1.538846599151826977,0.252809662409205493
-0.109384339877033221,-0.112661904546160346,-0.186878600892879582,-1.516350789129928378,0.181181346097173401,1.308168867401887203,0.348796834808305367
-0.009224635259671016,-0.127716446166420527,-0.273209448398754107,-1.848294831390675075,0.092230119271169392,1.182815093683943664,0.496959005776368257
0.113641049713718134,-0.008726032059458877,-0.304687715817403948,-1.733759368892310748,0.025768805228253810,0.922645603552162852,0.595720542015370391
-0.149226335661643783,0.016012581776926438,-0.327578584861419775,-1.751916000274561291,0.078280047056870194,1.276355292766947702,0.426424728784948970
-0.219465541416004051,0.055125128070466184,-0.056807272384543056,-1.887684230351541093,0.622207254067789650,1.300597811964641304,0.935068620638532355
-0.279820477518944011,-0.068907184696502574,-0.117650170900694545,-1.737494548231281799,-0.055247411820279757,1.182772901163734458,0.591870720603686395
-0.387875408707863301,-0.032273279165332160,-0.056156854486808711,-1.781779372616944856,0.196135801227911855,1.141457922224625054,0.499618063266289103
-0.162704011315297603,-0.180440186312226747,-0.324895907514030025,-1.993196437858394843,0.362768048873282400,1.416526158291350868,0.558082534350008874
-0.078586569270009204,-0.215347361935677772,-0.282950785658038662,-1.512825199624480366,0.518459630320933562,1.233375371684533928,0.260362103233046649
-0.195977430450431145,0.048630684388361087,-0.426151434373173710,-2.020089234969889347,0.387058001504548221,1.371356343981763981,0.267350226403316238
-0.186454301978935200,0.108260730653896645,-0.175338984520079594,-1.819337294752119805,0.289540567170374297,1.213987563040395123,0.383080553656463096
-0.226040600870077574,-0.137625336375821916,-0.182865517614366507,-1.988494743899771322,0.287279441206785113,1.164740417930582472,0.439989646356918729
-0.321654000430893761,0.162840992774362675,-0.076984635609246441,-1.522341176909453031,0.329825954616390804,1.240215205051339753,0.508439835659819095
-0.281978799752589160,-0.177210819314732204,-0.342820332199531952,-1.576586584160422078,0.242604491926465493,1.528212089482240632,0.554212368988795223
-0.227992212516724302,-0.120037453211951944,-0.561980605483723750,-1.401832831377238353,0.422366350582216832,1.319125665223576993,0.557846800379900420
-0.190527461292832823,-0.214389642661314078,-0.147880950795498289,-1.708045814840478682,0.416270836675538269,1.262583519290525924,0.428922319335139801
-0.295462294898512945,0.177349986242349378,0.053071166638090445,-1.714269028113542204,0.063114715552868850,1.401348435306418505,0.646498622737909479
0.134249270653011288,-0.455671715398584420,0.204629444064024418,-1.828787473928512153,0.332598719572704593,1.319337961689799554,0.640406559547727072
-0.015523726911062907,-0.189390637452525490,-0.214516645224232805,-1.629214742989960385,0.386226364253538734,1.395878172214505275,0.513196809968277767
0.089219803046167223,-0.092390140531557030,-0.296007218167390840,-1.719636933099430109,0.237542051160076539,1.475459131480661989,0.305300304583605409
-0.147662599280982049,0.001345625540463802,-0.207825608430566300,-1.661641777940817022,0.563480938323740466,0.896073878609088492,0.712912353041104008
-0.140896302084563940,-0.141039754505543263,-0.511094539941675752,-1.889086431180120540,-0.191911229619291968,1.132049174622599574,0.500081563393971473
0.177609864045195132,0.068451518654291540,-0.280958701905895891,-1.222648447013079620,0.136426922608768236,1.118351591576591142,0.306173876761677788
-0.112072865022296964,0.071803015527245287,-0.124888763770443958,-1.876095710017352536,0.436270299076612300,1.199342594050727406,0.578154894269112596
-0.060840468700971512,-0.013459292058037281,-0.209454197108398799,-1.630915218781316733,0.037743712305680382,1.382794619467412334,0.663455182172986602
